Golgo 13 The Professional/Cube/black-05.cube
LUT_3D_SIZE 9
0 0 0
0.090299 0 0
0.21494 0 0
0.34248 0 0
0.48037 0 0
0.61581 0 0
0.74458 0.00044377 1.952e-005
0.87188 0.00073241 0
0.99999 0.0011108 0
0 0.0866 0
0.092434 0.089847 0
0.22109 0.096627 0
0.35073 0.10542 0
0.488 0.11441 0
0.62009 0.1201 0
0.74601 0.12304 0
0.87231 0.12436 0
0.99972 0.12409 0
0 0.21734 0
0.098703 0.22226 0
0.2269 0.22705 0
0.35985 0.23414 0
0.49502 0.24107 0
0.624 0.24524 0
0.74828 0.24753 0
0.87284 0.24876 0
0.99876 0.24886 0
0 0.34821 0
0.104 0.35324 0
0.23299 0.35972 0
0.36698 0.36641 0
0.49981 0.37172 0
0.62595 0.37389 0
0.74864 0.37382 0
0.873 0.37304 0
0.99907 0.37309 0
0 0.48178 0
0.10994 0.48711 0
0.23902 0.49297 0
0.37236 0.49836 0
0.50224 0.50099 0
0.6259 0.50114 0
0.74737 0.50007 0
0.87219 0.49898 0
0.99947 0.49884 0
0 0.61152 0
0.11467 0.61531 0
0.24431 0.62041 0
0.3752 0.62366 0
0.50257 0.62405 0
0.62525 0.62367 0
0.74675 0.62365 0
0.87199 0.62408 0
0.99984 0.62421 0
0 0.7375 0.0001341
0.11893 0.74084 0
0.24824 0.74492 0.00032876
0.37603 0.74653 0
0.502 0.74615 0
0.62543 0.74577 0
0.74779 0.74679 0
0.87285 0.74829 0.00013859
1 0.74902 0.00051322
0 0.86663 0.000277
0.12276 0.86968 0.00023359
0.25051 0.87213 0.00035064
0.3758 0.87251 0
0.50097 0.87155 0
0.62559 0.87103 0
0.74932 0.87182 0.00011953
0.87411 0.87309 0.00026024
1 0.87382 0.00066907
0.0010143 1 0.00049161
0.12425 1 0
0.25083 1 0
0.3752 0.99939 0
0.50031 0.99903 0
0.62555 0.99915 0
0.75011 0.99942 0
0.87491 0.99994 0
1 0.9998 9.5307e-006
0 0 0.090854
0.092382 0 0.089902
0.22173 0 0.096395
0.3504 0 0.10609
0.4868 0 0.11527
0.61767 0 0.11983
0.74488 0 0.1215
0.8719 0.0004814 0.12276
0.99795 0.0015379 0.12132
0 0.090979 0.091749
0.095546 0.094832 0.092892
0.22852 0.098834 0.098446
0.35881 0.10523 0.10592
0.49401 0.11238 0.11292
0.62208 0.11761 0.11633
0.74721 0.12112 0.11875
0.87291 0.12305 0.12111
0.99849 0.12374 0.12114
0 0.22464 0.10068
0.098668 0.22951 0.099927
0.23102 0.23146 0.1026
0.36476 0.23529 0.10632
0.49924 0.23949 0.11026
0.62594 0.24264 0.1127
0.74994 0.24506 0.11535
0.87428 0.24688 0.11821
0.99883 0.24806 0.11961
0 0.3539 0.10787
0.10348 0.35983 0.10606
0.23449 0.36499 0.10601
0.36916 0.36943 0.10671
0.50198 0.37244 0.10842
0.62737 0.37339 0.11033
0.75061 0.37293 0.11339
0.87514 0.37261 0.11701
0.99985 0.37306 0.11918
0 0.48601 0.11374
0.10938 0.49204 0.11184
0.23927 0.49728 0.1102
0.3726 0.50128 0.10884
0.50316 0.5028 0.10928
0.62666 0.50245 0.11042
0.74907 0.50111 0.11317
0.87464 0.49969 0.11705
1 0.49904 0.11929
0 0.61354 0.11721
0.11437 0.6181 0.11567
0.24359 0.62289 0.11331
0.37463 0.62553 0.11115
0.50314 0.62575 0.11141
0.62614 0.62577 0.1129
0.74834 0.62602 0.11537
0.87363 0.62586 0.11831
0.99936 0.62509 0.11935
0 0.73913 0.11963
0.11882 0.74298 0.11872
0.2468 0.74653 0.11596
0.37565 0.7479 0.11381
0.50291 0.74804 0.11439
0.62648 0.74795 0.11615
0.74909 0.7489 0.11849
0.87371 0.74983 0.12055
0.99937 0.75036 0.12085
0 0.86877 0.12256
0.12166 0.87099 0.12128
0.24874 0.87248 0.11795
0.37567 0.8727 0.11561
0.50243 0.87228 0.11674
0.62682 0.87209 0.11883
0.75026 0.87286 0.12095
0.87461 0.87402 0.12276
0.99993 0.87474 0.123
0.00027903 1 0.12371
0.12214 0.99931 0.12168
0.24918 0.99864 0.11837
0.37507 0.99841 0.116
0.5023 0.99816 0.11737
0.62686 0.99859 0.11966
0.75115 0.99887 0.12192
0.87555 0.99959 0.12391
0.99971 0.99941 0.12431
0 0 0.21252
0.097201 0 0.21625
0.22876 0 0.22147
0.36044 0 0.22924
0.49417 0 0.23667
0.62203 0 0.24197
0.74821 0 0.24684
0.87228 0 0.24942
0.99603 0.0011031 0.24935
0 0.10034 0.21877
0.10087 0.10357 0.22583
0.23175 0.10531 0.22935
0.36465 0.10773 0.23327
0.49805 0.11102 0.23638
0.62537 0.11409 0.23912
0.75105 0.11685 0.24309
0.87473 0.11939 0.24653
0.99798 0.12175 0.24771
0 0.23121 0.22546
0.1018 0.23284 0.23083
0.23279 0.23294 0.2333
0.36768 0.23477 0.2346
0.50112 0.23763 0.23562
0.62809 0.2401 0.23677
0.75345 0.24226 0.23942
0.87715 0.2443 0.24296
0.99995 0.24632 0.2452
0 0.36069 0.23127
0.10394 0.36481 0.23456
0.23405 0.3673 0.2348
0.36998 0.36935 0.23393
0.50309 0.37086 0.23376
0.62966 0.37156 0.23456
0.75478 0.3719 0.23767
0.8788 0.37247 0.2418
1 0.37316 0.24421
0 0.49157 0.23737
0.10786 0.49645 0.23829
0.23637 0.50009 0.23602
0.37175 0.50219 0.23303
0.50358 0.50291 0.23171
0.62915 0.50257 0.23265
0.75402 0.50129 0.23676
0.87864 0.49996 0.24168
1 0.49896 0.24417
0 0.6171 0.24198
0.11213 0.62156 0.24141
0.23954 0.62548 0.23747
0.37281 0.62766 0.23329
0.50384 0.628 0.23167
0.62881 0.62844 0.23289
0.75269 0.62818 0.23691
0.87691 0.62685 0.24142
0.99979 0.62538 0.24392
0 0.74274 0.24568
0.11606 0.7462 0.24433
0.24251 0.74926 0.23969
0.37374 0.75099 0.23573
0.50399 0.75108 0.2343
0.62917 0.75116 0.2355
0.75251 0.75178 0.23868
0.87615 0.752 0.2422
0.99911 0.75206 0.24412
0 0.87142 0.24829
0.11847 0.87297 0.24667
0.24422 0.87437 0.24215
0.37437 0.87489 0.23902
0.50349 0.87469 0.2375
0.62944 0.87434 0.23856
0.75333 0.87494 0.24122
0.8768 0.87614 0.24411
0.99938 0.87688 0.24546
0 0.99939 0.24887
0.11894 0.99861 0.24735
0.24509 0.99874 0.24341
0.37435 0.99915 0.2411
0.50317 0.99926 0.24004
0.62923 0.99916 0.24056
0.75417 0.99923 0.24302
0.87772 0.99972 0.24559
0.99963 0.99992 0.24694
0 0 0.3452
0.10293 0 0.35026
0.23367 0 0.35532
0.36656 0 0.36046
0.49874 0 0.36362
0.62721 0 0.36694
0.75239 0 0.37069
0.87424 0 0.37333
0.99687 0 0.37563
0 0.1079 0.35142
0.10586 0.11015 0.35755
0.23457 0.11046 0.36147
0.36739 0.11027 0.36422
0.5 0.1112 0.36479
0.62871 0.11265 0.36687
0.75459 0.11412 0.36961
0.87718 0.11643 0.37179
0.99949 0.11929 0.37406
0 0.236 0.35639
0.10624 0.23679 0.36267
0.23417 0.23611 0.36617
0.36789 0.23601 0.36689
0.50147 0.23704 0.36528
0.63008 0.23828 0.36595
0.75655 0.23997 0.36836
0.87992 0.24233 0.37052
1 0.24456 0.37255
0 0.36649 0.3616
0.10662 0.3687 0.36688
0.23371 0.3689 0.36896
0.36822 0.36866 0.36809
0.50203 0.36881 0.3649
0.63132 0.36915 0.36413
0.75842 0.37016 0.36616
0.88205 0.37144 0.36877
1 0.37221 0.37084
0 0.49651 0.36637
0.10835 0.49914 0.36969
0.23382 0.50058 0.36939
0.3681 0.50102 0.36673
0.50161 0.50062 0.36205
0.63129 0.50017 0.36074
0.7588 0.49945 0.36337
0.88241 0.49868 0.36658
1 0.49834 0.36929
0 0.62095 0.36979
0.1106 0.62358 0.37106
0.23554 0.62637 0.36937
0.36856 0.62829 0.36579
0.50174 0.62909 0.36093
0.63079 0.62924 0.35914
0.75719 0.6281 0.36129
0.88085 0.62615 0.36468
1 0.62456 0.3681
0 0.74536 0.37193
0.11334 0.74796 0.37164
0.2387 0.75101 0.36987
0.3699 0.75364 0.36674
0.50207 0.75398 0.36253
0.63051 0.75382 0.36031
0.756 0.75343 0.36142
0.87952 0.75279 0.36415
1 0.75214 0.36708
0 0.87253 0.3729
0.11586 0.87402 0.37227
0.2412 0.87584 0.37081
0.3713 0.87758 0.36862
0.50155 0.87782 0.36497
0.63017 0.87713 0.36256
0.75581 0.87705 0.36275
0.87943 0.87729 0.36457
1 0.8776 0.36695
0 0.99914 0.37321
0.11696 0.99889 0.37294
0.24235 0.99971 0.37154
0.37247 1 0.37012
0.50113 1 0.36699
0.62984 1 0.36473
0.75604 1 0.36454
0.8796 1 0.36544
1 1 0.36722
0 0 0.48239
0.10741 0 0.48708
0.23736 0 0.49155
0.36865 0 0.49437
0.49991 0 0.49443
0.62961 0 0.49458
0.75431 0 0.49497
0.87645 0 0.49574
0.99972 0 0.49805
0 0.1119 0.48666
0.10999 0.11459 0.49262
0.23743 0.11503 0.49712
0.36737 0.11343 0.49856
0.49955 0.11251 0.49716
0.63019 0.11263 0.49594
0.75621 0.11414 0.49595
0.87898 0.11658 0.4967
1 0.11879 0.49819
0 0.23914 0.48964
0.11113 0.24033 0.49651
0.23656 0.23972 0.50123
0.36648 0.23891 0.50212
0.49902 0.23831 0.49961
0.63077 0.23816 0.49714
0.75831 0.23935 0.49685
0.88159 0.24164 0.49766
1 0.24361 0.49879
0 0.37062 0.49296
0.1107 0.37111 0.49888
0.23535 0.36963 0.503
0.36572 0.36822 0.50334
0.49836 0.36735 0.49999
0.63088 0.3669 0.49704
0.75999 0.36743 0.49602
0.88362 0.36879 0.49626
1 0.37003 0.49719
0 0.49915 0.49564
0.11042 0.49998 0.49942
0.23389 0.49969 0.50218
0.36427 0.49877 0.50144
0.49714 0.49736 0.49739
0.63077 0.49677 0.49443
0.76039 0.49618 0.49286
0.88454 0.49587 0.49294
1 0.4963 0.49447
0 0.62256 0.49671
0.1116 0.62395 0.49924
0.23439 0.626 0.50089
0.36454 0.62781 0.49966
0.49698 0.62916 0.49559
0.62931 0.62834 0.49167
0.75857 0.62607 0.48947
0.88371 0.62387 0.48987
1 0.62287 0.49223
0 0.74619 0.49741
0.11405 0.74788 0.49942
0.23747 0.75137 0.50066
0.36651 0.75447 0.49918
0.49734 0.75554 0.4953
0.6279 0.75505 0.49065
0.75651 0.75375 0.4878
0.88185 0.75222 0.48754
1 0.75091 0.49022
0 0.87271 0.49772
0.11643 0.87405 0.4991
0.24074 0.87624 0.5008
0.3683 0.87861 0.49931
0.49731 0.87919 0.49559
0.6273 0.87894 0.49127
0.75555 0.87862 0.48837
0.88092 0.87805 0.48743
1 0.87764 0.48919
0 0.99953 0.49797
0.11762 0.99968 0.49924
0.24219 1 0.50105
0.36984 1 0.49962
0.49717 1 0.49599
0.62729 1 0.49226
0.75532 1 0.4895
0.88052 1 0.4884
1 1 0.48947
0 0 0.61083
0.1121 0 0.61596
0.24069 0 0.62172
0.36923 0 0.62434
0.49904 0 0.62436
0.62826 0 0.62222
0.75332 0 0.61956
0.87707 0 0.6183
1 0 0.61897
0 0.11458 0.61459
0.11516 0.11816 0.62052
0.24046 0.1189 0.62559
0.36768 0.11745 0.62826
0.49765 0.11581 0.62816
0.62781 0.1149 0.62536
0.75494 0.11611 0.62201
0.87935 0.11871 0.62027
1 0.12058 0.62047
0 0.24155 0.61814
0.11673 0.243 0.62404
0.23973 0.24245 0.62875
0.36631 0.24111 0.63114
0.49655 0.24007 0.63068
0.62814 0.2401 0.62836
0.75702 0.2412 0.62538
0.88156 0.24297 0.62327
1 0.24401 0.62256
0 0.37269 0.62078
0.11567 0.37151 0.6257
0.23835 0.36943 0.63002
0.3648 0.36772 0.63176
0.49586 0.36641 0.63122
0.62834 0.36583 0.62942
0.75802 0.36591 0.62652
0.88282 0.36656 0.62365
1 0.36775 0.62212
0 0.49978 0.62176
0.11406 0.4992 0.62505
0.2364 0.49811 0.62879
0.3631 0.49667 0.63056
0.49469 0.49533 0.63044
0.62787 0.49443 0.62846
0.75763 0.49309 0.6249
0.88354 0.4926 0.62129
1 0.49379 0.61966
0 0.62283 0.6218
0.11451 0.62373 0.62439
0.23635 0.62528 0.6279
0.36323 0.62683 0.62942
0.49383 0.62744 0.62854
0.62549 0.62531 0.62563
0.75579 0.62269 0.62192
0.88319 0.62097 0.61857
1 0.62087 0.6176
0 0.74686 0.62224
0.11679 0.74832 0.62473
0.23874 0.75144 0.62807
0.36479 0.75382 0.62882
0.49332 0.75446 0.62676
0.62357 0.75383 0.62304
0.7535 0.75256 0.61907
0.88144 0.75056 0.61616
1 0.74892 0.61578
0 0.87309 0.62314
0.11941 0.87408 0.6255
0.24141 0.87641 0.62821
0.36592 0.87819 0.62779
0.49342 0.87867 0.62519
0.62336 0.87902 0.62169
0.75254 0.87905 0.61792
0.87981 0.87838 0.61504
1 0.87698 0.61427
0 0.99987 0.62382
0.12051 0.99997 0.62571
0.24293 1 0.6283
0.36692 1 0.62698
0.49376 1 0.62422
0.62379 1 0.6212
0.75255 1 0.61796
0.87918 1 0.61528
1 1 0.614
0 0 0.73417
0.11838 0.00055432 0.73987
0.24481 0.0018675 0.7458
0.37135 0.0011706 0.74952
0.49849 0.00024349 0.75115
0.62527 0 0.74973
0.75064 0 0.74694
0.87605 0 0.74478
1 0 0.74382
0 0.11854 0.73842
0.12041 0.12161 0.74295
0.24418 0.12158 0.74728
0.37026 0.12021 0.75075
0.49702 0.11833 0.75263
0.62495 0.1178 0.75193
0.75197 0.11956 0.74985
0.87761 0.1221 0.7473
1 0.12299 0.74526
0.0025385 0.24514 0.74331
0.12114 0.24602 0.74643
0.24318 0.24503 0.74971
0.36809 0.24275 0.75235
0.49603 0.24138 0.75385
0.62623 0.24198 0.75371
0.75442 0.24352 0.7525
0.87918 0.24492 0.75011
1 0.24521 0.74729
0.0027477 0.37394 0.74606
0.11975 0.37186 0.74857
0.24109 0.36946 0.7511
0.36619 0.36772 0.75327
0.49559 0.36667 0.75472
0.62681 0.36619 0.75471
0.75501 0.36572 0.75326
0.87964 0.36561 0.75035
1 0.36625 0.74712
0.0011241 0.49976 0.74634
0.11731 0.49832 0.74821
0.23921 0.49697 0.75065
0.365 0.4959 0.75353
0.49497 0.49508 0.75578
0.62563 0.49359 0.75561
0.75389 0.4916 0.75327
0.8797 0.49081 0.74974
1 0.49206 0.74594
0.00060598 0.623 0.74659
0.11756 0.62376 0.74817
0.2393 0.62572 0.75074
0.36458 0.62676 0.75378
0.49333 0.62577 0.7557
0.62269 0.6228 0.75512
0.75216 0.6201 0.75242
0.87974 0.61909 0.7489
1 0.61969 0.74525
0.00095908 0.74769 0.74734
0.12001 0.74924 0.74903
0.24146 0.75215 0.75195
0.36491 0.75342 0.7541
0.49159 0.75301 0.75454
0.62011 0.75174 0.75314
0.75021 0.75011 0.75024
0.87886 0.7485 0.74744
1 0.74754 0.74469
0.00088086 0.87417 0.74835
0.12244 0.87506 0.75006
0.24305 0.87655 0.7526
0.36505 0.87688 0.75356
0.49145 0.87708 0.75328
0.61981 0.87771 0.75136
0.74919 0.87793 0.74803
0.87746 0.87725 0.74539
1 0.87561 0.74316
0.00029483 1 0.74929
0.12337 1 0.75082
0.24331 0.99994 0.75229
0.36533 1 0.75189
0.49207 1 0.75133
0.62077 1 0.74984
0.74957 1 0.74704
0.87678 1 0.74436
1 1 0.74205
0 0 0.86299
0.12367 0.0017537 0.86754
0.24852 0.0017016 0.87108
0.37381 0.00091365 0.8734
0.49915 0.00059983 0.87476
0.62387 0 0.87489
0.74911 0 0.87444
0.8746 0.00014904 0.87392
1 6.401e-005 0.87253
0.0013295 0.12288 0.8664
0.12379 0.12389 0.86816
0.24726 0.12263 0.87058
0.37279 0.1207 0.87256
0.49845 0.119 0.87446
0.62455 0.11931 0.87552
0.75079 0.12182 0.87562
0.87571 0.12428 0.87519
1 0.12444 0.87324
0.0032086 0.24892 0.87016
0.12303 0.24875 0.87001
0.24534 0.24661 0.87102
0.37024 0.24384 0.87254
0.49761 0.24211 0.87477
0.6264 0.24258 0.87615
0.75347 0.24407 0.87618
0.87683 0.24521 0.87508
0.99963 0.24545 0.87282
0.0028896 0.37485 0.87212
0.12108 0.37279 0.87149
0.24261 0.37014 0.87169
0.36824 0.3685 0.87329
0.4971 0.36775 0.8755
0.62682 0.36722 0.87679
0.75348 0.36615 0.87658
0.87699 0.36539 0.875
1 0.36577 0.87278
0.0012131 0.49976 0.87245
0.11849 0.49805 0.87191
0.2412 0.49704 0.87241
0.368 0.49711 0.87503
0.4966 0.49692 0.87771
0.62495 0.49503 0.8786
0.75151 0.49223 0.87775
0.87672 0.49096 0.87581
1 0.49178 0.8734
0.00040891 0.62377 0.87294
0.11861 0.62468 0.87248
0.24194 0.62687 0.87345
0.36776 0.62751 0.8768
0.49468 0.62574 0.87953
0.62169 0.62253 0.88017
0.74936 0.61979 0.87891
0.8766 0.61884 0.87667
1 0.61958 0.87392
0.00077352 0.74858 0.87394
0.12148 0.75031 0.87386
0.24372 0.75342 0.87481
0.36683 0.75366 0.87738
0.49218 0.75203 0.87939
0.61882 0.74997 0.8798
0.74763 0.74815 0.87861
0.87632 0.74706 0.87655
1 0.74688 0.87396
0.0011278 0.87495 0.87448
0.12389 0.87579 0.87454
0.24475 0.87666 0.87544
0.36601 0.87604 0.87733
0.4913 0.87569 0.87852
0.61801 0.87606 0.87834
0.74661 0.87609 0.87707
0.8753 0.87522 0.87517
1 0.87386 0.87298
0.00069783 1 0.8746
0.12418 0.99997 0.87442
0.24403 0.99881 0.8746
0.36557 0.99806 0.87602
0.492 0.99861 0.87705
0.61929 1 0.87694
0.74707 1 0.87565
0.87446 1 0.8735
1 1 0.87145
2.2105e-005 0 0.99948
0.12535 0.00088713 1
0.24964 0.00036076 0.99983
0.37463 0 0.99956
0.49948 0 0.99938
0.62398 0 0.99948
0.7494 4.3796e-006 0.99996
0.87471 0.00050357 1
0.9998 8.8596e-005 1
0.0012937 0.12463 1
0.12459 0.12405 0.99958
0.2481 0.12189 0.999
0.37376 0.11981 0.99843
0.4996 0.11891 0.99856
0.62514 0.11987 0.99915
0.75097 0.12203 0.99942
0.8752 0.12341 0.99934
0.99832 0.12293 0.99833
0.001469 0.25053 1
0.12263 0.24911 0.99856
0.24561 0.24625 0.99735
0.37176 0.24368 0.99734
0.49952 0.24236 0.99861
0.62695 0.24293 0.99968
0.75273 0.24402 0.99914
0.87533 0.2444 0.99777
0.99746 0.24448 0.99617
0.00066441 0.3752 1
0.11989 0.37326 0.99747
0.24292 0.37053 0.99632
0.37023 0.36943 0.99728
0.49922 0.36901 0.99943
0.62733 0.36846 1
0.75234 0.36722 0.99999
0.87523 0.36633 0.99832
0.99804 0.36682 0.99673
0 0.49982 0.99971
0.11746 0.49845 0.99716
0.2423 0.49812 0.99689
0.3707 0.49935 0.99904
0.49849 0.49929 1
0.62505 0.4969 1
0.75018 0.49398 1
0.87496 0.49266 1
0.99924 0.49319 0.99887
0 0.62443 0.99964
0.11787 0.62569 0.99759
0.24386 0.6281 0.99797
0.37078 0.62859 1
0.49624 0.62667 1
0.62176 0.62345 1
0.74798 0.62084 1
0.87475 0.61987 1
1 0.62058 1
0 0.74922 1
0.12087 0.75152 0.99861
0.24515 0.75422 0.9984
0.36951 0.75367 1
0.49355 0.75158 1
0.61896 0.74937 1
0.74626 0.74749 1
0.87471 0.74656 1
1 0.74663 1
0.0003394 0.87495 1
0.12332 0.87562 0.99919
0.24563 0.87633 0.99837
0.36831 0.87549 1
0.49229 0.87485 1
0.61794 0.87495 1
0.74529 0.87485 1
0.87381 0.87397 1
1 0.87272 1
0.00014891 1 0.99995
0.12292 0.99897 0.99819
0.2448 0.99729 0.9973
0.36776 0.99625 0.99902
0.49318 0.99703 1
0.61922 0.99911 1
0.74563 1 1
0.87268 1 1
1 0.99991 1
