Golgo 13 The Professional/Cube/black-05.cube
LUT_3D_SIZE 33
0 0 0
0.013398 0 0
0.035771 0 0
0.061334 0 0
0.090299 0 0
0.12154 0 0
0.15305 0 0
0.18408 0 0
0.21494 0 0
0.24595 0 0
0.27743 0 0
0.30958 0 0
0.34248 0 0
0.37613 0 0
0.41046 0 0
0.44531 0 0
0.48037 0 0
0.51516 0 0
0.54927 0 0
0.58274 0 0
0.61581 0 0
0.64857 0 0.00014364
0.68091 0 0.00019011
0.71285 0.00019111 0.00013551
0.74458 0.00044377 1.952e-005
0.77626 0.00058381 0
0.80801 0.00065895 0
0.83987 0.00069519 0
0.87188 0.00073241 0
0.90401 0.0007867 0
0.93613 0.0008595 0
0.96816 0.00096467 0
0.99999 0.0011108 0
0 0.012772 0
0.011023 0.010491 0
0.033624 0.0086945 0
0.059634 0.0075342 0
0.089284 0.00712 0
0.12122 0.0073344 0
0.15328 0.0079416 0
0.1847 0.0088448 0
0.21584 0.0099802 0
0.24709 0.011315 0
0.27876 0.012814 0
0.31105 0.014409 0
0.34405 0.016083 0
0.37777 0.017793 0
0.41217 0.019528 0
0.44704 0.021268 0
0.48207 0.022955 0
0.51674 0.024513 0
0.55065 0.02591 0
0.58395 0.027149 0
0.61685 0.028228 0
0.6494 0.029112 0
0.68149 0.029773 5.4464e-005
0.71323 0.030238 1.2468e-005
0.74481 0.030552 0
0.77641 0.030758 0
0.80811 0.030889 0
0.83995 0.030991 0
0.87196 0.031085 0
0.90408 0.03115 0
0.9362 0.031193 0
0.96825 0.03124 0
1 0.031286 0
0 0.034216 0
0.0092017 0.032267 0
0.032442 0.031196 0
0.059155 0.031066 0
0.089461 0.031711 0
0.12183 0.032763 0
0.15423 0.033984 0
0.18595 0.035394 0
0.21732 0.037006 0
0.24875 0.038789 0
0.28056 0.040704 0
0.31296 0.042711 0
0.34602 0.044754 0
0.37981 0.04683 0
0.41424 0.048921 0
0.44909 0.050968 0
0.48397 0.052882 0
0.51841 0.054586 0
0.55211 0.056078 0
0.58522 0.057383 0
0.61793 0.058513 0
0.65022 0.059423 0
0.68209 0.060111 0
0.71366 0.060634 0
0.74512 0.061029 0
0.77663 0.061326 0
0.80827 0.06156 0
0.84009 0.061749 0
0.87206 0.061871 0
0.90413 0.061934 0
0.93622 0.061951 0
0.96824 0.061927 0
1 0.061869 0
0 0.058582 0
0.0081211 0.057204 0
0.032327 0.056945 0
0.059858 0.057739 0
0.090645 0.059182 0
0.12318 0.060792 0
0.15571 0.062372 0
0.18762 0.064046 0
0.21916 0.065891 0
0.25075 0.067904 0
0.28268 0.070045 0
0.31515 0.072265 0
0.34829 0.074558 0
0.38213 0.076887 0
0.41657 0.079199 0
0.45131 0.081394 0
0.48598 0.083385 0
0.52016 0.085141 0
0.55362 0.086676 0
0.58653 0.088007 0
0.61901 0.089152 0
0.65106 0.090084 0
0.68274 0.090824 0
0.71416 0.091416 0
0.74552 0.091895 0
0.77695 0.092281 0
0.80854 0.092601 0
0.84028 0.092848 0
0.87217 0.093014 0
0.90417 0.093096 0
0.93619 0.093086 0
0.96815 0.092999 0
0.99994 0.092851 0
0 0.0866 0
0.0079515 0.086005 0
0.033202 0.086553 0
0.061434 0.088009 0
0.092434 0.089847 0
0.12486 0.091605 0
0.15735 0.093203 0
0.18938 0.094828 0
0.22109 0.096627 0
0.25283 0.098604 0
0.28489 0.10075 0
0.31749 0.10303 0
0.35073 0.10542 0
0.38461 0.10784 0
0.41899 0.1102 0
0.45357 0.1124 0
0.488 0.11441 0
0.5219 0.11615 0
0.55513 0.11767 0
0.58783 0.11899 0
0.62009 0.1201 0
0.65194 0.12103 0
0.68345 0.12181 0
0.71476 0.12247 0
0.74601 0.12304 0
0.77735 0.12352 0
0.80885 0.1239 0
0.84052 0.12418 0
0.87231 0.12436 0
0.90419 0.12443 1.8108e-005
0.93612 0.1244 2.0308e-005
0.968 0.12429 0
0.99972 0.12409 0
0 0.11793 0
0.0086357 0.11812 0
0.034715 0.11922 0
0.063358 0.1209 0
0.094298 0.12273 0
0.12645 0.12434 0
0.15881 0.12574 0
0.19094 0.12713 0
0.22283 0.12868 0
0.25477 0.13046 0
0.28705 0.13247 0
0.31983 0.13468 0
0.35318 0.13702 0
0.38709 0.13939 0
0.42138 0.14168 0
0.45578 0.14381 0
0.48996 0.14571 0
0.52362 0.14739 0
0.55662 0.14887 0
0.58909 0.15015 0
0.62115 0.15123 0
0.65282 0.15215 0
0.68421 0.15295 0
0.71542 0.15366 0
0.74658 0.15427 0
0.77783 0.15481 0
0.80922 0.15525 0
0.84077 0.15557 0
0.87242 0.15575 0
0.90419 0.1558 3.9138e-005
0.93602 0.15575 4.5439e-005
0.96782 0.1556 0
0.99944 0.15536 0
0 0.15101 0
0.0097984 0.15167 0
0.036388 0.15297 0
0.065186 0.1546 0
0.095935 0.15624 0
0.12781 0.15766 0
0.16002 0.1589 0
0.1922 0.16008 0
0.22431 0.16139 0
0.25651 0.16294 0
0.28906 0.16478 0
0.32206 0.16686 0
0.35554 0.16909 0
0.38945 0.17134 0
0.42363 0.17348 0
0.45785 0.17546 0
0.4918 0.17723 0
0.52524 0.1788 0
0.55803 0.18018 0
0.59029 0.18138 0
0.62217 0.1824 0
0.65371 0.1833 0
0.685 0.18408 0
0.71611 0.18478 0
0.74719 0.18541 0
0.77834 0.18596 0
0.80962 0.18641 0
0.84103 0.18673 0
0.87255 0.18693 0
0.90419 0.18703 0
0.9359 0.187 0
0.9676 0.18685 0
0.99914 0.18661 0
0 0.18434 0
0.011045 0.18516 0
0.037962 0.18645 0
0.066814 0.18797 0
0.097378 0.18947 0
0.12901 0.19079 0
0.16107 0.19193 0
0.19329 0.19302 0
0.2256 0.19424 0
0.2581 0.19569 0
0.29095 0.19742 0
0.32418 0.19939 0
0.35777 0.20149 0
0.39165 0.20359 0
0.42571 0.20558 0
0.45974 0.20738 0
0.49349 0.209 0
0.52674 0.21042 0
0.55933 0.21167 0
0.59142 0.21276 0
0.62314 0.21371 0
0.65455 0.21454 0
0.68573 0.21525 0
0.71677 0.21589 0
0.74778 0.21646 0
0.77884 0.21697 0
0.81 0.21738 0
0.84128 0.21769 0
0.8727 0.21789 0
0.90423 0.218 0
0.93583 0.21802 0
0.96743 0.21794 0
0.9989 0.21779 0
0 0.21734 0
0.012211 0.2182 0
0.039388 0.21945 0
0.068273 0.22086 0
0.098703 0.22226 0
0.13014 0.2235 0
0.1621 0.22464 0
0.19438 0.22577 0
0.2269 0.22705 0
0.25967 0.22855 0
0.29277 0.23028 0
0.32618 0.23217 0
0.35985 0.23414 0
0.39369 0.23608 0
0.42761 0.23791 0
0.46146 0.23958 0
0.49502 0.24107 0
0.52806 0.24236 0
0.56048 0.24346 0
0.59242 0.24442 0
0.624 0.24524 0
0.65529 0.24594 0
0.68636 0.24654 0
0.71734 0.24705 0
0.74828 0.24753 0
0.77926 0.24794 0
0.81033 0.24829 0
0.84152 0.24856 0
0.87284 0.24876 0
0.90428 0.24888 0
0.93581 0.24893 0
0.96734 0.24892 0
0.99876 0.24886 0
0 0.25003 0
0.013295 0.2509 0
0.040693 0.25209 0
0.069621 0.25344 0
0.099952 0.25479 0
0.13128 0.25605 0
0.16322 0.25728 0
0.19559 0.25855 0
0.2283 0.25996 0
0.2613 0.26154 0
0.29458 0.26328 0
0.32809 0.26512 0
0.36178 0.26698 0
0.39556 0.26879 0
0.42937 0.2705 0
0.46306 0.27206 0
0.49641 0.27343 0
0.52924 0.27459 0
0.56149 0.27559 0
0.59328 0.27643 0
0.6247 0.27712 0
0.65586 0.27766 0
0.68684 0.27809 0
0.71774 0.27844 0
0.74865 0.27874 0
0.77958 0.279 0
0.81059 0.27924 0
0.84172 0.27944 0
0.87298 0.27961 0
0.90436 0.27974 0
0.93584 0.27982 0
0.96733 0.27989 0
0.99872 0.27993 0
0 0.28266 0
0.014303 0.28351 0
0.041926 0.28466 0
0.070918 0.28599 0
0.10123 0.28736 0
0.13251 0.28872 0
0.16449 0.2901 0
0.19695 0.29153 0
0.22981 0.29306 0
0.26296 0.2947 0
0.29634 0.29643 0
0.32992 0.2982 0
0.36359 0.29997 0
0.39732 0.30169 0
0.43101 0.30332 0
0.46452 0.30478 0
0.49767 0.30604 0
0.5303 0.30711 0
0.56238 0.308 0
0.594 0.30873 0
0.62526 0.30929 0
0.65627 0.30968 0
0.68713 0.30996 0
0.71796 0.31013 0
0.74882 0.31024 0
0.77972 0.31032 0
0.81072 0.31039 0
0.84183 0.31045 0
0.87308 0.31053 0
0.90446 0.31062 0
0.93592 0.31073 0
0.96741 0.31083 0
0.99879 0.31094 0
0 0.31534 0
0.015277 0.3162 0
0.043131 0.31737 0
0.072242 0.31873 0
0.10257 0.32016 0
0.13388 0.32163 0
0.1659 0.32314 0
0.19845 0.32471 0
0.23139 0.32633 0
0.26462 0.328 0
0.29805 0.32969 0
0.33165 0.33141 0
0.36532 0.33312 0
0.39898 0.33478 0
0.43255 0.33633 0
0.46586 0.3377 0
0.49881 0.33885 0
0.53125 0.33981 0
0.56315 0.34058 0
0.59459 0.34117 0
0.62567 0.34159 0
0.65653 0.34186 0
0.68728 0.342 0
0.71802 0.34204 0
0.7488 0.34199 0
0.77968 0.3419 0
0.81068 0.3418 0
0.84181 0.34172 0
0.87309 0.34168 0
0.9045 0.34168 0
0.936 0.34173 0
0.96752 0.34182 0
0.99893 0.34195 0
0 0.34821 0
0.016264 0.34911 0
0.044377 0.35032 0
0.07361 0.35172 0
0.104 0.35324 0
0.13535 0.35481 0
0.16742 0.35642 0
0.20002 0.35806 0
0.23299 0.35972 0
0.26625 0.36139 0
0.29971 0.36307 0
0.33332 0.36475 0
0.36698 0.36641 0
0.40056 0.368 0
0.43397 0.36945 0
0.46708 0.37069 0
0.49981 0.37172 0
0.53205 0.37254 0
0.56377 0.37317 0
0.59502 0.37361 0
0.62595 0.37389 0
0.65667 0.37404 0
0.6873 0.37407 0
0.71794 0.37399 0
0.74864 0.37382 0
0.77949 0.37361 0
0.8105 0.37338 0
0.84166 0.37319 0
0.873 0.37304 0
0.90447 0.37296 0
0.93603 0.37295 0
0.96761 0.373 0
0.99907 0.37309 0
0 0.38134 0
0.017294 0.3823 0
0.04565 0.38355 0
0.075034 0.38501 0
0.1055 0.38658 0
0.1369 0.38822 0
0.16899 0.38989 0
0.2016 0.39156 0
0.23457 0.3932 0
0.26785 0.39485 0
0.30133 0.39651 0
0.33493 0.39815 0
0.36853 0.39973 0
0.40201 0.40121 0
0.43525 0.40251 0
0.46814 0.40361 0
0.50065 0.40448 0
0.5327 0.40515 0
0.56423 0.40563 0
0.59532 0.40594 0
0.62609 0.4061 0
0.65669 0.40612 0
0.68721 0.40604 0
0.71775 0.40587 0
0.74838 0.40562 0
0.77919 0.40532 0
0.81021 0.40502 0
0.84143 0.40474 0
0.87283 0.40453 0
0.90438 0.40441 0
0.93602 0.40435 0
0.96766 0.40436 0
0.99918 0.40443 0
0 0.41472 0
0.018378 0.41575 0
0.046965 0.41706 0
0.076492 0.41855 0
0.10703 0.42015 0
0.13847 0.4218 0
0.17055 0.42345 0
0.20313 0.42507 0
0.23611 0.42667 0
0.2694 0.42827 0
0.30289 0.42988 0
0.33644 0.43145 0
0.36997 0.43292 0
0.40331 0.43424 0
0.43636 0.43538 0
0.46904 0.43631 0
0.50134 0.43702 0
0.5332 0.43753 0
0.56455 0.43787 0
0.59548 0.43805 0
0.62612 0.4381 0
0.6566 0.43802 0
0.68703 0.43784 0
0.71749 0.4376 0
0.74806 0.4373 0
0.77884 0.43696 0
0.80987 0.43663 0
0.84113 0.43632 0
0.87262 0.43607 0
0.90427 0.43591 0
0.93598 0.43583 0
0.9677 0.43582 0
0.99928 0.43588 0
0 0.44826 0
0.019516 0.44936 0
0.048301 0.4507 0
0.077939 0.45218 0
0.10853 0.45374 0
0.13998 0.45532 0
0.17204 0.45689 0
0.20461 0.45843 0
0.23759 0.45998 0
0.2709 0.46152 0
0.30438 0.46305 0
0.33786 0.46451 0
0.37125 0.46584 0
0.40444 0.46697 0
0.4373 0.46792 0
0.46977 0.46867 0
0.50186 0.46921 0
0.53355 0.46957 0
0.56475 0.46978 0
0.59554 0.46984 0
0.62605 0.46979 0
0.65643 0.46963 0
0.68678 0.4694 0
0.71718 0.46911 0
0.74772 0.4688 0
0.77848 0.46846 0
0.80952 0.46812 0
0.84083 0.46781 0
0.87239 0.46757 0
0.90413 0.4674 0
0.93594 0.46731 0
0.96773 0.46731 0
0.99938 0.46736 0
0 0.48178 0
0.020679 0.48292 0
0.049614 0.48423 0
0.079325 0.48565 0
0.10994 0.48711 0
0.14138 0.48856 0
0.17344 0.49002 0
0.20601 0.49149 0
0.23902 0.49297 0
0.27232 0.49444 0
0.30577 0.49587 0
0.33915 0.4972 0
0.37236 0.49836 0
0.40536 0.4993 0
0.43804 0.50004 0
0.47033 0.5006 0
0.50224 0.50099 0
0.53376 0.50121 0
0.56482 0.5013 0
0.59549 0.50126 0
0.6259 0.50114 0
0.65621 0.50094 0
0.6865 0.50069 0
0.71686 0.50039 0
0.74737 0.50007 0
0.77813 0.49974 0
0.80919 0.49944 0
0.84055 0.49918 0
0.87219 0.49898 0
0.90401 0.49885 0
0.9359 0.49879 0
0.96777 0.49878 0
0.99947 0.49884 0
0 0.51501 0
0.021816 0.51612 0
0.050854 0.51736 0
0.080611 0.51866 0
0.11123 0.51998 0
0.14269 0.52131 0
0.17478 0.52268 0
0.20739 0.5241 0
0.2404 0.52553 0
0.27367 0.52693 0
0.30704 0.52824 0
0.34029 0.52941 0
0.37331 0.5304 0
0.4061 0.53115 0
0.43859 0.53169 0
0.47072 0.53207 0
0.50248 0.53231 0
0.53385 0.53241 0
0.5648 0.53239 0
0.59538 0.5323 0
0.62572 0.53214 0
0.65597 0.53194 0
0.68622 0.53169 0
0.71655 0.53142 0
0.74705 0.53115 0
0.77782 0.53088 0
0.80892 0.53065 0
0.84035 0.53045 0
0.87205 0.53032 0
0.90394 0.53025 0
0.9359 0.53022 0
0.96781 0.53024 0
0.99957 0.5303 0
0 0.54769 0
0.022879 0.54872 0
0.051989 0.54984 0
0.08178 0.55101 0
0.11242 0.55223 0
0.14393 0.55348 0
0.17609 0.5548 0
0.20875 0.55619 0
0.24175 0.55759 0
0.27495 0.55891 0
0.30819 0.5601 0
0.34128 0.56111 0
0.37409 0.56192 0
0.40665 0.5625 0
0.43897 0.56287 0
0.47096 0.56308 0
0.5026 0.56318 0
0.53386 0.56319 0
0.56472 0.56313 0
0.59524 0.56301 0
0.62553 0.56284 0
0.65575 0.56265 0
0.68598 0.56245 0
0.7163 0.56225 0
0.74682 0.56207 0
0.77761 0.56192 0
0.80875 0.56179 0
0.84021 0.56169 0
0.87197 0.56161 0
0.90392 0.56158 0
0.93592 0.56159 0
0.96786 0.56162 0
0.99966 0.56168 0
0 0.57981 0
0.023832 0.58074 0
0.053005 0.58173 0
0.082854 0.58279 0
0.11356 0.58393 0
0.14515 0.58514 0
0.1774 0.58645 0
0.21011 0.58782 0
0.24306 0.58917 0
0.27614 0.59041 0
0.30921 0.59147 0
0.34211 0.59231 0
0.37472 0.59296 0
0.40706 0.5934 0
0.4392 0.59363 0
0.47106 0.59372 0
0.50262 0.59371 0
0.53381 0.59366 0
0.56463 0.59357 0
0.5951 0.59346 0
0.62536 0.59332 0
0.65557 0.59318 0
0.68581 0.59304 0
0.71617 0.59294 0
0.74672 0.59288 0
0.77754 0.59287 0
0.80869 0.59287 0
0.84017 0.59288 0
0.87195 0.59288 0
0.90392 0.59288 0
0.93595 0.59288 0
0.96792 0.59291 0
0.99975 0.59297 0
0 0.61152 0
0.024669 0.61234 0
0.053918 0.61323 0
0.083859 0.61421 0
0.11467 0.61531 0
0.14636 0.6165 0
0.17872 0.6178 0
0.21144 0.61914 0
0.24431 0.62041 0
0.27722 0.62154 0
0.31009 0.62246 0
0.34278 0.62316 0
0.3752 0.62366 0
0.40736 0.62398 0
0.43932 0.62411 0
0.47107 0.62412 0
0.50257 0.62405 0
0.53374 0.62395 0
0.56453 0.62386 0
0.59499 0.62376 0
0.62525 0.62367 0
0.65547 0.6236 0
0.68574 0.62356 0
0.71615 0.62358 0
0.74675 0.62365 0
0.7776 0.62375 0
0.80876 0.62388 0
0.84023 0.62399 0
0.87199 0.62408 0
0.90395 0.62413 0
0.93596 0.62415 0
0.96796 0.62416 0
0.99984 0.62421 0
0 0.643 0
0.025405 0.64373 0
0.054754 0.64455 0
0.084819 0.64549 0
0.11577 0.64655 0
0.14758 0.64774 0
0.18001 0.64901 0
0.21271 0.65028 0
0.24545 0.65147 0
0.27818 0.65248 0
0.31084 0.65327 0
0.34332 0.65385 0
0.37556 0.65422 0
0.40754 0.65443 0
0.43936 0.6545 0
0.47102 0.65445 0
0.50247 0.65435 0
0.53363 0.65423 0
0.56444 0.65412 0
0.59492 0.65404 0
0.62522 0.65401 0
0.65546 0.65404 0
0.68578 0.65411 0
0.71624 0.65422 0
0.7469 0.6544 0
0.77778 0.6546 0
0.80893 0.65482 0
0.84039 0.65503 0
0.87211 0.6552 0
0.90401 0.65531 0
0.936 0.65538 0
0.96799 0.65541 2.3148e-005
0.99991 0.65545 0
0 0.67441 4.2215e-005
0.02607 0.67509 0
0.055542 0.67588 0
0.085752 0.67679 0
0.11685 0.67784 0
0.14877 0.67899 0
0.18124 0.6802 0
0.21389 0.6814 0
0.24648 0.68249 0
0.27901 0.68339 0
0.31146 0.68407 0
0.34373 0.68453 0
0.3758 0.68481 0
0.40765 0.68493 0
0.43935 0.68495 0
0.47094 0.68488 0
0.50234 0.68475 0
0.53351 0.68461 0
0.56434 0.68449 0
0.59488 0.68443 0
0.62525 0.68445 0
0.65556 0.68455 0
0.68592 0.6847 0
0.71643 0.6849 0
0.74713 0.68515 0
0.77804 0.68543 0
0.8092 0.68573 0
0.84063 0.68601 0
0.8723 0.68626 0
0.90414 0.68644 1.3244e-006
0.93607 0.68655 0.00015372
0.96804 0.68662 0.0002272
0.99998 0.68667 0.00019867
0 0.70589 0.00011097
0.026693 0.70654 0
0.056308 0.70731 0
0.086671 0.70821 0
0.1179 0.70924 0
0.1499 0.71036 0
0.18239 0.71151 0
0.21497 0.71262 9.2237e-006
0.24742 0.71361 0.00013795
0.27973 0.71441 8.7847e-005
0.31196 0.71499 0
0.34404 0.71536 0
0.37595 0.71554 0
0.40768 0.71561 0
0.43931 0.71559 0
0.47083 0.71549 0
0.50219 0.71534 0
0.53336 0.71517 0
0.56424 0.71504 0
0.59487 0.71499 0
0.62533 0.71503 0
0.65571 0.71517 0
0.68614 0.71537 0
0.7167 0.71563 0
0.74744 0.71593 0
0.77837 0.71627 0
0.80953 0.71663 0
0.84094 0.71697 0
0.87256 0.71727 0
0.90432 0.71751 0.00017063
0.93619 0.71768 0.0003114
0.96811 0.71779 0.00039032
1 0.71786 0.00037877
0 0.7375 0.0001341
0.027291 0.73815 0
0.057059 0.73891 0
0.087577 0.73981 0
0.11893 0.74084 0
0.15099 0.74193 0
0.18346 0.74302 0
0.21595 0.74403 0.00022952
0.24824 0.74492 0.00032876
0.28035 0.74563 0.00025257
0.31237 0.74613 2.4964e-005
0.34426 0.74641 0
0.37603 0.74653 0
0.40768 0.74654 0
0.43923 0.74647 0
0.47068 0.74634 0
0.502 0.74615 0
0.53318 0.74595 0
0.56413 0.7458 0
0.59486 0.74573 0
0.62543 0.74577 0
0.65589 0.74591 0
0.6864 0.74614 0
0.717 0.74644 0
0.74779 0.74679 0
0.77875 0.74717 0
0.80991 0.74756 0
0.8413 0.74795 0
0.87285 0.74829 0.00013859
0.90455 0.74857 0.00029106
0.93635 0.74878 0.00041836
0.96821 0.74892 0.00050285
1 0.74902 0.00051322
0 0.76932 0.00013506
0.027878 0.76997 0
0.057807 0.77074 0
0.08848 0.77164 0
0.11995 0.77266 0
0.15204 0.77373 0
0.18444 0.77476 0.0001492
0.21682 0.77568 0.00037374
0.24897 0.77647 0.00044806
0.28089 0.77708 0.00035253
0.31269 0.77749 0.00012029
0.34441 0.7777 0
0.37605 0.77776 0
0.40762 0.77772 0
0.43909 0.7776 0
0.47048 0.77741 0
0.50177 0.77719 0
0.53297 0.77696 0
0.564 0.77678 0
0.59482 0.77669 0
0.6255 0.7767 0
0.65608 0.77683 0
0.68667 0.77707 0
0.71735 0.7774 0
0.74818 0.77778 0
0.77916 0.77818 0
0.81033 0.7786 0
0.84168 0.779 9.133e-005
0.87318 0.77936 0.00024465
0.90481 0.77966 0.00037349
0.93653 0.77989 0.00048293
0.96834 0.78006 0.00056624
1 0.78017 0.00059977
0 0.80142 0.00014517
0.02846 0.80207 0
0.058548 0.80284 0
0.089379 0.80373 0
0.12094 0.80474 0
0.15303 0.80577 6.7008e-005
0.18534 0.80672 0.00026594
0.21759 0.80754 0.00043959
0.24959 0.80822 0.00049082
0.28134 0.80873 0.00037619
0.31294 0.80906 0.00015226
0.3445 0.80921 0
0.37602 0.80921 0
0.4075 0.80911 0
0.4389 0.80893 0
0.47023 0.8087 0
0.50152 0.80844 0
0.53274 0.80819 0
0.56384 0.80801 0
0.59476 0.8079 0
0.62555 0.80789 0
0.65626 0.808 0
0.68696 0.80824 0
0.71771 0.80856 0
0.74858 0.80894 0
0.77958 0.80935 0
0.81074 0.80977 6.3366e-005
0.84206 0.81015 0.0001769
0.87351 0.8105 0.00030313
0.90508 0.81079 0.00042224
0.93674 0.81103 0.00052775
0.96849 0.81122 0.00060844
1 0.81135 0.00065171
0 0.83384 0.00019056
0.029025 0.83449 2.8731e-005
0.059283 0.83525 1.2509e-005
0.090263 0.83613 5.2176e-005
0.1219 0.83709 0.00010895
0.15394 0.83804 0.00019125
0.18614 0.83887 0.00031657
0.21825 0.83957 0.00043113
0.25011 0.84012 0.00045622
