Golgo 13 The Professional/Cube/black-05.cube
LUT_3D_SIZE 5
0 0 0
0.21494 0 0
0.48037 0 0
0.74458 0.00044377 1.952e-005
0.99999 0.0011108 0
0 0.21734 0
0.2269 0.22705 0
0.49502 0.24107 0
0.74828 0.24753 0
0.99876 0.24886 0
0 0.48178 0
0.23902 0.49297 0
0.50224 0.50099 0
0.74737 0.50007 0
0.99947 0.49884 0
0 0.7375 0.0001341
0.24824 0.74492 0.00032876
0.502 0.74615 0
0.74779 0.74679 0
1 0.74902 0.00051322
0.0010143 1 0.00049161
0.25083 1 0
0.50031 0.99903 0
0.75011 0.99942 0
1 0.9998 9.5307e-006
0 0 0.21252
0.22876 0 0.22147
0.49417 0 0.23667
0.74821 0 0.24684
0.99603 0.0011031 0.24935
0 0.23121 0.22546
0.23279 0.23294 0.2333
0.50112 0.23763 0.23562
0.75345 0.24226 0.23942
0.99995 0.24632 0.2452
0 0.49157 0.23737
0.23637 0.50009 0.23602
0.50358 0.50291 0.23171
0.75402 0.50129 0.23676
1 0.49896 0.24417
0 0.74274 0.24568
0.24251 0.74926 0.23969
0.50399 0.75108 0.2343
0.75251 0.75178 0.23868
0.99911 0.75206 0.24412
0 0.99939 0.24887
0.24509 0.99874 0.24341
0.50317 0.99926 0.24004
0.75417 0.99923 0.24302
0.99963 0.99992 0.24694
0 0 0.48239
0.23736 0 0.49155
0.49991 0 0.49443
0.75431 0 0.49497
0.99972 0 0.49805
0 0.23914 0.48964
0.23656 0.23972 0.50123
0.49902 0.23831 0.49961
0.75831 0.23935 0.49685
1 0.24361 0.49879
0 0.49915 0.49564
0.23389 0.49969 0.50218
0.49714 0.49736 0.49739
0.76039 0.49618 0.49286
1 0.4963 0.49447
0 0.74619 0.49741
0.23747 0.75137 0.50066
0.49734 0.75554 0.4953
0.75651 0.75375 0.4878
1 0.75091 0.49022
0 0.99953 0.49797
0.24219 1 0.50105
0.49717 1 0.49599
0.75532 1 0.4895
1 1 0.48947
0 0 0.73417
0.24481 0.0018675 0.7458
0.49849 0.00024349 0.75115
0.75064 0 0.74694
1 0 0.74382
0.0025385 0.24514 0.74331
0.24318 0.24503 0.74971
0.49603 0.24138 0.75385
0.75442 0.24352 0.7525
1 0.24521 0.74729
0.0011241 0.49976 0.74634
0.23921 0.49697 0.75065
0.49497 0.49508 0.75578
0.75389 0.4916 0.75327
1 0.49206 0.74594
0.00095908 0.74769 0.74734
0.24146 0.75215 0.75195
0.49159 0.75301 0.75454
0.75021 0.75011 0.75024
1 0.74754 0.74469
0.00029483 1 0.74929
0.24331 0.99994 0.75229
0.49207 1 0.75133
0.74957 1 0.74704
1 1 0.74205
2.2105e-005 0 0.99948
0.24964 0.00036076 0.99983
0.49948 0 0.99938
0.7494 4.3796e-006 0.99996
0.9998 8.8596e-005 1
0.001469 0.25053 1
0.24561 0.24625 0.99735
0.49952 0.24236 0.99861
0.75273 0.24402 0.99914
0.99746 0.24448 0.99617
0 0.49982 0.99971
0.2423 0.49812 0.99689
0.49849 0.49929 1
0.75018 0.49398 1
0.99924 0.49319 0.99887
0 0.74922 1
0.24515 0.75422 0.9984
0.49355 0.75158 1
0.74626 0.74749 1
1 0.74663 1
0.00014891 1 0.99995
0.2448 0.99729 0.9973
0.49318 0.99703 1
0.74563 1 1
1 0.99991 1
