Golgo 13 The Professional/Cube/black-08.cube
LUT_3D_SIZE 33
0 0 0
0.011081 0 0
0.030375 0 0
0.052797 0 0
0.079121 0 0
0.10873 0 0
0.13959 0 0
0.1703 0 0
0.20084 0 0
0.23154 0 0
0.26271 0 0
0.29467 0 0
0.32763 0 0
0.36177 0 0
0.39712 0 0
0.43352 0 0
0.47053 0 0
0.50733 0 0
0.54315 0 0
0.57791 0 0
0.61197 0 0
0.64546 0 0.00010859
0.67831 0 0.00018485
0.71051 5.3255e-006 0.00011711
0.74241 0.00046097 0
0.77425 0.00072255 0
0.80621 0.00086647 0
0.83837 0.0009569 0
0.8707 0.0010402 0
0.90317 0.0011354 4.8117e-006
0.93564 0.0012555 3.8732e-005
0.96799 0.0014228 0
1 0.0016352 0
0 0.010394 0
0.0080699 0.0075254 0
0.027389 0.0049834 0
0.049963 0.0028746 0
0.076761 0.0013946 0
0.10718 0.00067061 0
0.13893 0.00062439 0
0.17036 0.0011301 0
0.20143 0.0020779 0
0.23252 0.0033705 0
0.264 0.0049323 0
0.2962 0.0066767 0
0.32942 0.0086364 0
0.36381 0.010784 0
0.39942 0.013137 0
0.436 0.015622 0
0.47304 0.018111 0
0.5097 0.020458 0
0.54525 0.022601 0
0.57977 0.024532 0
0.61356 0.026228 0
0.64674 0.027625 9.7099e-005
0.6792 0.028674 0.0001493
0.71108 0.029407 6.9733e-005
0.74275 0.029885 0
0.77446 0.030199 0
0.80636 0.030419 0
0.83849 0.0306 0
0.87082 0.030765 0
0.90328 0.030899 0
0.93575 0.03101 8.5687e-006
0.96812 0.031115 0
1 0.031204 0
0 0.028706 0
0.0054416 0.025971 0
0.025164 0.023918 0
0.048234 0.022682 0
0.0757 0.022331 0
0.10684 0.022723 0
0.1393 0.023614 0
0.17133 0.024923 0
0.20285 0.026623 0
0.23425 0.028622 0
0.26597 0.030853 0
0.29843 0.033302 0
0.33187 0.035943 0
0.36651 0.03878 0
0.40231 0.041753 0
0.43895 0.044724 0
0.47584 0.047533 0
0.51219 0.050056 0
0.54742 0.052286 0
0.58167 0.054259 0
0.61516 0.055975 0
0.64795 0.057358 0.0001542
0.68006 0.058381 0.00020601
0.71168 0.059146 0.00012332
0.74317 0.059725 0
0.77477 0.060183 0
0.80661 0.06056 0
0.83871 0.060884 0
0.87099 0.06112 0
0.9034 0.061286 1.5799e-005
0.93583 0.06138 5.4077e-005
0.96815 0.061405 0
1 0.061358 0
0 0.04966 0
0.0033182 0.047216 0
0.023844 0.045777 0
0.047781 0.045498 0
0.076045 0.046279 0
0.10777 0.047711 0
0.14066 0.049412 0
0.1731 0.051353 0
0.20493 0.053588 0
0.23659 0.05609 0
0.26854 0.058836 0
0.30119 0.061784 0
0.33488 0.06495 0
0.36972 0.068265 0
0.40561 0.071585 0
0.44214 0.074754 0
0.47877 0.077643 0
0.51475 0.0802 0
0.54964 0.082452 0
0.58358 0.084433 0
0.61673 0.086128 0
0.64915 0.087498 0.0002511
0.68096 0.08858 0.0003144
0.71237 0.089441 0.00025078
0.74373 0.090156 0.00014453
0.77525 0.090767 4.9142e-005
0.80703 0.091299 0
0.83904 0.091741 0
0.87122 0.092076 6.372e-005
0.90353 0.092287 0.00014652
0.93585 0.092365 0.00015394
0.96807 0.092312 1.6253e-005
1 0.092145 0
0 0.074429 0
0.0019808 0.072596 0
0.02362 0.072011 0
0.048641 0.072739 0
0.077661 0.074464 0
0.10967 0.076586 0
0.14268 0.078723 0
0.1753 0.080895 0
0.20736 0.083301 0
0.23923 0.085969 0
0.2714 0.088908 0
0.30432 0.09213 0
0.33824 0.095544 0
0.37321 0.099035 0
0.40905 0.10242 0
0.44539 0.10558 0
0.48168 0.10844 0
0.51729 0.11097 0
0.55185 0.11318 0
0.58546 0.1151 0
0.61828 0.11674 0
0.6504 0.1181 0.0002429
0.68196 0.11924 0.00033925
0.71323 0.12022 0.00032491
0.74446 0.12111 0.0002615
0.77589 0.12189 0.00019418
0.80756 0.12254 0.00014409
0.83946 0.12306 0.00015284
0.87151 0.12344 0.00019214
0.90365 0.12365 0.00023369
0.93583 0.1237 0.00022286
0.96792 0.12362 9.0435e-005
0.99977 0.12339 0
0 0.10343 0
0.0016895 0.10253 0
0.024506 0.10288 0
0.05051 0.10436 0
0.079994 0.10657 0
0.11195 0.10888 0
0.14477 0.11098 0
0.17744 0.113 0
0.20969 0.11518 0
0.24184 0.1177 0
0.27435 0.1206 0
0.30757 0.12383 0
0.34169 0.12724 0
0.3767 0.13067 0
0.41244 0.13397 0
0.44854 0.137 0
0.48452 0.13973 0
0.5198 0.14216 0
0.55401 0.14431 0
0.58729 0.14619 0
0.61981 0.14777 0
0.65167 0.14912 7.6257e-005
0.68306 0.1503 0.00021405
0.71421 0.15138 0.00024665
0.74536 0.15236 0.00022261
0.77667 0.15324 0.0001793
0.8082 0.15399 0.00016374
0.83992 0.15457 0.00018747
0.87178 0.15496 0.00022337
0.90375 0.15515 0.00025638
0.93578 0.15518 0.00022937
0.96772 0.15505 8.8295e-005
0.99943 0.15477 0
0 0.13557 0
0.0023499 0.13555 0
0.026125 0.13657 0
0.052787 0.13841 0
0.082395 0.14064 0
0.11406 0.14277 0
0.14658 0.14463 0
0.17922 0.14636 0
0.21173 0.14825 0
0.24427 0.15055 0
0.27719 0.15327 0
0.31075 0.15635 0
0.34505 0.15962 0
0.38007 0.1629 0
0.41568 0.16601 0
0.45155 0.16889 0
0.48723 0.17148 0
0.52218 0.17379 0
0.55608 0.17581 0
0.58904 0.17755 0
0.62129 0.17904 0
0.65296 0.18035 0
0.68423 0.18153 0
0.71528 0.18262 0
0.74633 0.18362 0
0.77751 0.18452 0
0.80888 0.18527 0
0.84042 0.18586 7.4826e-006
0.87208 0.18627 6.3276e-005
0.90386 0.18652 0.00010762
0.9357 0.18658 0.00010289
0.96749 0.18646 0
0.99906 0.18619 0
0 0.16894 0
0.0035326 0.16947 0
0.027998 0.17079 0
0.055019 0.17267 0
0.084546 0.17472 0
0.11588 0.17661 0
0.14813 0.17827 0
0.18079 0.17988 0
0.21359 0.1817 0
0.24656 0.18389 0
0.27992 0.18648 0
0.31379 0.18941 0
0.34826 0.19252 0
0.38327 0.19563 0
0.41874 0.1986 0
0.45438 0.20131 0
0.48978 0.20373 0
0.52441 0.20585 0
0.55798 0.20768 0
0.59067 0.20925 0
0.62268 0.21061 0
0.65419 0.21181 0
0.68535 0.21288 0
0.71632 0.21388 0
0.74728 0.21481 0
0.77834 0.21563 0
0.80954 0.21634 0
0.84091 0.2169 0
0.87241 0.21731 0
0.90401 0.21757 0
0.93567 0.21768 0
0.96731 0.21765 0
0.99877 0.21752 0
0 0.20238 0
0.0048424 0.20315 0
0.029813 0.20455 0
0.057018 0.20631 0
0.086429 0.20817 0
0.1175 0.20989 0
0.14965 0.21154 0
0.1824 0.21324 0
0.2155 0.21515 0
0.24886 0.21739 0
0.28257 0.21997 0
0.31673 0.22282 0
0.35133 0.22581 0
0.38633 0.22879 0
0.42164 0.23164 0
0.45704 0.23422 0
0.49211 0.23649 0
0.52639 0.2384 0
0.55966 0.23999 0
0.59211 0.24134 0
0.62393 0.24251 0
0.65528 0.24353 0
0.68634 0.24444 0
0.71724 0.24527 0
0.74812 0.24605 0
0.77906 0.24676 0
0.81014 0.24737 0
0.84136 0.24787 0
0.87272 0.24825 0
0.90418 0.24851 0
0.93571 0.24867 0
0.96724 0.24872 0
0.99864 0.24869 0
0 0.23564 0
0.0060946 0.2365 0
0.031446 0.23785 0
0.058792 0.23949 0
0.088121 0.2412 0
0.11913 0.24293 0
0.1513 0.24468 0
0.18421 0.24656 0
0.21756 0.24864 0
0.25124 0.25099 0
0.28526 0.25362 0
0.31962 0.25647 0
0.3543 0.25941 0
0.38926 0.2623 0
0.42442 0.26503 0
0.45954 0.2675 0
0.49424 0.26961 0
0.52814 0.27134 0
0.56111 0.27275 0
0.59333 0.27392 0
0.62495 0.27489 0
0.65617 0.27569 0
0.68712 0.27638 0
0.71794 0.27699 0
0.74877 0.27754 0
0.77964 0.27805 0
0.81063 0.27851 0
0.84174 0.27891 0
0.87299 0.27922 0
0.90435 0.27945 0
0.93581 0.27962 0
0.96728 0.27975 0
0.99863 0.27984 0
0 0.26882 0
0.0072204 0.26966 0
0.032915 0.27093 0
0.06041 0.27248 0
0.089829 0.27422 0
0.12087 0.27605 0
0.15315 0.278 0
0.18621 0.28007 0
0.21978 0.28233 0
0.25373 0.28482 0
0.28798 0.28752 0
0.32249 0.29037 0
0.35719 0.29327 0
0.39207 0.29608 0
0.42705 0.29871 0
0.46186 0.30102 0
0.49619 0.30296 0
0.52972 0.30456 0
0.56239 0.30585 0
0.59436 0.30688 0
0.62577 0.30769 0
0.65682 0.3083 0
0.68765 0.30878 0
0.71839 0.30914 0
0.74916 0.30944 0
0.77998 0.30967 0
0.81093 0.30989 0
0.84198 0.31007 0
0.87319 0.31024 0
0.90451 0.3104 0
0.93594 0.31057 0
0.9674 0.31073 0
0.99873 0.31088 0
0 0.30198 0
0.0082477 0.30281 0
0.0343 0.30407 0
0.062054 0.30568 0
0.091623 0.30751 0
0.12281 0.30953 0
0.1552 0.31168 0
0.1884 0.31396 0
0.22215 0.31641 0
0.2563 0.31903 0
0.29069 0.32178 0
0.32528 0.32458 0
0.35998 0.32737 0
0.39476 0.33007 0
0.42951 0.33255 0
0.46399 0.33472 0
0.49795 0.33652 0
0.53115 0.33797 0
0.56353 0.33913 0
0.59523 0.34001 0
0.62641 0.34065 0
0.65728 0.34109 0
0.68798 0.34138 0
0.7186 0.34155 0
0.74927 0.3416 0
0.78004 0.34158 0
0.81096 0.34152 0
0.84201 0.34147 0
0.87322 0.34145 0
0.90458 0.34147 0
0.93605 0.34153 0
0.96754 0.34165 0
0.9989 0.34182 0
0 0.33533 0
0.0092681 0.3362 0
0.035756 0.33756 0
0.063801 0.33928 0
0.093587 0.3413 0
0.12492 0.34352 0
0.15742 0.34585 0
0.19075 0.34832 0
0.22464 0.35092 0
0.25888 0.3536 0
0.29333 0.35632 0
0.32793 0.35901 0
0.3626 0.36166 0
0.39725 0.36419 0
0.43178 0.36649 0
0.46593 0.36848 0
0.49953 0.37011 0
0.5324 0.3714 0
0.56449 0.37239 0
0.59592 0.3731 0
0.62689 0.37356 0
0.65757 0.37385 0
0.6881 0.37395 0
0.7186 0.37392 0
0.74914 0.37377 0
0.77985 0.37354 0
0.81075 0.37327 0
0.84183 0.37303 0
0.8731 0.37283 0
0.90452 0.37271 0
0.93607 0.37267 0
0.96764 0.3727 0
0.99908 0.37281 0
0 0.369 0
0.010405 0.37002 0
0.037316 0.37151 0
0.065709 0.37342 0
0.095714 0.3756 0
0.12718 0.37798 0
0.15977 0.38049 0
0.19318 0.38309 0
0.22713 0.38572 0
0.26139 0.38836 0
0.29583 0.39098 0
0.3304 0.39354 0
0.36501 0.396 0
0.39953 0.39832 0
0.43382 0.4004 0
0.46765 0.40216 0
0.50091 0.40358 0
0.53347 0.40468 0
0.56525 0.40548 0
0.59642 0.40601 0
0.62717 0.40631 0
0.65768 0.4064 0
0.68804 0.40633 0
0.71839 0.40612 0
0.74883 0.40579 0
0.77948 0.40541 0
0.81036 0.40501 0
0.84148 0.40462 0
0.87283 0.4043 0
0.90436 0.40409 0
0.93602 0.40398 0
0.96768 0.40396 0
0.9992 0.40402 0
0 0.40305 0
0.011698 0.40426 0
0.039053 0.40594 0
0.067764 0.408 0
0.097959 0.41034 0
0.12953 0.41283 0
0.16218 0.41541 0
0.19559 0.418 0
0.22952 0.42056 0
0.26375 0.42309 0
0.29816 0.42557 0
0.33267 0.42796 0
0.36719 0.43022 0
0.40156 0.43229 0
0.4356 0.4341 0
0.46912 0.43561 0
0.50205 0.43679 0
0.53431 0.43765 0
0.56583 0.43826 0
0.59675 0.43862 0
0.62728 0.43875 0
0.65759 0.43867 0
0.6878 0.43843 0
0.71803 0.43808 0
0.74838 0.43764 0
0.77898 0.43715 0
0.80986 0.43665 0
0.84103 0.43618 0
0.87249 0.43578 0
0.90415 0.43551 0
0.93591 0.43536 0
0.96769 0.43531 0
0.99931 0.43535 0
0 0.43742 0
0.013192 0.43884 0
0.040936 0.44069 0
0.069911 0.44286 0
0.10025 0.44524 0
0.13189 0.44773 0
0.16454 0.45025 0
0.1979 0.45275 0
0.23177 0.45519 0
0.26596 0.45757 0
0.30032 0.45989 0
0.33475 0.46211 0
0.36912 0.46413 0
0.4033 0.46591 0
0.43709 0.46743 0
0.47032 0.46865 0
0.50293 0.46956 0
0.53493 0.47018 0
0.56623 0.47058 0
0.59692 0.47076 0
0.62722 0.47074 0
0.65735 0.47053 0
0.68743 0.47018 0
0.71756 0.46971 0
0.74785 0.4692 0
0.7784 0.46866 0
0.8093 0.46811 0
0.84053 0.46762 0
0.8721 0.46721 0
0.9039 0.46691 0
0.9358 0.46673 0
0.96769 0.46668 0
0.99942 0.46673 0
0 0.47195 0
0.014846 0.47354 0
0.042903 0.47547 0
0.072061 0.47764 0
0.10249 0.47996 0
0.13415 0.48233 0
0.16678 0.4847 0
0.20009 0.48708 0
0.23389 0.48939 0
0.26801 0.49163 0
0.30233 0.49378 0
0.33663 0.49578 0
0.37079 0.49754 0
0.40474 0.49901 0
0.43828 0.50019 0
0.47122 0.50107 0
0.50357 0.5017 0
0.53534 0.5021 0
0.56642 0.50231 0
0.59692 0.50233 0
0.62704 0.50219 0
0.65702 0.50191 0
0.68698 0.50151 0
0.71702 0.50102 0
0.74727 0.50048 0
0.77781 0.49993 0
0.80874 0.4994 0
0.84005 0.49894 0
0.87172 0.49856 0
0.90364 0.49828 0
0.93569 0.49813 0
0.96771 0.49807 0
0.99954 0.49813 0
0 0.50628 0
0.016566 0.50792 0
0.044843 0.50982 0
0.074135 0.51189 0
0.1046 0.51407 0
0.13627 0.51627 0
0.16891 0.51851 0
0.20218 0.52077 0
0.23591 0.52296 0
0.26995 0.52506 0
0.30416 0.52702 0
0.33829 0.52878 0
0.37219 0.53026 0
0.40586 0.53139 0
0.43913 0.53221 0
0.47183 0.53277 0
0.50399 0.53315 0
0.53556 0.53336 0
0.56647 0.53341 0
0.5968 0.53333 0
0.6268 0.53312 0
0.65667 0.53282 0
0.68653 0.53244 0
0.7165 0.532 0
0.74672 0.53152 0
0.77727 0.53104 0
0.80824 0.53059 0
0.83962 0.53019 0
0.87139 0.52987 0
0.90344 0.52965 0
0.9356 0.52953 0
0.96772 0.52949 0
0.99964 0.52953 0
0 0.53993 0
0.018261 0.54154 0
0.046705 0.54333 0
0.076083 0.54525 0
0.1066 0.54727 0
0.1383 0.54934 0
0.17097 0.55147 0
0.20422 0.55363 0
0.23785 0.55572 0
0.27178 0.55768 0
0.30582 0.55944 0
0.33972 0.56093 0
0.37334 0.56211 0
0.40667 0.56293 0
0.43968 0.56346 0
0.4722 0.56377 0
0.50421 0.56395 0
0.53563 0.56401 0
0.56641 0.56397 0
0.59663 0.56383 0
0.62653 0.56361 0
0.65633 0.56333 0
0.68614 0.56301 0
0.71609 0.56268 0
0.74629 0.56235 0
0.77685 0.56203 0
0.80784 0.56172 0
0.83929 0.56143 0
0.87114 0.56119 0
0.90328 0.56101 0
0.93554 0.56091 0
0.96772 0.56087 0
0.99971 0.56088 0
0 0.57283 0
0.019855 0.57432 0
0.048435 0.57596 0
0.077909 0.57772 0
0.1085 0.5796 0
0.14028 0.58158 0
0.17299 0.58363 0
0.20622 0.58569 0
0.23974 0.58768 0
0.27349 0.58948 0
0.30728 0.59101 0
0.3409 0.59222 0
0.37422 0.59312 0
0.40726 0.59372 0
0.44002 0.59404 0
0.47239 0.59418 0
0.50428 0.59422 0
0.5356 0.59419 7.1686e-005
0.5663 0.5941 8.97e-005
0.59646 0.59396 4.2544e-005
0.62629 0.59377 0
0.65605 0.59356 0
0.68586 0.59334 0
0.71583 0.59316 0
0.74606 0.59301 0
0.77662 0.59288 0
0.80762 0.59276 0
0.83907 0.59263 0
0.87097 0.59249 0
0.90316 0.59236 0
0.93547 0.59226 0
0.96771 0.59219 0
0.99976 0.59218 0
0 0.60511 8.6879e-007
0.021311 0.60647 0
0.050024 0.60796 0
0.079612 0.60958 0
0.11032 0.61134 0
0.1422 0.61323 0
0.17496 0.61518 0
0.20814 0.61715 0
0.24152 0.619 0
0.27502 0.62061 0
0.30851 0.6219 0
0.34184 0.62287 0
0.3749 0.62354 0
0.40768 0.62398 0
0.44023 0.62419 0
0.47246 0.62424 0
0.50427 0.6242 7.5947e-006
0.53553 0.62411 0.00011922
0.56618 0.624 0.00014206
0.5963 0.62387 0.00010905
0.62613 0.62375 8.9477e-006
0.65589 0.62364 0
0.68573 0.62356 0
0.71574 0.62354 0
0.74601 0.62356 0
0.7766 0.62361 0
0.80759 0.62367 0
0.83902 0.62371 0
0.87089 0.62371 0
0.90307 0.62367 0
0.93538 0.62359 0
0.96768 0.62351 0
0.99979 0.62348 0
0 0.63702 0.00044424
0.022616 0.63825 0
0.051471 0.6396 0
0.081202 0.64108 0
0.11207 0.64273 0
0.14406 0.64453 0
0.17685 0.64639 0
0.20996 0.64823 0
0.24313 0.64992 0
0.27634 0.65133 0.00010707
0.30954 0.65241 5.7691e-005
0.34258 0.6532 0
0.37541 0.65372 0
0.40798 0.65405 0
0.44035 0.65419 0
0.47246 0.6542 0
0.50418 0.65412 2.0942e-005
0.53542 0.65399 0.00013757
0.56607 0.65386 0.0001941
0.5962 0.65377 0.00018944
0.62607 0.65372 0.00012772
0.65586 0.65373 3.2396e-005
0.68575 0.65379 0
0.71581 0.6539 0
0.74613 0.65406 0
0.77675 0.65426 0
0.80773 0.65447 0
0.83914 0.65467 0
0.87095 0.65481 2.4034e-005
0.90306 0.65488 7.5751e-005
0.93533 0.65488 6.8327e-005
0.96762 0.65483 0
0.9998 0.65479 0
0 0.66876 0.00072329
0.023777 0.66986 0.00013816
0.052778 0.67109 0
0.082687 0.67247 0
0.11373 0.67403 0
0.14583 0.67571 0
0.17863 0.67745 0
0.21162 0.67915 3.6116e-005
0.24457 0.68067 0.00024927
0.27749 0.68193 0.00029659
0.31039 0.68287 0.0001891
0.34318 0.68353 2.7479e-005
0.37579 0.68395 0
0.40821 0.68418 0
0.44043 0.6843 0
0.47242 0.68429 0
0.50406 0.68418 3.3617e-005
0.53528 0.68402 0.00016021
0.56595 0.68387 0.00025841
0.59615 0.68379 0.00030801
0.62609 0.68381 0.00029934
0.65595 0.6839 0.00026184
0.68589 0.68406 0.00021493
0.71601 0.68427 0.00018544
0.74638 0.68454 0.00018081
0.77703 0.68485 0.00020618
0.80802 0.68519 0.00023765
0.83939 0.68551 0.00028915
0.87114 0.68579 0.00033518
0.90315 0.68598 0.00036501
0.93535 0.68607 0.0003483
0.96761 0.68609 0.00024798
0.99982 0.6861 3.7003e-005
0 0.70049 0.00087721
0.0248 0.70148 0.00034787
0.053983 0.70261 1.6173e-005
0.084087 0.70393 0
0.11529 0.7054 0
0.14747 0.70699 0
0.18025 0.70861 0
0.21312 0.71016 0.0002692
0.24586 0.71154 0.00041542
0.27849 0.71268 0.00040471
0.31111 0.71352 0.00025517
0.34366 0.71408 5.7536e-005
0.37608 0.71442 0
0.40836 0.71461 0
0.44048 0.71469 0
0.47235 0.71465 0
0.5039 0.7145 7.3179e-005
0.5351 0.71431 0.00021626
0.56582 0.71414 0.00034633
0.59612 0.71405 0.00045239
0.62616 0.71407 0.00049226
0.6561 0.7142 0.00049709
0.68612 0.71441 0.00046816
0.7163 0.71469 0.00044689
0.74673 0.71504 0.00045719
0.77741 0.71544 0.00049687
0.80842 0.71587 0.00052275
0.83977 0.7163 0.00054691
0.87144 0.71668 0.00056507
0.90336 0.71698 0.00056945
0.93545 0.71718 0.00054235
0.96765 0.71729 0.00046613
0.99987 0.71734 0.00030319
0 0.73233 0.00092792
0.025729 0.73325 0.00045975
0.055107 0.73433 0.00018543
0.085411 0.73557 8.9958e-007
0.11677 0.737 0
0.149 0.73852 0
0.18172 0.74002 0.00018031
0.21447 0.74144 0.00042687
0.24701 0.74271 0.00052954
0.27939 0.74375 0.00047748
0.31173 0.74452 0.00029133
0.34405 0.745 7.186e-005
0.37631 0.74528 0
0.40848 0.74543 0
0.44048 0.74545 0
0.47222 0.74536 0
0.50369 0.74517 0.00013059
0.53488 0.74491 0.00029636
0.56565 0.74469 0.0004467
0.59606 0.74456 0.0005887
0.62623 0.74455 0.00067323
0.65628 0.74467 0.00070878
0.6864 0.74491 0.0006982
0.71665 0.74524 0.00068754
0.74715 0.74566 0.00069102
0.77788 0.74612 0.00072646
0.8089 0.74662 0.00073758
0.84023 0.74711 0.00074014
0.87183 0.74757 0.00073269
0.90365 0.74795 0.00070719
0.93565 0.74823 0.00067363
0.96777 0.74842 0.00061856
0.99995 0.74854 0.00050509
0 0.76439 0.00091456
0.026582 0.76527 0.00052214
0.056172 0.7663 0.00031244
0.086683 0.76752 0.00017999
0.11819 0.7689 0.0001026
0.15044 0.77036 0.00015099
0.18307 0.77178 0.00032409
0.21569 0.77309 0.00051499
0.24806 0.77425 0.00058495
0.2802 0.7752 0.00049979
0.31228 0.77589 0.00030209
0.34437 0.77631 8.37e-005
0.37649 0.77654 0
0.40853 0.77662 0
0.4404 0.77657 0
0.47203 0.7764 3.3588e-005
0.50342 0.77614 0.00020404
0.53459 0.77584 0.00037041
0.56543 0.77556 0.0005283
0.59595 0.77538 0.00069481
0.62626 0.77531 0.00081071
0.65646 0.7754 0.0008813
0.6867 0.77564 0.00089962
0.71706 0.77601 0.00089577
0.74762 0.77647 0.00088579
0.7784 0.77698 0.00089297
0.80943 0.77752 0.00088571
0.84073 0.77805 0.00086466
0.87228 0.77854 0.00084012
0.90402 0.77896 0.00079644
0.93592 0.7793 0.00075197
0.96795 0.77955 0.00070817
1 0.77972 0.00064489
0 0.79678 0.00087648
0.027381 0.79764 0.00056667
0.05719 0.79865 0.00043107
0.087914 0.79984 0.00035379
0.11954 0.80119 0.00029392
0.15178 0.80258 0.00030339
0.18432 0.80391 0.00040677
0.2168 0.80511 0.00053904
0.249 0.80615 0.00058104
0.28094 0.80698 0.0004659
0.31277 0.8076 0.00026764
0.34466 0.80797 5.3563e-005
0.3766 0.80813 0
0.4085 0.80813 0
0.44023 0.80799 0
0.47176 0.80774 7.3712e-005
0.50309 0.80742 0.00026043
0.53425 0.80707 0.00043267
0.56516 0.80676 0.00058585
0.59578 0.80653 0.00075202
0.62623 0.80643 0.00089308
0.65661 0.80649 0.00099128
0.68701 0.80672 0.0010423
0.71749 0.80708 0.0010469
0.74812 0.80754 0.0010244
0.77895 0.80805 0.00099847
0.80998 0.8086 0.00096369
0.84126 0.80913 0.0009151
0.87274 0.80963 0.0008767
0.90441 0.81006 0.00083567
0.93623 0.81043 0.00079969
0.96818 0.81071 0.00076668
1 0.81093 0.00072976
0 0.8296 0.00085684
0.028141 0.83044 0.00063815
0.058184 0.83144 0.0005707
0.089101 0.83261 0.00052806
0.12082 0.83389 0.0004634
0.15303 0.83519 0.00041499
0.18545 0.83639 0.00043723
0.21778 0.83744 0.00050349
0.24982 0.83833 0.00051412
