Golgo 13 The Professional/Cube/black-08.cube
LUT_3D_SIZE 5
0 0 0
0.20084 0 0
0.47053 0 0
0.74241 0.00046097 0
1 0.0016352 0
0 0.20238 0
0.2155 0.21515 0
0.49211 0.23649 0
0.74812 0.24605 0
0.99864 0.24869 0
0 0.47195 0
0.23389 0.48939 0
0.50357 0.5017 0
0.74727 0.50048 0
0.99954 0.49813 0
0 0.73233 0.00092792
0.24701 0.74271 0.00052954
0.50369 0.74517 0.00013059
0.74715 0.74566 0.00069102
0.99995 0.74854 0.00050509
0.00096826 1 0.00067098
0.25154 1 0
0.50129 0.99931 0
0.74985 0.99938 0
1 0.99992 0
0 0 0.19931
0.21638 0 0.20738
0.49122 0 0.23036
0.74854 0 0.2453
0.99427 0.0013358 0.24844
0 0.22077 0.2137
0.22416 0.22461 0.22475
0.50092 0.23278 0.22928
0.75506 0.23913 0.23437
0.99954 0.24468 0.24223
0 0.48638 0.23085
0.23132 0.4991 0.22946
0.50555 0.50459 0.22349
0.75549 0.5023 0.23055
1 0.49856 0.24066
0 0.73998 0.24283
0.23968 0.74833 0.23514
0.50716 0.75155 0.22824
0.75279 0.75276 0.23369
0.99844 0.75351 0.24133
0 0.99933 0.24864
0.24356 0.99843 0.24054
0.50609 0.99891 0.23619
0.75576 0.99915 0.24094
0.99914 1 0.24678
0 0 0.47299
0.22928 0 0.48704
0.50041 0 0.49324
0.75623 0 0.49394
0.99891 0 0.49747
0 0.23228 0.48421
0.23048 0.23471 0.50054
0.49829 0.23295 0.49989
0.76154 0.23498 0.49641
1 0.24076 0.49824
0 0.49757 0.49425
0.22788 0.49913 0.50299
0.49602 0.4962 0.49645
0.76439 0.49457 0.49008
1 0.49471 0.49193
0 0.74598 0.4969
0.23309 0.75241 0.5015
0.49657 0.75895 0.4933
0.75842 0.75613 0.48266
1 0.75233 0.48605
0 0.99989 0.49753
0.23962 1 0.50188
0.49706 1 0.49458
0.75712 1 0.48452
1 1 0.48399
0 0 0.72512
0.24155 0.0021032 0.74369
0.49905 0.00058892 0.75102
0.7511 0 0.74495
1 0 0.74096
0.0030138 0.24246 0.7399
0.23971 0.24305 0.74975
0.49535 0.23804 0.75488
0.75599 0.2407 0.75337
1 0.2431 0.74654
0.0022845 0.49901 0.74564
0.23464 0.49541 0.75135
0.49357 0.49275 0.75716
0.75549 0.48812 0.75449
1 0.48847 0.74467
0.0028043 0.74754 0.74701
0.23817 0.75367 0.75309
0.4882 0.75528 0.75508
0.75029 0.75024 0.75028
1 0.74696 0.74267
0.0003148 1 0.74902
0.24162 0.99921 0.75369
0.48887 1 0.75081
0.74891 1 0.74509
1 1 0.73853
0.00042633 0 0.9993
0.24906 0.00070995 0.9999
0.49967 0 0.99904
0.74883 0 0.9997
0.99984 0 1
0.0019415 0.25096 1
0.24289 0.24414 0.99513
0.50004 0.2381 0.99702
0.75396 0.24126 0.99818
0.99622 0.24251 0.99455
0 0.49962 0.9997
0.23715 0.49739 0.99406
0.49852 0.49851 0.99992
0.75135 0.49124 1
0.99835 0.48997 0.99783
0 0.74914 1
0.24132 0.75637 0.99635
0.49129 0.75289 1
0.7458 0.74687 1
1 0.74581 1
0 1 0.99995
0.24183 0.9958 0.9949
0.49047 0.99621 0.9998
0.74474 1 1
1 0.99987 0.99994
