Golgo 13 The Professional/Cube/black-08.cube
LUT_3D_SIZE 9
0 0 0
0.079121 0 0
0.20084 0 0
0.32763 0 0
0.47053 0 0
0.61197 0 0
0.74241 0.00046097 0
0.8707 0.0010402 0
1 0.0016352 0
0 0.074429 0
0.077661 0.074464 0
0.20736 0.083301 0
0.33824 0.095544 0
0.48168 0.10844 0
0.61828 0.11674 0
0.74446 0.12111 0.0002615
0.87151 0.12344 0.00019214
0.99977 0.12339 0
0 0.20238 0
0.086429 0.20817 0
0.2155 0.21515 0
0.35133 0.22581 0
0.49211 0.23649 0
0.62393 0.24251 0
0.74812 0.24605 0
0.87272 0.24825 0
0.99864 0.24869 0
0 0.33533 0
0.093587 0.3413 0
0.22464 0.35092 0
0.3626 0.36166 0
0.49953 0.37011 0
0.62689 0.37356 0
0.74914 0.37377 0
0.8731 0.37283 0
0.99908 0.37281 0
0 0.47195 0
0.10249 0.47996 0
0.23389 0.48939 0
0.37079 0.49754 0
0.50357 0.5017 0
0.62704 0.50219 0
0.74727 0.50048 0
0.87172 0.49856 0
0.99954 0.49813 0
0 0.60511 8.6879e-007
0.11032 0.61134 0
0.24152 0.619 0
0.3749 0.62354 0
0.50427 0.6242 7.5947e-006
0.62613 0.62375 8.9477e-006
0.74601 0.62356 0
0.87089 0.62371 0
0.99979 0.62348 0
0 0.73233 0.00092792
0.11677 0.737 0
0.24701 0.74271 0.00052954
0.37631 0.74528 0
0.50369 0.74517 0.00013059
0.62623 0.74455 0.00067323
0.74715 0.74566 0.00069102
0.87183 0.74757 0.00073269
0.99995 0.74854 0.00050509
0 0.86293 0.00087676
0.12198 0.86699 0.00057517
0.25051 0.87071 0.00038353
0.37661 0.8719 0
0.50232 0.8708 0.00023514
0.6261 0.8698 0.00089196
0.74903 0.87054 0.0010552
0.87365 0.87228 0.00070754
1 0.8735 0.00075937
0.00096826 1 0.00067098
0.12409 1 0
0.25154 1 0
0.37626 0.99972 0
0.50129 0.99931 0
0.62569 0.99932 0
0.74985 0.99938 0
0.87488 0.99993 0
1 0.99992 0
0 0 0.080386
0.07843 0 0.076714
0.20797 0 0.083634
0.33754 0 0.095941
0.47994 0 0.10903
0.61507 0 0.11597
0.74339 0 0.1191
0.8711 0.00073636 0.12137
0.99739 0.0021057 0.11945
0 0.075896 0.078253
0.080242 0.078878 0.076946
0.21712 0.086285 0.085251
0.34906 0.096469 0.096524
0.49021 0.10687 0.1069
0.62106 0.11425 0.11196
0.74623 0.11888 0.11558
0.87239 0.12149 0.119
0.998 0.12249 0.11892
0 0.21147 0.089466
0.086228 0.21798 0.087967
0.22155 0.22153 0.092398
0.35815 0.22823 0.098177
0.49806 0.2352 0.10398
0.62639 0.23969 0.10737
0.75002 0.24319 0.11084
0.87432 0.24594 0.11467
0.99844 0.2475 0.1164
0 0.34277 0.099335
0.093295 0.35036 0.097376
0.22756 0.35841 0.098244
0.36594 0.36625 0.099704
0.50252 0.37178 0.10212
0.62856 0.37345 0.1046
0.75121 0.37297 0.10841
0.8754 0.37241 0.113
0.99959 0.37269 0.11554
0 0.47807 0.10769
0.10226 0.48702 0.10584
0.235 0.49508 0.10416
0.37192 0.50136 0.10302
0.50487 0.50417 0.10384
0.62764 0.50398 0.10523
0.74886 0.50199 0.10849
0.87426 0.49966 0.11331
0.99965 0.49847 0.11582
0 0.60838 0.1129
0.10982 0.61501 0.11111
0.24109 0.62169 0.10791
0.37514 0.62521 0.10576
0.50536 0.62592 0.10661
0.62698 0.62628 0.10857
0.74752 0.62655 0.11156
0.8725 0.62601 0.1152
0.99862 0.62483 0.11625
0 0.73469 0.11649
0.11598 0.73976 0.11505
0.2453 0.74452 0.111
0.37682 0.7466 0.10889
0.50545 0.7471 0.11052
0.62755 0.74706 0.11304
0.74837 0.74836 0.11591
0.87244 0.74964 0.11834
0.99878 0.75051 0.11867
0 0.86583 0.1207
0.11983 0.86889 0.11868
0.24823 0.87127 0.11364
0.37728 0.87204 0.11113
0.50465 0.87142 0.11355
0.62788 0.87084 0.11681
0.75001 0.87179 0.11964
0.8739 0.87364 0.12181
0.9997 0.87488 0.12204
0.00021667 0.99983 0.12264
0.1207 0.99896 0.11948
0.24937 0.9984 0.11425
0.37673 0.99841 0.11143
0.50414 0.99799 0.11408
0.6276 0.99824 0.11779
0.75125 0.99845 0.12121
0.8755 0.99963 0.12396
0.99943 0.99958 0.12426
0 0 0.19931
0.08274 0 0.20169
0.21638 0 0.20738
0.35186 0 0.21851
0.49122 0 0.23036
0.62187 0 0.23833
0.74854 0 0.2453
0.87163 0 0.24885
0.99427 0.0013358 0.24844
0 0.086931 0.20444
0.088002 0.091984 0.21331
0.22162 0.096433 0.2182
0.35823 0.10083 0.22479
0.49676 0.10543 0.23047
0.62585 0.10928 0.23443
0.75178 0.11261 0.24002
0.87476 0.11596 0.24472
0.99685 0.11933 0.24603
0 0.22077 0.2137
0.091032 0.22352 0.22119
0.22416 0.22461 0.22475
0.36288 0.22845 0.22736
0.50092 0.23278 0.22928
0.62932 0.23612 0.23055
0.75506 0.23913 0.23437
0.8782 0.24202 0.23935
0.99954 0.24468 0.24223
0 0.35236 0.22202
0.094692 0.35798 0.22695
0.22729 0.36238 0.2275
0.36727 0.36653 0.22621
0.50423 0.36998 0.22624
0.63164 0.37136 0.22739
0.75691 0.3718 0.23189
0.88021 0.37222 0.2376
1 0.37276 0.24065
0 0.48638 0.23085
0.10071 0.49359 0.23259
0.23132 0.4991 0.22946
0.37109 0.50292 0.2251
0.50555 0.50459 0.22349
0.63091 0.50429 0.22482
0.75549 0.5023 0.23055
0.87957 0.5001 0.23735
1 0.49856 0.24066
0 0.61363 0.23749
0.10683 0.61976 0.23704
0.23583 0.62505 0.23172
0.3732 0.62817 0.22604
0.50639 0.62928 0.22394
0.63043 0.63017 0.22542
0.75328 0.62965 0.23082
0.87691 0.62754 0.237
0.99901 0.62565 0.2405
0 0.73998 0.24283
0.11199 0.74444 0.2414
0.23968 0.74833 0.23514
0.37499 0.7509 0.22999
0.50716 0.75155 0.22824
0.63097 0.7519 0.22962
0.75279 0.75276 0.23369
0.87589 0.75312 0.23856
0.99844 0.75351 0.24133
0 0.87023 0.24719
0.11491 0.87206 0.24516
0.24213 0.87388 0.23881
0.37623 0.87484 0.23471
0.50669 0.87461 0.23297
0.63143 0.87418 0.23438
0.75408 0.87529 0.23786
0.87708 0.87736 0.24203
0.99894 0.87856 0.24408
0 0.99933 0.24864
0.11537 0.99815 0.2464
0.24356 0.99843 0.24054
0.37622 0.99903 0.23721
0.50609 0.99891 0.23619
0.63131 0.99867 0.23728
0.75576 0.99915 0.24094
0.87864 1 0.24478
0.99914 1 0.24678
0 0 0.33319
0.089859 0 0.33877
0.22295 0 0.34631
0.36165 0 0.35484
0.49836 0 0.36026
0.62903 0 0.36471
0.75416 0 0.36918
0.8742 0 0.37234
0.99508 0 0.37526
0 0.097452 0.34043
0.095241 0.10204 0.34865
0.22596 0.10443 0.35484
0.36348 0.10476 0.3601
0.49972 0.10552 0.36168
0.63025 0.10667 0.36418
0.75665 0.10823 0.36738
0.87809 0.11155 0.37017
0.99871 0.11578 0.3733
0 0.22763 0.3481
0.097256 0.22943 0.35633
0.22642 0.22941 0.36148
0.3642 0.22981 0.36346
0.5013 0.23126 0.36174
0.63189 0.23325 0.36252
0.75952 0.23589 0.36556
0.88205 0.23928 0.36845
1 0.2421 0.37118
0 0.36035 0.3554
0.098728 0.36376 0.36275
0.22672 0.36492 0.36571
0.36523 0.36544 0.36496
0.50287 0.36684 0.36091
0.634 0.36776 0.35969
0.76223 0.36909 0.36234
0.88475 0.37057 0.36591
1 0.37139 0.36881
0 0.49359 0.36221
0.10168 0.49756 0.36704
0.22764 0.50015 0.36676
0.36611 0.50159 0.36329
0.50265 0.50131 0.35663
0.6339 0.50079 0.35442
0.76243 0.49941 0.35798
0.88503 0.49799 0.36253
1 0.49761 0.3665
0 0.61919 0.36714
0.105 0.62297 0.36913
0.23032 0.62678 0.36696
0.36723 0.62975 0.36207
0.5031 0.63141 0.35495
0.633 0.63166 0.3521
0.75967 0.62964 0.35495
0.88277 0.62662 0.35979
1 0.62464 0.36484
0 0.7444 0.37063
0.10852 0.74764 0.37052
0.2345 0.75141 0.36829
0.36971 0.75535 0.3641
0.50387 0.7564 0.35765
0.63241 0.75628 0.35393
0.7577 0.75562 0.35527
0.88101 0.75485 0.35922
1 0.75417 0.3636
0 0.87257 0.37275
0.11131 0.87399 0.37201
0.23794 0.8762 0.37016
0.37201 0.87877 0.36721
0.50354 0.8793 0.36157
0.63204 0.87867 0.35752
0.75767 0.87896 0.35757
0.88115 0.87968 0.36013
1 0.88014 0.36348
0 0.9993 0.37354
0.11238 0.99859 0.37303
0.23953 0.9996 0.37121
0.37354 1 0.36925
0.50319 1 0.36452
0.63208 1 0.36098
0.75856 1 0.36046
0.88154 1 0.3616
1 1 0.36395
0 0 0.47299
0.096728 0 0.47934
0.22928 0 0.48704
0.36578 0 0.49232
0.50041 0 0.49324
0.63202 0 0.49361
0.75623 0 0.49394
0.87687 0 0.49466
0.99891 0 0.49747
0 0.10404 0.47925
0.10152 0.10884 0.48741
0.23081 0.11057 0.49458
0.36468 0.10883 0.49755
0.4994 0.10695 0.49643
0.63213 0.10639 0.49525
0.75842 0.10817 0.49519
0.88037 0.1117 0.49585
1 0.115 0.49757
0 0.23228 0.48421
0.10405 0.23473 0.49325
0.23048 0.23471 0.50054
0.36321 0.23379 0.50256
0.49829 0.23295 0.49989
0.63283 0.23297 0.49701
0.76154 0.23498 0.49641
0.88411 0.23823 0.49697
1 0.24076 0.49824
0 0.36648 0.48977
0.10434 0.36797 0.49765
0.22936 0.36656 0.50365
0.36274 0.3653 0.50487
0.49764 0.36468 0.50059
0.63319 0.36405 0.49654
0.764 0.36476 0.49471
0.88682 0.36655 0.49455
1 0.36819 0.4958
0 0.49757 0.49425
0.1045 0.49911 0.49926
0.22788 0.49913 0.50299
0.36125 0.49806 0.50213
0.49602 0.4962 0.49645
0.63298 0.49566 0.49251
0.76439 0.49457 0.49008
0.88805 0.49395 0.48984
1 0.49471 0.49193
0 0.62156 0.4959
0.10638 0.62368 0.49925
0.22881 0.62659 0.50143
0.36164 0.62938 0.4997
0.49605 0.63145 0.49381
0.63078 0.63017 0.48835
0.76147 0.62665 0.48519
0.887 0.6235 0.48567
1 0.62241 0.48894
0 0.74598 0.4969
0.10954 0.74794 0.49963
0.23309 0.75241 0.5015
0.36473 0.75703 0.49934
0.49657 0.75895 0.4933
0.62845 0.7581 0.48665
0.75842 0.75613 0.48266
0.88458 0.75406 0.48236
1 0.75233 0.48605
0 0.87309 0.49725
0.11215 0.87407 0.49908
0.2376 0.87687 0.50175
0.36764 0.88038 0.49972
0.49676 0.88157 0.49387
0.62754 0.8815 0.48738
0.75722 0.88123 0.48313
0.88332 0.88057 0.48175
1 0.87985 0.48414
0 0.99989 0.49753
0.11335 0.99961 0.49906
0.23962 1 0.50188
0.36979 1 0.50011
0.49706 1 0.49458
0.62797 1 0.48885
0.75712 1 0.48452
0.88268 1 0.4826
1 1 0.48399
0 0 0.60219
0.10427 0 0.60992
0.23499 0 0.61938
0.36723 0 0.62372
0.49971 0 0.62399
0.63034 0 0.62145
0.75486 0 0.61796
0.87757 0 0.61633
1 0 0.61728
0 0.1088 0.60825
0.10932 0.11415 0.61695
0.2356 0.11607 0.62498
0.36543 0.11422 0.62872
0.49751 0.11148 0.62869
0.62932 0.10968 0.62549
0.75667 0.11096 0.62121
0.88062 0.11453 0.6189
1 0.11726 0.61906
0 0.23641 0.61417
0.11228 0.23916 0.62279
0.23519 0.23908 0.62986
0.3633 0.2375 0.633
0.49569 0.23592 0.63264
0.62941 0.23574 0.63001
0.75949 0.23729 0.62603
0.88367 0.23968 0.62304
1 0.24114 0.62192
0 0.37037 0.6191
0.11129 0.36938 0.62601
0.23377 0.36677 0.63231
0.36148 0.36475 0.63433
0.49448 0.36292 0.63343
0.62975 0.3621 0.63133
0.76091 0.36231 0.62747
0.88544 0.36326 0.6234
1 0.36493 0.62124
7.9583e-005 0.49875 0.6211
0.10936 0.49832 0.62547
0.23125 0.49697 0.6306
0.35923 0.49502 0.63253
0.49294 0.49324 0.63209
0.62918 0.49215 0.62984
0.76035 0.49018 0.62514
0.88647 0.48949 0.62009
1 0.49119 0.61765
0.00084842 0.62206 0.62145
0.11016 0.62356 0.62479
0.23135 0.6259 0.62948
0.35936 0.62823 0.63097
0.49173 0.62887 0.62929
0.62569 0.62554 0.62565
0.75764 0.62173 0.62096
0.88611 0.61941 0.61628
1 0.61952 0.61457
0.0014536 0.74664 0.622
0.11325 0.74836 0.62526
0.23495 0.75269 0.6299
0.36157 0.75643 0.63033
0.49061 0.75744 0.62669
0.62264 0.75607 0.62167
0.75442 0.75409 0.61663
0.88383 0.75141 0.61267
1 0.74919 0.61171
0.00078817 0.87322 0.62278
0.11647 0.87374 0.626
0.2389 0.87691 0.63012
0.36364 0.87983 0.62913
0.49074 0.881 0.62455
0.62199 0.88151 0.61947
0.75301 0.88137 0.61449
0.88162 0.88039 0.61053
1 0.87841 0.60912
0 1 0.62328
0.11763 0.99975 0.62598
0.24105 1 0.62997
0.36538 1 0.62795
0.4918 1 0.62335
0.62269 1 0.61875
0.75291 1 0.61412
0.88061 1 0.61028
1 1 0.60837
0 0 0.72512
0.11406 0 0.73397
0.24155 0.0021032 0.74369
0.36995 0.0018483 0.74912
0.49905 0.00058892 0.75102
0.62638 0 0.74898
0.7511 0 0.74495
0.87633 0 0.74187
1 0 0.74096
0 0.11521 0.73199
0.11749 0.1198 0.73931
0.24107 0.12015 0.74624
0.36842 0.11802 0.75084
0.49692 0.11516 0.75301
0.62556 0.1141 0.752
0.75265 0.11619 0.74903
0.87839 0.1196 0.74555
1 0.1208 0.74311
0.0030138 0.24246 0.7399
0.11906 0.24414 0.74501
0.23971 0.24305 0.74975
0.36536 0.24007 0.75301
0.49535 0.23804 0.75488
0.62703 0.23851 0.75489
0.75599 0.2407 0.75337
0.88046 0.24264 0.75019
1 0.2431 0.74654
0.0040266 0.37281 0.7447
0.11732 0.37019 0.74846
0.23716 0.36703 0.7519
0.36271 0.36469 0.75418
0.49434 0.36295 0.75593
0.62795 0.36234 0.75618
0.75698 0.36196 0.75451
0.8812 0.36194 0.75085
1 0.36277 0.74654
0.0022845 0.49901 0.74564
0.1139 0.49725 0.7482
0.23464 0.49541 0.75135
0.36094 0.49394 0.75442
0.49357 0.49275 0.75716
0.62654 0.49083 0.75719
0.75549 0.48812 0.75449
0.88116 0.4869 0.74998
1 0.48847 0.74467
0.0020278 0.62236 0.74612
0.11435 0.62368 0.74823
0.23488 0.62655 0.75156
0.36019 0.6281 0.75476
0.49113 0.62635 0.75692
0.62245 0.62188 0.75644
0.75301 0.61806 0.75336
0.88118 0.61673 0.74878
1 0.61771 0.74351
0.0028043 0.74754 0.74701
0.11773 0.74937 0.74928
0.23817 0.75367 0.75309
0.36064 0.75598 0.75497
0.4882 0.75528 0.75508
0.61848 0.75285 0.75364
0.75029 0.75024 0.75028
0.88016 0.74813 0.74664
1 0.74696 0.74267
0.0021116 0.87418 0.74809
0.12098 0.87482 0.75047
0.24096 0.87718 0.75398
0.3613 0.87831 0.75432
0.48767 0.87891 0.75324
0.61744 0.87943 0.75093
0.7487 0.8793 0.74687
0.87832 0.87828 0.74342
1 0.87612 0.74034
0.0003148 1 0.74902
0.12207 0.99957 0.75141
0.24162 0.99921 0.75369
0.36229 0.9998 0.75242
0.48887 1 0.75081
0.6185 1 0.74867
0.74891 1 0.74509
0.87732 1 0.74166
1 1 0.73853
0 0 0.85612
0.12267 0.0020272 0.86349
0.24733 0.0024912 0.86961
0.37288 0.0016005 0.87308
0.49958 0.00097592 0.8745
0.62421 0 0.87428
0.74864 0 0.87327
0.87436 0 0.8723
1 0 0.8705
0.0016264 0.12208 0.86168
0.12311 0.12361 0.86492
0.24563 0.12152 0.86891
0.37146 0.11851 0.87182
0.49856 0.1162 0.87416
0.62475 0.11658 0.87523
0.75085 0.12004 0.87512
0.87589 0.12348 0.87447
1 0.12345 0.87195
0.0045658 0.24852 0.86769
0.12201 0.24828 0.86769
0.24265 0.24517 0.86916
0.36799 0.24116 0.87127
0.49743 0.23875 0.87422
0.62738 0.23933 0.8761
0.75474 0.24168 0.87622
0.8774 0.24353 0.87483
0.99912 0.24389 0.87187
0.0043273 0.37461 0.871
0.11928 0.37185 0.87002
0.23873 0.36805 0.86992
0.36501 0.36541 0.87163
0.49651 0.36403 0.8746
0.62826 0.36343 0.87655
0.75526 0.36238 0.87658
0.87781 0.36163 0.87477
0.99948 0.36205 0.87185
0.0021268 0.49932 0.87181
0.11556 0.49708 0.87092
0.23656 0.49567 0.87108
0.36437 0.49564 0.87399
0.49584 0.49516 0.87751
0.62592 0.49262 0.87885
0.75276 0.48889 0.87803
0.87731 0.48706 0.87581
1 0.48793 0.8727
0.0014466 0.62337 0.87265
0.11587 0.62489 0.87187
0.2376 0.62814 0.87268
0.36373 0.62904 0.87652
0.49292 0.62623 0.88009
0.6215 0.62165 0.88108
0.74973 0.61783 0.8797
0.87707 0.61648 0.87711
1 0.61756 0.8735
0.0021815 0.74846 0.87388
0.1199 0.75061 0.87367
0.24041 0.75525 0.87447
0.36235 0.75603 0.87714
0.48918 0.75364 0.87988
0.61732 0.75032 0.88075
0.74722 0.74754 0.87956
0.8768 0.74603 0.87712
1 0.74603 0.8737
0.0021374 0.87503 0.87441
0.12324 0.87578 0.87454
0.24248 0.87738 0.87519
0.36158 0.87724 0.87676
0.48765 0.87689 0.87833
0.61563 0.87696 0.87863
0.74564 0.87654 0.8775
0.8755 0.87526 0.87524
1 0.87356 0.87243
0.00093703 1 0.8746
0.12351 0.99949 0.87447
0.24197 0.99779 0.8741
0.36167 0.99732 0.87505
0.48861 0.99865 0.87617
0.61693 1 0.87651
0.74594 1 0.87541
0.87435 1 0.87289
1 1 0.8703
0.00042633 0 0.9993
0.12572 0.0012551 1
0.24906 0.00070995 0.9999
0.37388 0 0.99938
0.49967 0 0.99904
0.62411 0 0.99903
0.74883 0 0.9997
0.87438 0.00024233 1
0.99984 0 1
0.0018934 0.12477 1
0.12446 0.12355 0.99956
0.24684 0.11982 0.99825
0.37291 0.11676 0.99754
0.49986 0.11585 0.99783
0.6254 0.11733 0.99866
0.75101 0.1205 0.99911
0.87523 0.12262 0.99902
0.99769 0.12179 0.99764
0.0019415 0.25096 1
0.12114 0.24864 0.9975
0.24289 0.24414 0.99513
0.37016 0.23997 0.99508
0.50004 0.2381 0.99702
0.62827 0.23912 0.99859
0.75396 0.24126 0.99818
0.87554 0.24232 0.9966
0.99622 0.24251 0.99455
0.0007791 0.37534 1
0.11705 0.37275 0.99577
0.23851 0.36855 0.99315
0.36754 0.36627 0.99407
0.49962 0.36532 0.99712
0.6293 0.36477 0.9993
0.75417 0.36351 0.99874
0.87567 0.36263 0.99688
0.99691 0.36327 0.99491
0 0.49962 0.9997
0.11361 0.49794 0.99556
0.23715 0.49739 0.99406
0.36778 0.49883 0.99647
0.49852 0.49851 0.99992
0.62634 0.49522 1
0.75135 0.49124 1
0.87528 0.48939 0.99944
0.99835 0.48997 0.99783
0 0.62435 0.99979
0.11439 0.62633 0.99635
0.2392 0.62986 0.99569
0.36763 0.63057 0.99876
0.49521 0.6277 1
0.62173 0.6231 1
0.74827 0.61946 1
0.87492 0.61811 1
1 0.61907 1
0 0.74914 1
0.11874 0.75218 0.99777
0.24132 0.75637 0.99635
0.36587 0.75588 0.99904
0.49129 0.75289 1
0.61769 0.74959 1
0.7458 0.74687 1
0.8749 0.7455 1
1 0.74581 1
0.00063441 0.87495 1
0.12216 0.87564 0.99861
0.24248 0.87687 0.99636
0.36441 0.87618 0.99809
0.48934 0.87528 1
0.61605 0.87516 1
0.74439 0.87483 1
0.87371 0.87362 1
1 0.87209 1
0 1 0.99995
0.12133 0.99819 0.99729
0.24183 0.9958 0.9949
0.36403 0.99491 0.99636
0.49047 0.99621 0.9998
0.61754 0.99894 1
0.74474 1 1
0.87225 1 1
1 0.99987 0.99994
