Golgo 13 The Professional/Cube/red.cube
LUT_3D_SIZE 9
0.014931 0.0069025 0
0.11848 0.0086881 0.013262
0.23918 0.0037325 0.01628
0.34886 0 0.02049
0.46127 0 0.026288
0.57867 0 0.030981
0.6998 0 0.033693
0.82182 0 0.03725
0.94597 0 0.040822
0.030302 0.091797 0.0075433
0.11447 0.10405 0.022311
0.23329 0.09208 0.021793
0.34536 0.084517 0.02469
0.45837 0.080991 0.029647
0.57445 0.075149 0.032864
0.6955 0.068556 0.035022
0.81653 0.061006 0.03895
0.94062 0.050935 0.043035
0.050144 0.18549 0.013162
0.11799 0.19874 0.026478
0.2279 0.20108 0.028718
0.34337 0.20076 0.033685
0.4546 0.19995 0.038964
0.56897 0.19534 0.040027
0.68997 0.19091 0.041283
0.80845 0.18251 0.042981
0.93259 0.17206 0.045586
0.069434 0.29124 0.01534
0.13746 0.30669 0.027345
0.22993 0.32478 0.033203
0.34473 0.32701 0.039278
0.45352 0.3276 0.046402
0.56591 0.32722 0.049935
0.68393 0.32535 0.049829
0.80133 0.32247 0.048728
0.92432 0.31906 0.048921
0.091222 0.4043 0.014684
0.16012 0.42079 0.026538
0.24786 0.43987 0.032967
0.34555 0.4499 0.039321
0.45415 0.45131 0.046286
0.56617 0.45358 0.051993
0.68225 0.45422 0.054018
0.80015 0.45303 0.054858
0.92413 0.45446 0.056146
0.11147 0.51631 0.012347
0.17952 0.52974 0.023389
0.26684 0.54648 0.029991
0.35235 0.56483 0.037044
0.45875 0.57122 0.043829
0.5691 0.57552 0.050563
0.68262 0.5778 0.054215
0.80086 0.58052 0.057467
0.9261 0.58272 0.061316
0.12777 0.62565 0.010822
0.19542 0.63694 0.02117
0.28409 0.65216 0.027278
0.37246 0.66979 0.034151
0.46296 0.68645 0.041674
0.57346 0.69026 0.04811
0.68674 0.69507 0.053744
0.80489 0.69958 0.058352
0.92855 0.70312 0.063387
0.14188 0.73666 0.0094606
0.20989 0.74695 0.019556
0.30107 0.7618 0.025307
0.39241 0.7794 0.032882
0.47905 0.7988 0.040565
0.57665 0.80858 0.047088
0.69094 0.81082 0.052912
0.80869 0.81437 0.057693
0.93042 0.81608 0.062001
0.15567 0.85454 0.0087944
0.22473 0.86448 0.018951
0.31805 0.87821 0.024213
0.41179 0.89421 0.031482
0.49877 0.91037 0.038192
0.58169 0.92807 0.045744
0.69378 0.93249 0.051567
0.81146 0.93479 0.056064
0.93167 0.93698 0.060433
0.035528 0.022705 0.10748
0.12712 0.023109 0.11908
0.24162 0.010275 0.12393
0.35517 0 0.12749
0.46993 0 0.13505
0.58224 0 0.14137
0.70345 0 0.14405
0.82624 0 0.14763
0.94993 0 0.15206
0.051816 0.1043 0.1136
0.12058 0.11269 0.12436
0.23376 0.10162 0.12854
0.35035 0.09401 0.13224
0.46537 0.086405 0.13785
0.5776 0.077323 0.1432
0.69991 0.071277 0.14686
0.8213 0.063325 0.15145
0.94474 0.053858 0.15534
0.066517 0.19033 0.11718
0.12607 0.20089 0.12845
0.23049 0.20702 0.1332
0.34963 0.20871 0.13711
0.45966 0.20793 0.14239
0.57103 0.20404 0.1474
0.69236 0.19664 0.15115
0.81152 0.18431 0.15408
0.93721 0.17299 0.1582
0.083753 0.29312 0.11835
0.14611 0.30779 0.13006
0.23399 0.32778 0.13863
0.35085 0.32913 0.14271
0.45948 0.32903 0.14622
0.56869 0.3302 0.15024
0.68436 0.32922 0.15287
0.802 0.32635 0.15469
0.92827 0.3229 0.15889
0.10439 0.40399 0.11732
0.16852 0.41931 0.12842
0.25374 0.43803 0.1372
0.35065 0.44935 0.144
0.46102 0.45053 0.14863
0.5708 0.45375 0.15286
0.68433 0.45624 0.15615
0.80242 0.45741 0.15913
0.92772 0.46018 0.16329
0.12349 0.51633 0.11663
0.1872 0.52863 0.1266
0.27238 0.54472 0.13488
0.35873 0.56309 0.14231
0.46488 0.56977 0.14787
0.57466 0.5737 0.15253
0.68725 0.57772 0.15858
0.80571 0.58253 0.16338
0.93107 0.58643 0.16837
0.13875 0.62584 0.11652
0.20254 0.63633 0.12577
0.28944 0.65121 0.13381
0.37901 0.66919 0.14037
0.46827 0.68696 0.14789
0.57931 0.69032 0.15304
0.69259 0.69521 0.159
0.81017 0.69956 0.16496
0.9341 0.7024 0.17005
0.15226 0.73681 0.11623
0.21718 0.74715 0.12552
0.30629 0.76162 0.13336
0.39912 0.77932 0.13927
0.48556 0.79808 0.14707
0.58175 0.80816 0.15358
0.69653 0.80996 0.15885
0.81319 0.81319 0.16403
0.93523 0.81415 0.16814
0.16616 0.85631 0.11714
0.23171 0.86569 0.1264
0.32283 0.87849 0.13349
0.41781 0.8938 0.13826
0.50489 0.90953 0.1452
0.58794 0.92709 0.15292
0.69911 0.93177 0.15792
0.81586 0.93417 0.1631
0.93609 0.93637 0.16726
0.049362 0.033032 0.22925
0.13175 0.031633 0.23584
0.24361 0.016119 0.23652
0.36117 0.0017082 0.23723
0.47775 0 0.24188
0.58862 0 0.24736
0.70815 0 0.25443
0.83152 0 0.2596
0.95613 0 0.26591
0.063392 0.10927 0.23119
0.12541 0.1175 0.23781
0.23573 0.10811 0.23941
0.35572 0.09965 0.23995
0.4712 0.089143 0.24483
0.58416 0.07798 0.24967
0.70568 0.074653 0.25717
0.82656 0.067299 0.26224
0.95082 0.057647 0.26857
0.077098 0.19308 0.23183
0.13453 0.20553 0.23974
0.2327 0.21382 0.24372
0.35239 0.21447 0.24261
0.46359 0.21039 0.24498
0.57866 0.20454 0.24971
0.69747 0.19507 0.25727
0.81715 0.18362 0.26375
0.9439 0.17313 0.27095
0.095415 0.29297 0.23162
0.15405 0.30744 0.24107
0.23755 0.32867 0.24635
0.3537 0.33183 0.24614
0.46204 0.33342 0.24875
0.57297 0.33365 0.25104
0.68821 0.33113 0.25528
0.8073 0.32729 0.26117
0.93675 0.32277 0.26993
0.11604 0.40347 0.23002
0.17547 0.41736 0.23941
0.25988 0.43636 0.2439
0.35622 0.44974 0.24809
0.46434 0.45246 0.25312
0.57486 0.45599 0.25589
0.68906 0.45912 0.26025
0.80691 0.46213 0.26512
0.93416 0.46425 0.27085
0.13439 0.51761 0.229
0.19359 0.52853 0.2384
0.27892 0.5445 0.24375
0.36586 0.56252 0.24966
0.46889 0.57021 0.25477
0.57935 0.57509 0.25801
0.69336 0.58013 0.26299
0.81154 0.58529 0.2688
0.93661 0.58892 0.27416
0.14903 0.6268 0.22982
0.20886 0.63665 0.23909
0.29612 0.65177 0.24414
0.38543 0.66947 0.24991
0.47339 0.68774 0.2568
0.58459 0.69196 0.26136
0.69831 0.6963 0.26554
0.81559 0.69985 0.26975
0.93854 0.70186 0.27415
0.16247 0.73833 0.23125
0.22343 0.74817 0.24015
0.31293 0.76271 0.245
0.40453 0.77952 0.25052
0.49163 0.79716 0.25625
0.58729 0.80788 0.26183
0.7013 0.80918 0.26661
0.81838 0.81205 0.26972
0.93946 0.8134 0.27382
0.17615 0.85872 0.23319
0.23904 0.8678 0.24155
0.32888 0.8801 0.24649
0.42201 0.8944 0.25129
0.51049 0.90978 0.25581
0.595 0.92743 0.26157
0.70329 0.93304 0.26745
0.8207 0.93483 0.27043
0.94046 0.93652 0.27508
0.060642 0.035088 0.35241
0.13394 0.031761 0.361
0.24433 0.017631 0.36324
0.36234 0.0043907 0.36357
0.48057 0 0.36279
0.59472 0 0.36532
0.71574 0 0.37108
0.83829 0 0.37813
0.96303 0 0.38508
0.072597 0.10966 0.34958
0.12787 0.11814 0.35872
0.23707 0.10975 0.36252
0.3562 0.099718 0.3641
0.47589 0.089489 0.36423
0.59164 0.08272 0.37059
0.71098 0.078459 0.37593
0.8327 0.069182 0.38066
0.9582 0.059833 0.38726
0.086186 0.19269 0.34682
0.14095 0.20564 0.35529
0.2336 0.21589 0.35962
0.35046 0.21354 0.36045
0.4692 0.20754 0.36161
0.58627 0.20066 0.37156
0.70321 0.19109 0.37776
0.8249 0.182 0.38197
0.9518 0.17518 0.39013
0.10461 0.29239 0.34504
0.16103 0.30671 0.35349
0.24127 0.3261 0.35846
0.35152 0.33316 0.35737
0.46658 0.33678 0.35656
0.57885 0.33619 0.36607
0.69357 0.3318 0.37513
0.81633 0.32576 0.38181
0.94658 0.31949 0.39058
0.12543 0.40434 0.34592
0.18216 0.4173 0.35428
0.26321 0.43545 0.35876
0.35678 0.45246 0.35937
0.46975 0.45534 0.3593
0.58003 0.4586 0.36672
0.69292 0.46148 0.37305
0.81296 0.46359 0.37645
0.94184 0.46372 0.38386
0.14394 0.51796 0.34733
0.20202 0.52972 0.35556
0.28323 0.5457 0.36035
0.37025 0.56409 0.36238
0.47325 0.57346 0.36348
0.58449 0.57803 0.36921
0.69725 0.58273 0.37418
0.81671 0.58678 0.37619
0.94241 0.58881 0.38103
0.15928 0.62854 0.34827
0.21912 0.63825 0.35773
0.30077 0.65252 0.36249
0.39007 0.67059 0.36473
0.47756 0.69063 0.36755
0.58915 0.69431 0.37218
0.70106 0.69771 0.37591
0.8192 0.69973 0.37671
0.94318 0.70078 0.3794
0.17281 0.74094 0.34948
0.23482 0.75005 0.35872
0.31759 0.76331 0.36418
0.4091 0.78005 0.36678
0.4973 0.79745 0.36896
0.59133 0.80889 0.37416
0.70342 0.81073 0.3768
0.82103 0.81325 0.37734
0.94361 0.81384 0.37923
0.18595 0.86129 0.35138
0.25026 0.86972 0.35985
0.33348 0.88174 0.36549
0.42628 0.89632 0.36831
0.51553 0.91168 0.37095
0.60092 0.92876 0.37694
0.70683 0.93596 0.37997
0.82242 0.9387 0.38102
0.94313 0.93901 0.38129
0.07136 0.029334 0.47274
0.13795 0.026859 0.48227
0.24756 0.016405 0.48569
0.36268 0.0065667 0.488
0.48064 0 0.48857
0.59859 0 0.49084
0.72044 0 0.49488
0.843 0 0.49817
0.96852 0 0.50097
0.082115 0.10334 0.46677
0.13587 0.11144 0.47809
0.24229 0.1051 0.48382
0.35774 0.097352 0.48791
0.47767 0.090481 0.4902
0.59751 0.087807 0.49363
0.7156 0.08365 0.4993
0.83664 0.073601 0.50386
0.96296 0.064317 0.5062
0.09539 0.18846 0.46027
0.1512 0.20036 0.47016
0.23845 0.20834 0.47763
0.35316 0.20426 0.48317
0.47424 0.20066 0.4878
0.59528 0.19738 0.49356
0.70896 0.1929 0.5013
0.82842 0.18458 0.50787
0.95719 0.17701 0.50997
0.11329 0.29237 0.45675
0.17162 0.30662 0.46526
0.24683 0.32504 0.47177
0.35193 0.33262 0.47637
0.47022 0.33269 0.4802
0.59058 0.32952 0.48636
0.70337 0.32539 0.49684
0.82125 0.3195 0.50593
0.95255 0.3148 0.50938
0.13381 0.40625 0.45766
0.19314 0.41984 0.46604
0.26909 0.43739 0.47374
0.35465 0.45541 0.47821
0.47037 0.45735 0.47683
0.58853 0.45861 0.47881
0.69954 0.45791 0.48658
0.81705 0.45708 0.4947
0.94967 0.45541 0.49973
0.1528 0.5202 0.45977
0.21285 0.53227 0.46919
0.28816 0.547 0.47641
0.37286 0.56485 0.47938
0.47358 0.5779 0.47896
0.59045 0.58127 0.48013
0.70152 0.58394 0.48554
0.8178 0.58636 0.49004
0.94764 0.58559 0.49161
0.16871 0.63124 0.46317
0.22987 0.64132 0.472
0.30517 0.65427 0.47827
0.39313 0.6721 0.48108
0.4815 0.69229 0.48307
0.59331 0.69706 0.48375
0.7037 0.69867 0.48687
0.81857 0.69975 0.48892
0.94617 0.69968 0.48841
0.18217 0.74324 0.46604
0.2453 0.75267 0.47437
0.32179 0.7652 0.48079
0.41186 0.78177 0.48376
0.50054 0.79889 0.48563
0.59425 0.81168 0.48708
0.70521 0.8132 0.48876
0.82064 0.81584 0.49006
0.94446 0.81549 0.48865
0.19497 0.86422 0.4691
0.26007 0.87257 0.47841
0.33822 0.88463 0.48486
0.4292 0.89962 0.48809
0.51852 0.91537 0.48992
0.6063 0.93269 0.49173
0.7084 0.94144 0.4943
0.82169 0.94372 0.49489
0.94218 0.94306 0.49218
0.080653 0.022893 0.58588
0.14926 0.020997 0.59581
0.25168 0.013872 0.60178
0.36534 0.0075202 0.60619
0.48311 0.0033113 0.6099
0.60237 0.0010484 0.61404
0.7233 0 0.61831
0.8448 0 0.62088
0.96922 0 0.62162
0.09164 0.095548 0.58093
0.14784 0.10405 0.59201
0.24853 0.099397 0.59926
0.36226 0.094477 0.60592
0.4814 0.090725 0.61083
0.60159 0.088516 0.61494
0.72051 0.085439 0.61962
0.83963 0.078903 0.62395
0.96366 0.070317 0.62606
0.10504 0.18158 0.57395
0.16247 0.19216 0.58483
0.2455 0.1999 0.59413
0.35957 0.19789 0.60238
0.47942 0.19558 0.60869
0.60009 0.19363 0.61255
0.71665 0.19088 0.61783
0.83347 0.18519 0.62463
0.95787 0.17885 0.62879
0.12294 0.29162 0.56866
0.18217 0.30535 0.57843
0.25452 0.32282 0.58813
0.35733 0.32957 0.59634
0.4753 0.32626 0.60203
0.59583 0.32104 0.60571
0.71207 0.31465 0.61119
0.82917 0.30951 0.61901
0.95503 0.30828 0.62546
0.1429 0.40736 0.56793
0.20432 0.42174 0.57741
0.27643 0.4388 0.58664
0.35665 0.45716 0.59376
0.47116 0.45635 0.59709
0.59051 0.45474 0.59908
0.7056 0.45193 0.60135
0.82713 0.44911 0.60848
0.95438 0.4467 0.61805
0.16234 0.52347 0.56947
0.22421 0.5361 0.5794
0.29481 0.54902 0.58794
0.37669 0.56485 0.59452
0.47332 0.57983 0.59721
0.59149 0.58317 0.59736
0.70595 0.58537 0.59885
0.82351 0.58408 0.60342
0.94964 0.58014 0.61048
0.17874 0.6355 0.57379
0.23983 0.64437 0.583
0.31103 0.65616 0.59039
0.3968 0.67301 0.59582
0.48531 0.69304 0.59848
0.59381 0.70011 0.59887
0.70581 0.69963 0.59981
0.82097 0.69921 0.6013
0.94677 0.69722 0.60541
0.19149 0.74662 0.5777
0.25462 0.75597 0.58617
0.32743 0.76858 0.59342
0.41549 0.78448 0.59801
0.50421 0.8016 0.6005
0.59372 0.81691 0.60269
0.70669 0.81795 0.60309
0.82109 0.81997 0.60402
0.94263 0.81667 0.60403
0.20408 0.86894 0.58163
0.26988 0.87813 0.59068
0.34311 0.88968 0.5991
0.4328 0.90442 0.6031
0.52206 0.92075 0.60577
0.60984 0.93851 0.60949
0.70912 0.94964 0.61144
0.82046 0.94996 0.61035
0.9393 0.94826 0.60805
0.08976 0.016631 0.69493
0.16011 0.015777 0.70443
0.25664 0.011068 0.71081
0.37038 0.0076773 0.71587
0.48749 0.005539 0.72131
0.60653 0.0035598 0.72564
0.72767 0.0018442 0.73093
0.84683 0 0.73556
0.96839 0 0.73734
0.10083 0.089324 0.68995
0.15849 0.097162 0.70105
0.25452 0.093824 0.70883
0.36912 0.092357 0.71539
0.48542 0.089873 0.7212
0.60561 0.086721 0.72502
0.72572 0.083912 0.73024
0.84322 0.079482 0.73599
0.96444 0.073874 0.73929
0.11446 0.17602 0.68408
0.17249 0.18679 0.69487
0.25304 0.1951 0.70494
0.3678 0.19349 0.71299
0.48325 0.1917 0.71903
0.60355 0.18965 0.72249
0.72275 0.18683 0.72767
0.83925 0.18261 0.73448
0.96059 0.17831 0.73943
0.13266 0.28972 0.67817
0.19276 0.30265 0.6889
0.26316 0.31898 0.69949
0.36486 0.32423 0.70759
0.47971 0.32028 0.71404
0.59936 0.31455 0.71824
0.71895 0.30751 0.72367
0.83557 0.30391 0.73133
0.95884 0.30337 0.73646
0.15221 0.40748 0.67621
0.21421 0.4217 0.68583
0.2834 0.43746 0.69456
0.36466 0.45451 0.7023
0.47543 0.45378 0.70939
0.59327 0.45142 0.71376
0.71222 0.44732 0.71992
0.83376 0.44374 0.72874
0.95809 0.44124 0.73165
0.17173 0.52648 0.67711
0.23452 0.53868 0.68606
0.30134 0.55047 0.69421
0.3845 0.56634 0.70103
0.47482 0.58067 0.70811
0.59275 0.58217 0.71073
0.70977 0.58231 0.71477
0.82946 0.57827 0.72206
0.95277 0.57433 0.72476
0.18731 0.63954 0.68007
0.24941 0.64842 0.68859
0.31703 0.65928 0.69723
0.40285 0.67457 0.70365
0.4887 0.69262 0.70852
0.59411 0.70107 0.70942
0.70755 0.70035 0.71112
0.82548 0.69897 0.71702
0.94785 0.694 0.71989
0.20002 0.75112 0.68413
0.26346 0.7603 0.69299
0.33262 0.77241 0.7014
0.41998 0.78762 0.70698
0.50742 0.80459 0.71081
0.59427 0.82356 0.71378
0.70866 0.82533 0.71619
0.82215 0.82493 0.71927
0.94121 0.81796 0.71797
0.21297 0.87327 0.68968
0.27878 0.88309 0.69832
0.34866 0.89517 0.70636
0.43674 0.90911 0.71147
0.52561 0.9254 0.71535
0.61498 0.94407 0.71938
0.7098 0.95686 0.72394
0.81869 0.95528 0.72418
0.93606 0.9529 0.72127
0.09839 0.011543 0.79967
0.16864 0.011753 0.80798
0.26113 0.0083855 0.81428
0.37699 0.0063858 0.81953
0.49191 0.0053288 0.82534
0.61049 0.0032281 0.82965
0.73309 0.0017473 0.8349
0.85039 0 0.84031
0.96975 0 0.84344
0.10964 0.084004 0.79563
0.16751 0.092115 0.8053
0.25979 0.090219 0.81244
0.37596 0.089958 0.81798
0.48985 0.087352 0.82417
0.6095 0.084209 0.82856
0.73138 0.081384 0.83387
0.84796 0.077978 0.83965
0.96714 0.0744 0.84401
0.12323 0.17156 0.7902
0.18195 0.18278 0.80022
0.25941 0.19198 0.8098
0.37413 0.19072 0.81556
0.48793 0.18831 0.82144
0.60773 0.18622 0.82638
0.72848 0.18324 0.83184
0.84503 0.17977 0.8379
0.9644 0.17608 0.84311
0.14188 0.28663 0.78479
0.20265 0.29953 0.79506
0.26986 0.31404 0.80473
0.3711 0.31932 0.81136
0.48484 0.31588 0.81751
0.60396 0.31014 0.82332
0.72495 0.30502 0.82911
0.84204 0.30249 0.83556
0.96242 0.30144 0.84106
0.16117 0.40721 0.78161
0.22321 0.42049 0.79064
0.29004 0.43468 0.79965
0.37294 0.45127 0.80772
0.48065 0.45236 0.81445
0.59734 0.44912 0.81972
0.7198 0.44468 0.8264
0.84003 0.44097 0.83396
0.95927 0.43655 0.83859
0.18006 0.52838 0.78202
0.24271 0.53995 0.78998
0.30738 0.55142 0.79836
0.39225 0.56698 0.80602
0.47919 0.5808 0.81415
0.59555 0.57998 0.81779
0.7163 0.57818 0.82291
0.83465 0.57457 0.83032
0.95238 0.56917 0.83261
0.19517 0.64269 0.78392
0.25839 0.65205 0.79181
0.32302 0.66298 0.80103
0.40955 0.67788 0.80776
0.4932 0.69399 0.81544
0.59421 0.70213 0.81832
0.71362 0.70073 0.82131
0.83139 0.69866 0.82974
0.94515 0.69113 0.82882
0.20792 0.75612 0.78784
0.27263 0.76585 0.79642
0.33808 0.77691 0.80594
0.42591 0.79164 0.81227
0.51086 0.80762 0.81892
0.5983 0.82772 0.82251
0.71287 0.83203 0.82508
0.82395 0.82706 0.82888
0.93898 0.81943 0.82876
0.22159 0.87861 0.79308
0.28724 0.88795 0.80188
0.35325 0.89911 0.81067
0.44214 0.91282 0.81632
0.52943 0.92841 0.82211
0.61921 0.9473 0.82581
0.71137 0.96074 0.82887
0.81905 0.95846 0.83001
0.93445 0.95568 0.83094
0.10676 0.0073756 0.9081
0.17639 0.007959 0.91505
0.26554 0.0049551 0.92153
0.38232 0.0033657 0.92623
0.49655 0.003244 0.93162
0.61547 0.0018318 0.9367
0.73807 0.00055583 0.94215
0.85439 0 0.94658
0.97223 0 0.95016
0.11788 0.078923 0.90413
0.17566 0.087594 0.91264
0.26442 0.087316 0.91956
0.3819 0.086871 0.92422
0.49513 0.084353 0.93019
0.61435 0.08194 0.93579
0.73672 0.07897 0.94096
0.85231 0.075807 0.94574
0.97069 0.073272 0.94977
0.13146 0.16734 0.89901
0.19099 0.17925 0.90802
0.26439 0.18921 0.91705
0.37972 0.18761 0.9217
0.49359 0.18531 0.92826
0.61249 0.18356 0.93435
0.73384 0.18011 0.93896
0.84966 0.17643 0.94351
0.96877 0.17328 0.94794
0.15045 0.28324 0.89413
0.21157 0.29593 0.90297
0.27572 0.309 0.91239
0.37684 0.31532 0.91838
0.49118 0.31178 0.92515
0.60905 0.30759 0.93177
0.73036 0.30381 0.93702
0.84685 0.30146 0.9414
0.96665 0.29992 0.9458
0.16966 0.40673 0.89113
0.23192 0.419 0.89957
0.29595 0.43246 0.90869
0.38041 0.44967 0.916
0.48686 0.45114 0.92234
0.60326 0.4469 0.92931
0.72588 0.4421 0.93545
0.84443 0.43794 0.93943
0.96234 0.43276 0.94248
0.18785 0.52931 0.89103
0.25084 0.54061 0.89847
0.31402 0.5525 0.9077
0.39964 0.56771 0.91536
0.4844 0.58218 0.9228
0.59929 0.57964 0.9279
0.72168 0.57611 0.93211
0.83859 0.57181 0.93549
0.95333 0.56425 0.93774
0.20284 0.64573 0.89223
0.26687 0.65549 0.90012
0.32948 0.66643 0.91005
0.41648 0.68089 0.91721
0.49985 0.697 0.92459
0.59547 0.70588 0.92972
0.71794 0.7022 0.93247
0.8331 0.6976 0.93355
0.94544 0.68946 0.93495
0.21612 0.76105 0.89613
0.28194 0.77114 0.904
0.34404 0.78184 0.91403
0.43276 0.79628 0.92062
0.51703 0.81147 0.9282
0.60156 0.82982 0.93374
0.7143 0.83383 0.93354
0.82587 0.82751 0.93416
0.94029 0.8221 0.93782
0.22947 0.88323 0.9008
0.29612 0.89278 0.90857
0.35964 0.90293 0.91836
0.44828 0.91593 0.92472
0.53467 0.93079 0.93136
0.62136 0.94824 0.93494
0.71108 0.96365 0.93452
0.82135 0.96115 0.9358
0.93638 0.95795 0.94024
