Golgo 13 The Professional/Cube/red.cube
LUT_3D_SIZE 5
0.014931 0.0069025 0
0.23918 0.0037325 0.01628
0.46127 0 0.026288
0.6998 0 0.033693
0.94597 0 0.040822
0.050144 0.18549 0.013162
0.2279 0.20108 0.028718
0.4546 0.19995 0.038964
0.68997 0.19091 0.041283
0.93259 0.17206 0.045586
0.091222 0.4043 0.014684
0.24786 0.43987 0.032967
0.45415 0.45131 0.046286
0.68225 0.45422 0.054018
0.92413 0.45446 0.056146
0.12777 0.62565 0.010822
0.28409 0.65216 0.027278
0.46296 0.68645 0.041674
0.68674 0.69507 0.053744
0.92855 0.70312 0.063387
0.15567 0.85454 0.0087944
0.31805 0.87821 0.024213
0.49877 0.91037 0.038192
0.69378 0.93249 0.051567
0.93167 0.93698 0.060433
0.049362 0.033032 0.22925
0.24361 0.016119 0.23652
0.47775 0 0.24188
0.70815 0 0.25443
0.95613 0 0.26591
0.077098 0.19308 0.23183
0.2327 0.21382 0.24372
0.46359 0.21039 0.24498
0.69747 0.19507 0.25727
0.9439 0.17313 0.27095
0.11604 0.40347 0.23002
0.25988 0.43636 0.2439
0.46434 0.45246 0.25312
0.68906 0.45912 0.26025
0.93416 0.46425 0.27085
0.14903 0.6268 0.22982
0.29612 0.65177 0.24414
0.47339 0.68774 0.2568
0.69831 0.6963 0.26554
0.93854 0.70186 0.27415
0.17615 0.85872 0.23319
0.32888 0.8801 0.24649
0.51049 0.90978 0.25581
0.70329 0.93304 0.26745
0.94046 0.93652 0.27508
0.07136 0.029334 0.47274
0.24756 0.016405 0.48569
0.48064 0 0.48857
0.72044 0 0.49488
0.96852 0 0.50097
0.09539 0.18846 0.46027
0.23845 0.20834 0.47763
0.47424 0.20066 0.4878
0.70896 0.1929 0.5013
0.95719 0.17701 0.50997
0.13381 0.40625 0.45766
0.26909 0.43739 0.47374
0.47037 0.45735 0.47683
0.69954 0.45791 0.48658
0.94967 0.45541 0.49973
0.16871 0.63124 0.46317
0.30517 0.65427 0.47827
0.4815 0.69229 0.48307
0.7037 0.69867 0.48687
0.94617 0.69968 0.48841
0.19497 0.86422 0.4691
0.33822 0.88463 0.48486
0.51852 0.91537 0.48992
0.7084 0.94144 0.4943
0.94218 0.94306 0.49218
0.08976 0.016631 0.69493
0.25664 0.011068 0.71081
0.48749 0.005539 0.72131
0.72767 0.0018442 0.73093
0.96839 0 0.73734
0.11446 0.17602 0.68408
0.25304 0.1951 0.70494
0.48325 0.1917 0.71903
0.72275 0.18683 0.72767
0.96059 0.17831 0.73943
0.15221 0.40748 0.67621
0.2834 0.43746 0.69456
0.47543 0.45378 0.70939
0.71222 0.44732 0.71992
0.95809 0.44124 0.73165
0.18731 0.63954 0.68007
0.31703 0.65928 0.69723
0.4887 0.69262 0.70852
0.70755 0.70035 0.71112
0.94785 0.694 0.71989
0.21297 0.87327 0.68968
0.34866 0.89517 0.70636
0.52561 0.9254 0.71535
0.7098 0.95686 0.72394
0.93606 0.9529 0.72127
0.10676 0.0073756 0.9081
0.26554 0.0049551 0.92153
0.49655 0.003244 0.93162
0.73807 0.00055583 0.94215
0.97223 0 0.95016
0.13146 0.16734 0.89901
0.26439 0.18921 0.91705
0.49359 0.18531 0.92826
0.73384 0.18011 0.93896
0.96877 0.17328 0.94794
0.16966 0.40673 0.89113
0.29595 0.43246 0.90869
0.48686 0.45114 0.92234
0.72588 0.4421 0.93545
0.96234 0.43276 0.94248
0.20284 0.64573 0.89223
0.32948 0.66643 0.91005
0.49985 0.697 0.92459
0.71794 0.7022 0.93247
0.94544 0.68946 0.93495
0.22947 0.88323 0.9008
0.35964 0.90293 0.91836
0.53467 0.93079 0.93136
0.71108 0.96365 0.93452
0.93638 0.95795 0.94024
