Golgo 13 The Professional/Cube/red.cube
LUT_3D_SIZE 33
0.014931 0.0069025 0
0.033432 0.0085229 0.0042739
0.054994 0.0092854 0.0083241
0.087157 0.0094676 0.011326
0.11848 0.0086881 0.013262
0.15002 0.0076714 0.014391
0.18069 0.0066321 0.014993
0.21048 0.0054508 0.015601
0.23918 0.0037325 0.01628
0.26703 0.0016737 0.017092
0.29438 0 0.018034
0.3216 0 0.019191
0.34886 0 0.02049
0.37638 0 0.0219
0.40418 0 0.023472
0.43253 0 0.024893
0.46127 0 0.026288
0.49034 0 0.027631
0.51961 0 0.028863
0.54903 0 0.030002
0.57867 0 0.030981
0.60851 0 0.03182
0.63866 0 0.032469
0.66914 0 0.033054
0.6998 0 0.033693
0.73065 0 0.034424
0.76123 0 0.035286
0.79161 0 0.036267
0.82182 0 0.03725
0.85215 0 0.038259
0.88289 0 0.039183
0.91438 0 0.040044
0.94597 0 0.040822
0.019562 0.030237 0.0019477
0.033974 0.034587 0.0069544
0.055218 0.035686 0.011153
0.086387 0.035437 0.013745
0.11757 0.034303 0.01528
0.14914 0.033248 0.016285
0.17979 0.031955 0.016935
0.20917 0.030112 0.017207
0.23773 0.028089 0.017653
0.2656 0.026105 0.018341
0.29301 0.024194 0.01922
0.32028 0.022394 0.020262
0.34763 0.020715 0.021465
0.37521 0.01917 0.022804
0.40309 0.017706 0.024281
0.43145 0.016202 0.025687
0.46024 0.014681 0.026983
0.48931 0.013136 0.028228
0.51855 0.011516 0.029386
0.54792 0.0097864 0.030438
0.5775 0.0079375 0.031342
0.60733 0.0060101 0.032153
0.63752 0.0040839 0.032821
0.66795 0.0023117 0.033413
0.69859 0.0005654 0.03404
0.7293 0 0.034759
0.75987 0 0.035657
0.79022 0 0.036711
0.82045 0 0.037803
0.85079 0 0.038916
0.88156 0 0.039949
0.91304 0 0.040855
0.94466 0 0.041684
0.023136 0.05053 0.004144
0.038848 0.054726 0.009087
0.055366 0.05877 0.013942
0.085516 0.058731 0.016445
0.11655 0.057806 0.017808
0.14809 0.056079 0.018297
0.17856 0.053828 0.018437
0.20789 0.051459 0.018732
0.23644 0.049053 0.018954
0.2644 0.046769 0.019466
0.29193 0.044803 0.02025
0.31931 0.043125 0.021236
0.34676 0.041671 0.022405
0.37444 0.040378 0.023692
0.40241 0.039194 0.025089
0.43073 0.038098 0.026493
0.45951 0.036868 0.027706
0.48855 0.035494 0.028866
0.51771 0.033958 0.029964
0.54699 0.032253 0.030945
0.57649 0.030438 0.03176
0.60627 0.028527 0.03249
0.63644 0.026585 0.033138
0.66692 0.02468 0.033751
0.69759 0.022952 0.034347
0.72823 0.021302 0.035061
0.7587 0.019485 0.035992
0.78899 0.017526 0.037087
0.81922 0.015499 0.038219
0.84949 0.013399 0.039328
0.88023 0.011138 0.04041
0.9118 0.0087183 0.041454
0.94344 0.0065005 0.042316
0.026536 0.071203 0.00592
0.042995 0.075915 0.01109
0.057816 0.080475 0.016081
0.08494 0.081977 0.018864
0.11557 0.081225 0.020268
0.14662 0.079037 0.020735
0.17688 0.076014 0.020595
0.20629 0.072889 0.020234
0.23502 0.069982 0.020319
0.26313 0.067634 0.020648
0.29085 0.065641 0.021336
0.31841 0.063969 0.022278
0.34603 0.062541 0.02341
0.37384 0.061402 0.024663
0.40188 0.060494 0.026016
0.43018 0.05962 0.027416
0.45892 0.058558 0.028555
0.48788 0.057383 0.029605
0.51691 0.055994 0.030599
0.54608 0.05439 0.031472
0.57548 0.052614 0.032197
0.60522 0.050691 0.03286
0.63538 0.048803 0.033461
0.66587 0.047012 0.034034
0.69657 0.045291 0.034635
0.72722 0.043593 0.035398
0.75753 0.041923 0.03635
0.78776 0.039983 0.037455
0.81794 0.037899 0.038593
0.84814 0.035711 0.039693
0.8788 0.033351 0.040764
0.91037 0.030839 0.041807
0.94211 0.028292 0.042791
0.030302 0.091797 0.0075433
0.047009 0.096432 0.012818
0.062049 0.10096 0.017932
0.084695 0.10494 0.021072
0.11447 0.10405 0.022311
0.14492 0.10191 0.022566
0.17488 0.098977 0.022317
0.20429 0.095561 0.021969
0.23329 0.09208 0.021793
0.26185 0.088944 0.022125
0.28984 0.087027 0.02266
0.3176 0.085606 0.023554
0.34536 0.084517 0.02469
0.37328 0.08364 0.025929
0.40141 0.082845 0.027234
0.42969 0.08203 0.028604
0.45837 0.080991 0.029647
0.48721 0.079823 0.030587
0.51612 0.078422 0.031461
0.54515 0.07688 0.032219
0.57445 0.075149 0.032864
0.60417 0.073374 0.03342
0.63434 0.07167 0.03393
0.66485 0.070099 0.034434
0.6955 0.068556 0.035022
0.7261 0.066833 0.035816
0.75638 0.065036 0.036788
0.78646 0.063144 0.037854
0.81653 0.061006 0.03895
0.84667 0.058702 0.040006
0.87728 0.056198 0.041044
0.90885 0.05354 0.042072
0.94062 0.050935 0.043035
0.034599 0.11275 0.0089717
0.051721 0.11808 0.01459
0.065866 0.12216 0.019636
0.08609 0.12673 0.022776
0.11342 0.12693 0.024201
0.14327 0.12509 0.024418
0.173 0.12258 0.024111
0.20231 0.11982 0.023704
0.23134 0.11702 0.023484
0.26014 0.1143 0.023668
0.28859 0.11197 0.024326
0.31675 0.11019 0.025191
0.34474 0.10898 0.026368
0.37281 0.10804 0.02767
0.40099 0.10734 0.028955
0.4292 0.10678 0.030251
0.45772 0.10593 0.031223
0.4864 0.10481 0.03203
0.51514 0.10337 0.032752
0.54405 0.10167 0.033351
0.5733 0.099838 0.033833
0.60306 0.098109 0.034231
0.63327 0.096531 0.034655
0.66383 0.095097 0.035124
0.69442 0.093711 0.03572
0.72486 0.092221 0.036483
0.75503 0.090507 0.037398
0.78494 0.088606 0.038398
0.81493 0.086354 0.039416
0.845 0.083911 0.040409
0.87553 0.081312 0.041388
0.9071 0.078601 0.042379
0.93896 0.07593 0.043346
0.0401 0.13638 0.01071
0.056565 0.14082 0.0161
0.069613 0.14412 0.020867
0.089846 0.14804 0.023754
0.11246 0.15086 0.025552
0.14181 0.14949 0.025894
0.17129 0.14764 0.025713
0.20063 0.14558 0.025483
0.22969 0.14371 0.025454
0.25863 0.14192 0.025701
0.28731 0.14044 0.026335
0.31575 0.13914 0.027455
0.344 0.13813 0.028711
0.3722 0.13735 0.029869
0.40037 0.13669 0.031106
0.42851 0.13601 0.032391
0.45683 0.13503 0.033402
0.48532 0.13365 0.034155
0.51391 0.13188 0.034784
0.54274 0.12995 0.035256
0.57195 0.1284 0.035569
0.6018 0.12686 0.035837
0.6321 0.12539 0.036184
0.66269 0.12414 0.0366
0.69318 0.12284 0.037168
0.72345 0.12132 0.037858
0.75345 0.11956 0.038639
0.7832 0.1176 0.039476
0.81298 0.11532 0.040325
0.84298 0.1127 0.041174
0.8735 0.11 0.042028
0.90511 0.10731 0.042927
0.93706 0.10468 0.043852
0.045253 0.1606 0.012036
0.061251 0.1644 0.017118
0.073639 0.16718 0.021602
0.093413 0.17085 0.024334
0.11401 0.17474 0.026237
0.14067 0.17527 0.02698
0.16997 0.17415 0.027023
0.19929 0.17294 0.026979
0.22853 0.17178 0.02722
0.25764 0.17081 0.027775
0.28652 0.17012 0.028607
0.31512 0.16963 0.029782
0.34344 0.16934 0.031238
0.37166 0.16898 0.03273
0.39972 0.16856 0.033943
0.42771 0.16786 0.035035
0.45577 0.16685 0.035895
0.48398 0.16563 0.036482
0.51234 0.16425 0.036956
0.54106 0.16274 0.037296
0.57037 0.16121 0.037573
0.60032 0.15974 0.037841
0.63072 0.15827 0.038197
0.66136 0.15675 0.038602
0.69178 0.15509 0.039172
0.72187 0.15346 0.039781
0.75165 0.15181 0.040362
0.78117 0.14995 0.040981
0.81078 0.14778 0.041614
0.84058 0.14529 0.042266
0.87115 0.14249 0.042983
0.90285 0.13966 0.043804
0.93494 0.13703 0.044689
0.050144 0.18549 0.013162
0.065611 0.18875 0.017818
0.077909 0.19135 0.021995
0.097256 0.19491 0.02461
0.11799 0.19874 0.026478
0.13992 0.20242 0.027783
0.16921 0.20189 0.028067
0.19855 0.20144 0.028295
0.2279 0.20108 0.028718
0.25716 0.20083 0.029554
0.28623 0.2007 0.030708
0.31497 0.2007 0.032082
0.34337 0.20076 0.033685
0.37147 0.20085 0.035268
0.39932 0.20077 0.0368
0.42697 0.20051 0.03804
0.4546 0.19995 0.038964
0.48257 0.19897 0.039443
0.51083 0.19773 0.039698
0.53958 0.19646 0.039849
0.56897 0.19534 0.040027
0.59898 0.19435 0.04023
0.62936 0.19338 0.040506
0.65981 0.19228 0.040846
0.68997 0.19091 0.041283
0.71982 0.18923 0.04175
0.74948 0.18726 0.042156
0.77891 0.18502 0.042559
0.80845 0.18251 0.042981
0.83814 0.17991 0.04349
0.86862 0.17714 0.044102
0.90037 0.17463 0.044781
0.93259 0.17206 0.045586
0.055093 0.21111 0.014035
0.070066 0.21403 0.01834
0.08239 0.21664 0.022332
0.10144 0.22022 0.024781
0.12221 0.22423 0.026641
0.14367 0.22852 0.028088
0.16898 0.2309 0.028985
0.19844 0.23101 0.029431
0.2279 0.23124 0.03005
0.25725 0.23156 0.031038
0.28639 0.23191 0.032403
0.31518 0.23226 0.034031
0.34354 0.23256 0.035811
0.37152 0.23277 0.037554
0.39917 0.23282 0.039216
0.4266 0.23274 0.040697
0.45398 0.23253 0.041934
0.48156 0.23216 0.042551
0.5096 0.23163 0.042826
0.53828 0.23095 0.042974
0.5677 0.23016 0.043058
0.59776 0.22923 0.043082
0.62815 0.22824 0.043114
0.65837 0.22719 0.043305
0.68832 0.22586 0.043538
0.71791 0.22441 0.043796
0.74738 0.22276 0.043965
0.77668 0.22096 0.044126
0.80603 0.21904 0.044319
0.83559 0.21693 0.044584
0.86592 0.21464 0.044954
0.89771 0.21196 0.045486
0.93008 0.20921 0.046206
0.059752 0.23722 0.014606
0.074741 0.24019 0.018673
0.087202 0.24292 0.022531
0.10601 0.24666 0.025037
0.12692 0.25089 0.026792
0.14852 0.25548 0.02833
0.16986 0.26068 0.029745
0.19884 0.26153 0.030473
0.22839 0.26214 0.031237
0.25778 0.26279 0.032327
0.28691 0.26336 0.033747
0.31563 0.26387 0.0355
0.34388 0.2643 0.037439
0.37172 0.26463 0.039323
0.39919 0.26484 0.041093
0.42643 0.26493 0.042704
0.45365 0.26489 0.044065
0.48106 0.26473 0.04519
0.50904 0.26445 0.045818
0.53757 0.26426 0.046021
0.56683 0.26396 0.046049
0.59663 0.26347 0.046004
0.62677 0.26269 0.045885
0.65679 0.26154 0.045832
0.6866 0.26012 0.045778
0.71619 0.25856 0.045731
0.7456 0.25711 0.045704
0.77484 0.2557 0.04569
0.8041 0.25422 0.045695
0.83353 0.25272 0.045767
0.86374 0.25102 0.045951
0.89527 0.24917 0.046321
0.92761 0.24703 0.046928
0.064449 0.26392 0.015063
0.07967 0.2671 0.018968
0.092329 0.27006 0.022725
0.11099 0.27401 0.025262
0.13203 0.2785 0.02706
0.1538 0.28329 0.028564
0.17592 0.28834 0.030054
0.19946 0.29273 0.031396
0.22919 0.2934 0.032293
0.25853 0.29416 0.033442
0.28753 0.29482 0.034922
0.31618 0.29535 0.036614
0.34433 0.29578 0.038528
0.37205 0.29613 0.040458
0.39938 0.29639 0.042347
0.42647 0.29658 0.044079
0.45352 0.29665 0.045592
0.48076 0.29666 0.046889
0.50866 0.2965 0.047657
0.53718 0.29628 0.048242
0.56633 0.29602 0.048525
0.59591 0.29569 0.048509
0.62575 0.29518 0.048293
0.65544 0.29445 0.048117
0.68498 0.29347 0.047941
0.71449 0.29231 0.047743
0.74395 0.29103 0.047535
0.77326 0.28976 0.047318
0.80259 0.2885 0.047094
0.83197 0.28734 0.04699
0.86207 0.28618 0.047054
0.89353 0.28487 0.047308
0.92562 0.28351 0.047809
0.069434 0.29124 0.01534
0.084887 0.29466 0.019146
0.097767 0.29784 0.02283
0.11632 0.30199 0.025446
0.13746 0.30669 0.027345
0.15935 0.31164 0.028899
0.1816 0.31675 0.0303
0.20382 0.32197 0.031885
0.22993 0.32478 0.033203
0.25937 0.32541 0.034363
0.28825 0.32609 0.035779
0.31671 0.32663 0.037438
0.34473 0.32701 0.039278
0.37234 0.32727 0.04117
0.39957 0.32743 0.043042
0.42658 0.32754 0.04478
0.45352 0.3276 0.046402
0.48066 0.32764 0.047815
0.50842 0.32756 0.048831
0.53686 0.32743 0.04949
0.56591 0.32722 0.049935
0.59537 0.32691 0.050231
0.62501 0.32652 0.050165
0.65453 0.32599 0.050002
0.68393 0.32535 0.049829
0.71334 0.32471 0.049569
0.74272 0.32398 0.049278
0.77201 0.32324 0.048981
0.80133 0.32247 0.048728
0.83075 0.32169 0.048568
0.86081 0.32092 0.048509
0.89225 0.32002 0.048596
0.92432 0.31906 0.048921
0.074698 0.31906 0.01547
0.090344 0.32271 0.0192
0.10341 0.32607 0.022845
0.1219 0.33035 0.025496
0.14307 0.33518 0.027504
0.16499 0.34017 0.029184
0.18727 0.34527 0.030597
0.20959 0.35043 0.032048
0.23094 0.35603 0.033784
0.26 0.35675 0.034976
0.28891 0.35717 0.036362
0.31723 0.3576 0.037949
0.34505 0.35792 0.039705
0.37251 0.35809 0.041505
0.39964 0.35815 0.043336
0.42658 0.35816 0.045089
0.45351 0.35816 0.046709
0.48067 0.35818 0.048188
0.50831 0.35823 0.049445
0.53667 0.35823 0.050247
0.56563 0.35812 0.05084
0.59497 0.35795 0.051174
0.62447 0.3577 0.051351
0.65394 0.35733 0.051464
0.68328 0.35699 0.051337
0.71261 0.3566 0.05114
0.74199 0.35613 0.050897
0.77133 0.35571 0.050657
0.80066 0.3554 0.050438
0.83012 0.35518 0.050267
0.86015 0.35502 0.050188
0.89147 0.35483 0.050289
0.92343 0.35448 0.050631
0.080141 0.34728 0.015414
0.095946 0.35106 0.019087
0.10917 0.35454 0.022704
0.12761 0.35888 0.025385
0.14879 0.36375 0.02747
0.17068 0.36879 0.029228
0.19293 0.37392 0.030687
0.21526 0.37901 0.032056
0.23729 0.38403 0.033633
0.26052 0.388 0.035307
0.28926 0.3883 0.036634
0.31758 0.38846 0.038141
0.34528 0.38864 0.039794
0.37261 0.38875 0.041514
0.39965 0.3888 0.043287
0.42657 0.38881 0.045063
0.45352 0.38886 0.046767
0.48075 0.38898 0.048317
0.50837 0.38917 0.049734
0.53669 0.38929 0.050705
0.56554 0.3894 0.051404
0.59475 0.38943 0.051887
0.62418 0.38933 0.052201
0.65356 0.38919 0.052356
0.68287 0.38897 0.052486
0.71217 0.38865 0.052578
0.7415 0.38837 0.052363
0.77089 0.38809 0.052167
0.80038 0.3879 0.05204
0.83001 0.3879 0.052009
0.86016 0.38808 0.052048
0.89146 0.3884 0.0522
0.92327 0.3887 0.052498
0.085675 0.37576 0.015125
0.10161 0.37963 0.01877
0.11495 0.38317 0.022379
0.13333 0.38753 0.025067
0.15452 0.3924 0.02713
0.17635 0.39739 0.028923
0.1985 0.4024 0.030473
0.22071 0.40734 0.031907
0.24271 0.41218 0.033364
0.26426 0.41696 0.035089
0.2895 0.41918 0.036634
0.31768 0.41928 0.038068
0.34546 0.4193 0.039641
0.37274 0.41945 0.041263
0.39975 0.41962 0.043007
0.42666 0.41979 0.044824
0.45371 0.41999 0.046607
0.48101 0.42028 0.048285
0.5087 0.42064 0.049789
0.53693 0.42101 0.050961
0.56572 0.42133 0.05179
0.59483 0.42157 0.052415
0.6241 0.42172 0.052845
0.65333 0.4217 0.053142
0.68255 0.4215 0.053366
0.71174 0.42121 0.053483
0.74106 0.42087 0.053557
0.77058 0.42053 0.053642
0.80024 0.42043 0.053581
0.83012 0.42053 0.053612
0.86048 0.42084 0.053758
0.89187 0.42132 0.054027
0.92361 0.42185 0.054404
0.091222 0.4043 0.014684
0.10724 0.40821 0.018293
0.12066 0.41177 0.021837
0.13898 0.41606 0.024495
0.16012 0.42079 0.026538
0.18183 0.4256 0.028366
0.20386 0.43042 0.029988
0.22593 0.43519 0.031475
0.24786 0.43987 0.032967
0.26944 0.44451 0.034541
0.28984 0.44956 0.036475
0.31782 0.44978 0.037826
0.34555 0.4499 0.039321
0.37303 0.45006 0.04087
0.40008 0.45041 0.042594
0.42705 0.45083 0.044432
0.45415 0.45131 0.046286
0.48155 0.45185 0.048062
0.5093 0.45244 0.049687
0.53746 0.45304 0.05105
0.56617 0.45358 0.051993
0.59513 0.45401 0.052741
0.62421 0.45426 0.053287
0.65324 0.45431 0.053697
0.68225 0.45422 0.054018
0.7113 0.45395 0.054246
0.74059 0.45355 0.054439
0.77022 0.45321 0.0546
0.80015 0.45303 0.054858
0.83031 0.45309 0.055168
0.86089 0.45344 0.055398
0.8924 0.45393 0.055717
0.92413 0.45446 0.056146
0.09669 0.43278 0.014094
0.11275 0.43661 0.017641
0.12617 0.44006 0.021146
0.14436 0.44415 0.023785
0.16542 0.44866 0.025788
0.18701 0.45324 0.027618
0.20896 0.45785 0.029281
0.23094 0.46248 0.03083
0.25282 0.46707 0.032361
0.27442 0.47165 0.033941
0.29563 0.47622 0.035655
0.31806 0.47982 0.037512
0.3458 0.48007 0.038928
0.37337 0.48036 0.040407
0.40069 0.48078 0.042115
0.42778 0.48146 0.043943
0.45496 0.48226 0.045824
0.48241 0.48311 0.047658
0.51016 0.48395 0.04937
0.53823 0.48479 0.050892
0.56681 0.48546 0.051945
0.59556 0.48595 0.052811
0.6244 0.48626 0.053468
0.65324 0.48639 0.053965
0.68205 0.48635 0.054393
0.71098 0.48618 0.05477
0.74017 0.48597 0.055094
0.76989 0.48575 0.055363
0.80006 0.4856 0.055754
0.83043 0.48565 0.05621
0.86127 0.48589 0.056755
0.89289 0.4863 0.057313
0.92466 0.48682 0.057817
0.10194 0.46096 0.013467
0.11797 0.46459 0.016958
0.13137 0.46785 0.020405
0.14939 0.4717 0.023008
0.17038 0.47597 0.024968
0.19192 0.48036 0.026763
0.21381 0.4848 0.028458
0.23576 0.4893 0.030058
0.25763 0.49383 0.031626
0.27929 0.49837 0.03322
0.30056 0.50294 0.034936
0.32136 0.50759 0.036794
0.3462 0.50972 0.038502
0.37387 0.51016 0.039914
0.40139 0.51073 0.041554
0.42881 0.51148 0.043371
0.45612 0.5125 0.045253
0.48358 0.5136 0.047113
0.5113 0.51468 0.048848
0.53925 0.51569 0.050415
0.56751 0.51648 0.051678
0.59603 0.51701 0.052614
0.62465 0.51734 0.053366
0.65333 0.51751 0.053962
0.68199 0.51759 0.054519
0.71085 0.51762 0.055012
0.74003 0.51763 0.055495
0.7698 0.51769 0.055955
0.80004 0.51782 0.056464
0.83057 0.51797 0.057022
0.86159 0.51819 0.057719
0.89331 0.51856 0.058502
0.92521 0.51897 0.059342
0.10687 0.48879 0.012876
0.12286 0.49218 0.016291
0.13627 0.49524 0.019665
0.15409 0.49886 0.022232
0.17507 0.50294 0.024146
0.19659 0.50714 0.025889
0.21845 0.51144 0.027602
0.24041 0.51581 0.029225
0.26232 0.52024 0.030818
0.28402 0.52473 0.032427
0.3054 0.52928 0.03413
0.32644 0.5339 0.035976
0.34677 0.5389 0.037988
0.37455 0.53949 0.039406
0.40224 0.5402 0.040952
0.42987 0.54106 0.042703
0.45747 0.54209 0.044584
0.48497 0.54331 0.046443
0.51259 0.54453 0.048169
0.54035 0.54558 0.049772
0.56826 0.54645 0.051223
0.59653 0.54703 0.052234
0.62496 0.54744 0.053049
0.65354 0.54774 0.05373
0.68215 0.54801 0.054422
0.71102 0.54832 0.05507
0.74022 0.54865 0.055705
0.77004 0.54903 0.056327
0.80032 0.54942 0.057034
0.83084 0.54981 0.05778
0.86192 0.55019 0.058536
0.89371 0.55058 0.059423
0.92564 0.55099 0.060423
0.11147 0.51631 0.012347
0.12744 0.5195 0.015686
0.14091 0.5224 0.018982
0.15853 0.52584 0.021522
0.17952 0.52974 0.023389
0.20102 0.53378 0.025082
0.22289 0.53793 0.026763
0.24488 0.54216 0.028397
0.26684 0.54648 0.029991
0.28863 0.5509 0.031599
0.31016 0.55541 0.0333
0.33138 0.56006 0.035121
0.35235 0.56483 0.037044
0.37533 0.56844 0.038845
0.40318 0.56923 0.040375
0.43099 0.57016 0.042033
0.45875 0.57122 0.043829
0.4864 0.57235 0.045666
0.51391 0.57353 0.047394
0.54146 0.57462 0.049014
0.5691 0.57552 0.050563
0.5971 0.57621 0.051734
0.62542 0.57676 0.052629
0.65397 0.57726 0.053412
0.68262 0.5778 0.054215
0.71155 0.57844 0.055009
0.7408 0.57917 0.055812
0.77059 0.57988 0.056617
0.80086 0.58052 0.057467
0.83136 0.58111 0.058386
0.86239 0.58168 0.059327
0.89416 0.58221 0.060295
0.9261 0.58272 0.061316
0.1158 0.54364 0.011891
0.13179 0.54667 0.015175
0.14535 0.54945 0.018407
0.16275 0.55272 0.020926
0.18376 0.55646 0.02274
0.20526 0.56034 0.024383
0.22717 0.56434 0.025997
0.2492 0.56845 0.027621
0.27123 0.57267 0.029204
0.29316 0.57702 0.030813
0.31487 0.58151 0.032499
0.33628 0.58615 0.03427
0.35745 0.59091 0.036175
0.37807 0.59604 0.038173
0.40417 0.59801 0.039801
0.43211 0.59897 0.041403
0.45993 0.59999 0.043096
0.48761 0.60101 0.044849
0.51516 0.60201 0.046588
0.54258 0.60306 0.048222
0.57005 0.60404 0.049799
0.59787 0.60489 0.051148
0.6261 0.6057 0.052211
0.65463 0.60646 0.053117
0.68341 0.60727 0.054026
0.71243 0.6082 0.054956
0.74173 0.60919 0.055915
0.77148 0.6102 0.056873
0.80163 0.61113 0.057847
0.83205 0.61194 0.058865
0.86302 0.61264 0.059933
0.89476 0.61329 0.061063
0.92666 0.6139 0.062214
0.11994 0.57094 0.0115
0.13596 0.57386 0.014737
0.14962 0.57655 0.017906
0.16677 0.57964 0.020419
0.18781 0.5832 0.022186
0.20934 0.58691 0.023776
0.2313 0.59077 0.025314
0.2534 0.5948 0.026914
0.27554 0.59897 0.0285
0.29764 0.60327 0.030102
0.31951 0.60772 0.03177
0.34114 0.61229 0.033506
0.36249 0.61702 0.035376
0.38366 0.62192 0.037331
0.40514 0.62673 0.039336
0.43319 0.62765 0.040831
0.461 0.62861 0.042459
0.48866 0.62955 0.044123
0.5162 0.63046 0.045807
0.5437 0.6314 0.04749
0.57112 0.63246 0.049109
0.59884 0.63356 0.050616
0.62707 0.63459 0.051801
0.65557 0.63562 0.052899
0.68442 0.63666 0.053917
0.71353 0.63773 0.054956
0.74287 0.63887 0.056018
0.7726 0.64002 0.057069
0.80264 0.64111 0.058137
0.83294 0.64209 0.059246
0.86378 0.64294 0.060397
0.89546 0.6437 0.061597
0.92726 0.64439 0.062856
0.12391 0.59825 0.011155
0.13998 0.60108 0.014341
0.15375 0.60368 0.017444
0.17062 0.60661 0.019954
0.19169 0.61003 0.021674
0.21325 0.61361 0.023217
0.2353 0.61736 0.024704
0.25754 0.6213 0.026259
0.27982 0.62542 0.027868
0.30207 0.62966 0.029479
0.32413 0.63407 0.031134
0.34594 0.63859 0.032865
0.36749 0.64328 0.034686
0.38886 0.64816 0.036626
0.41004 0.6532 0.038671
0.43415 0.65643 0.040428
0.46201 0.65734 0.041955
0.48962 0.65824 0.043578
0.51718 0.65914 0.045205
0.54472 0.66008 0.046869
0.57233 0.66112 0.048558
0.60007 0.66238 0.050151
0.62822 0.6636 0.051459
0.65671 0.66478 0.052677
0.68555 0.66595 0.053847
0.71468 0.66709 0.054982
0.74409 0.66823 0.056101
0.77381 0.66941 0.057182
0.80376 0.67056 0.0583
0.83394 0.6716 0.059457
0.86464 0.67255 0.06069
0.89623 0.6734 0.061951
0.92791 0.67412 0.06324
0.12777 0.62565 0.010822
0.14386 0.62837 0.01395
0.15776 0.63087 0.016979
0.17432 0.63365 0.019491
0.19542 0.63694 0.02117
0.21706 0.64044 0.022679
0.23923 0.64415 0.024138
0.26166 0.64807 0.025645
0.28409 0.65216 0.027278
0.30647 0.65637 0.028921
0.32872 0.66068 0.030572
0.3507 0.66515 0.032328
0.37246 0.66979 0.034151
0.39402 0.67466 0.036067
0.41535 0.67965 0.038102
0.4358 0.68511 0.040232
0.46296 0.68645 0.041674
0.49058 0.68738 0.043211
0.51814 0.6883 0.044818
0.54574 0.68924 0.046458
0.57346 0.69026 0.04811
0.60142 0.6914 0.049738
0.62947 0.69267 0.051198
0.65792 0.69389 0.052471
0.68674 0.69507 0.053744
0.71586 0.69625 0.054983
0.74525 0.69738 0.056145
0.77499 0.69848 0.057239
0.80489 0.69958 0.058352
0.83499 0.70063 0.059524
0.86558 0.70157 0.060766
0.89703 0.70242 0.062075
0.92855 0.70312 0.063387
0.13149 0.65318 0.010476
0.14762 0.65579 0.013542
0.16165 0.65819 0.016497
0.17789 0.66085 0.019025
0.19907 0.66407 0.02068
0.22084 0.66752 0.022172
0.24316 0.67122 0.023613
0.26577 0.67513 0.025081
0.28836 0.67918 0.02673
0.31086 0.68336 0.028408
0.33328 0.68765 0.030094
0.35546 0.6921 0.031874
0.37742 0.69671 0.033738
0.39918 0.70154 0.035634
0.42068 0.7065 0.037661
0.44188 0.71158 0.039701
0.4639 0.71603 0.041641
0.49156 0.71695 0.043051
0.5191 0.71788 0.044575
0.54669 0.7188 0.046206
0.57451 0.71974 0.047815
0.60253 0.72072 0.049396
0.63065 0.72178 0.050997
0.65911 0.72292 0.052291
0.68791 0.72406 0.053595
0.717 0.72517 0.054919
0.74636 0.72627 0.056137
0.77607 0.72732 0.057228
0.80599 0.72834 0.05832
0.836 0.72933 0.05946
0.86647 0.73022 0.060667
0.89778 0.73098 0.061954
0.92914 0.73158 0.063278
0.13507 0.68088 0.010124
0.15124 0.68338 0.01313
0.16545 0.68571 0.016021
0.18139 0.68828 0.018586
0.20269 0.69146 0.020232
0.22463 0.69491 0.021719
0.2471 0.69862 0.023148
0.26987 0.7025 0.024601
0.29262 0.70653 0.02622
0.31527 0.71067 0.027926
0.33783 0.71494 0.029669
0.3602 0.71934 0.031507
0.38238 0.72398 0.033404
0.40436 0.72882 0.035308
0.42603 0.73379 0.03732
0.44736 0.73885 0.039323
0.46824 0.74394 0.041374
0.49248 0.74685 0.04306
0.52001 0.74769 0.044475
0.54757 0.74851 0.046013
0.57539 0.74933 0.047594
0.60346 0.75015 0.049151
0.63162 0.75101 0.050745
0.66021 0.75193 0.052104
0.68901 0.75299 0.053418
0.71808 0.75405 0.054747
0.74742 0.75508 0.056016
0.77709 0.75606 0.057129
0.80697 0.75699 0.058198
0.83692 0.75785 0.059295
0.86727 0.75861 0.060443
0.89842 0.75923 0.061667
0.92966 0.75973 0.062941
0.13852 0.70871 0.009785
0.15476 0.71112 0.012752
0.16918 0.71342 0.015599
0.18484 0.71592 0.018218
0.20629 0.71911 0.01986
0.22841 0.72256 0.021338
0.25104 0.72624 0.022747
0.27394 0.7301 0.024176
0.29685 0.7341 0.025742
