a - Ai/luts/2x_DBZScanLite_252k.cube
LUT_3D_SIZE 33
0 0 0
0.021109 0 0.014576
0.051651 0 0.034661
0.080636 0 0.054524
0.10935 0 0.069634
0.14044 0 0.077393
0.17755 0 0.077769
0.21952 0 0.073955
0.26099 0 0.069353
0.29974 0 0.065208
0.33553 0 0.061162
0.36862 0 0.057381
0.39976 0 0.053963
0.42988 0 0.051585
0.4594 0 0.050095
0.48866 0 0.049302
0.51946 0 0.048071
0.55232 0 0.046492
0.58774 0 0.045114
0.62713 0 0.043879
0.67245 0 0.041977
0.72404 0 0.038062
0.77794 0 0.032451
0.82749 0 0.025959
0.86805 0 0.019622
0.89943 0 0.013736
0.92414 0 0.0085668
0.94411 0 0.0045102
0.96106 0 0.0016245
0.97625 0 0.00010906
0.99049 0 0.00038955
1 0 0.0022527
1 0 0.0054825
0 0.02608 0.016734
0.023199 0.026435 0.033123
0.053469 0.02723 0.053239
0.082142 0.028091 0.072612
0.11052 0.028182 0.086633
0.14116 0.027023 0.09252
0.17782 0.02493 0.089806
0.21993 0.023222 0.081629
0.26165 0.022992 0.073002
0.30024 0.024253 0.065552
0.33555 0.026174 0.059006
0.36793 0.028137 0.052891
0.39812 0.029541 0.047461
0.42714 0.029652 0.043281
0.45573 0.028331 0.040561
0.48434 0.025879 0.03916
0.5145 0.022585 0.038207
0.54722 0.018536 0.037544
0.5831 0.014491 0.037322
0.6233 0.010947 0.037662
0.66977 0.0077911 0.037355
0.72338 0.0055345 0.035184
0.77941 0.0048323 0.031466
0.82983 0.0054323 0.026717
0.86966 0.0064906 0.021594
0.90018 0.0075909 0.016499
0.92412 0.0086698 0.011924
0.94361 0.0096963 0.0081874
0.96025 0.011007 0.00549
0.97528 0.012662 0.0042129
0.98929 0.014171 0.0045855
1 0.014819 0.0060728
1 0.014569 0.0084367
0 0.060178 0.038943
0.024637 0.06 0.056161
0.055018 0.060434 0.075888
0.083594 0.061228 0.094026
0.1115 0.061143 0.10636
0.14148 0.059429 0.11038
0.17742 0.056553 0.10484
0.2196 0.053964 0.092268
0.26203 0.05301 0.078556
0.30099 0.054146 0.066957
0.33611 0.056511 0.057454
0.36804 0.059474 0.048884
0.39757 0.062367 0.041359
0.42568 0.064474 0.035494
0.45325 0.065206 0.031439
0.48113 0.064623 0.028993
0.51068 0.063188 0.027881
0.54326 0.061311 0.027622
0.57968 0.059389 0.028304
0.62046 0.057531 0.029639
0.66747 0.055801 0.03084
0.72251 0.054146 0.030534
0.77965 0.053108 0.028694
0.82988 0.05217 0.025951
0.86897 0.051144 0.02258
0.89888 0.050151 0.019036
0.92255 0.049668 0.015563
0.9419 0.049942 0.012771
0.95872 0.051269 0.010975
0.97399 0.053459 0.010415
0.98824 0.0552 0.010691
1 0.056012 0.011589
1 0.056101 0.013171
0 0.097211 0.061092
0.025499 0.095976 0.078777
0.056398 0.095178 0.097647
0.085062 0.094825 0.11416
0.11245 0.094214 0.12495
0.14156 0.092753 0.12799
0.17629 0.090355 0.12136
0.21834 0.087645 0.1054
0.26199 0.086255 0.086441
0.30198 0.087216 0.070051
0.33746 0.089884 0.056925
0.3693 0.093646 0.045705
0.39851 0.097731 0.03607
0.42588 0.10157 0.028592
0.45248 0.10451 0.02332
0.47942 0.10622 0.02002
0.50821 0.10701 0.018277
0.54068 0.1072 0.01783
0.57718 0.10689 0.018591
0.61816 0.10601 0.020366
0.66556 0.1048 0.022433
0.72118 0.10345 0.023664
0.77881 0.10189 0.023918
0.82864 0.10042 0.023314
0.86698 0.098714 0.022168
0.89646 0.096844 0.020586
0.92001 0.095558 0.018839
0.93974 0.095443 0.017546
0.95707 0.096685 0.016806
0.97275 0.097911 0.016407
0.98726 0.09867 0.016282
1 0.098955 0.016674
1 0.098884 0.017678
0 0.13299 0.077297
0.025321 0.13051 0.094638
0.056653 0.12827 0.11255
0.085629 0.12657 0.12817
0.11304 0.12534 0.13854
0.14173 0.12418 0.14174
0.17547 0.12303 0.13562
0.21689 0.12203 0.11919
0.26183 0.12162 0.096423
0.30342 0.12294 0.075101
0.33983 0.12581 0.058059
0.37194 0.13005 0.044115
0.40094 0.13485 0.032611
0.4278 0.13973 0.023691
0.45356 0.14414 0.017487
0.47965 0.14769 0.013367
0.50762 0.15053 0.011029
0.5395 0.1525 0.010027
0.57549 0.15347 0.010306
0.61621 0.15348 0.011917
0.6636 0.1527 0.014146
0.71939 0.15113 0.016062
0.77688 0.14907 0.017851
0.82667 0.14669 0.01916
0.86457 0.14418 0.019946
0.89382 0.14184 0.020253
0.91768 0.14024 0.020258
0.938 0.13975 0.020191
0.9557 0.13976 0.019853
0.97158 0.13964 0.019461
0.98643 0.13942 0.01926
1 0.13923 0.019481
1 0.13902 0.020192
0 0.16675 0.085786
0.023841 0.16366 0.10256
0.055418 0.16082 0.11956
0.084741 0.1584 0.13475
0.11271 0.1565 0.14552
0.14166 0.15524 0.14969
0.17518 0.15496 0.14503
0.21637 0.15584 0.13027
0.26233 0.15765 0.10688
0.30583 0.16051 0.082145
0.34331 0.16422 0.061382
0.37577 0.16859 0.04453
0.40452 0.17351 0.031353
0.43084 0.17859 0.02134
0.45599 0.18348 0.014323
0.48142 0.18815 0.0094337
0.50849 0.19211 0.0065005
0.5397 0.19514 0.0046216
0.57508 0.19691 0.0044238
0.6155 0.19766 0.0056974
0.66258 0.1976 0.0076079
0.71746 0.19666 0.009431
0.77381 0.19455 0.01189
0.82297 0.1911 0.014387
0.86117 0.18716 0.016412
0.89099 0.18385 0.018064
0.9155 0.18161 0.019301
0.93629 0.17988 0.019821
0.95429 0.17827 0.01976
0.97068 0.17695 0.019545
0.98592 0.17617 0.019442
0.99992 0.17574 0.019721
1 0.17561 0.020407
0 0.20115 0.087212
0.021226 0.19826 0.10312
0.053022 0.19542 0.11936
0.082707 0.19266 0.13416
0.11129 0.19027 0.14532
0.14095 0.18879 0.15051
0.17503 0.18885 0.14771
0.21667 0.19093 0.13547
0.26376 0.19482 0.11387
0.30897 0.19919 0.088581
0.34742 0.20361 0.06576
0.37994 0.20805 0.046995
0.40832 0.21255 0.032191
0.43414 0.21728 0.021241
0.45893 0.22219 0.013668
0.48387 0.22686 0.0082258
0.51027 0.2309 0.0045686
0.54089 0.23404 0.0022162
0.57598 0.23615 0.0014374
0.61632 0.23749 0.0020244
0.66308 0.23824 0.0033765
0.71686 0.23811 0.0048168
0.77093 0.23635 0.007017
0.81842 0.23265 0.0098242
0.85657 0.22822 0.012621
0.8873 0.22415 0.014976
0.9124 0.2207 0.016635
0.93369 0.2172 0.017425
0.95245 0.21414 0.01771
0.96957 0.21192 0.017759
0.98551 0.2105 0.017906
1 0.20976 0.018344
1 0.20947 0.01908
0 0.23892 0.083408
0.018418 0.23697 0.098007
0.050103 0.23467 0.11289
0.079913 0.23216 0.12646
0.10902 0.22952 0.13743
0.13974 0.22742 0.14364
0.1748 0.22725 0.14243
0.21726 0.22992 0.13217
0.26534 0.2346 0.11339
0.31176 0.23937 0.090375
0.35083 0.24348 0.068178
0.38333 0.24717 0.049476
0.41145 0.25093 0.034395
0.43712 0.25503 0.023067
0.4617 0.2593 0.014931
0.48631 0.26347 0.0089456
0.51238 0.26717 0.0047826
0.5427 0.27025 0.0020445
0.57784 0.27265 0.0010337
0.61838 0.27443 0.0012258
0.66496 0.2758 0.0019387
0.71723 0.27611 0.0027459
0.76869 0.27452 0.0043637
0.8142 0.27108 0.0067118
0.85195 0.26668 0.0093171
0.88274 0.26205 0.011574
0.90828 0.25725 0.013084
0.93022 0.25274 0.01399
0.94993 0.24888 0.014563
0.96801 0.24579 0.015022
0.98474 0.24367 0.015505
0.99989 0.24242 0.016134
1 0.24179 0.016926
0 0.28093 0.075525
0.016612 0.2803 0.088491
0.04785 0.27908 0.10148
0.077551 0.27715 0.11336
0.10683 0.2748 0.12295
0.138 0.27273 0.1285
0.17415 0.27189 0.12821
0.21768 0.27361 0.12004
0.26646 0.27772 0.10445
0.3133 0.28183 0.085141
0.35261 0.2845 0.06633
0.38526 0.28642 0.049911
0.41351 0.28881 0.036164
0.43924 0.29172 0.02542
0.46389 0.29497 0.0171
0.4886 0.29841 0.011158
0.51477 0.30184 0.0070026
0.54518 0.30495 0.0039817
0.58063 0.30761 0.0024187
0.62141 0.31 0.0021096
0.66734 0.31186 0.0024366
0.71788 0.31239 0.0028998
0.76696 0.31082 0.0040927
0.81077 0.3073 0.0058895
0.84734 0.30262 0.0076824
0.87762 0.29725 0.0088437
0.90344 0.2918 0.0097078
0.9262 0.28672 0.010487
0.94683 0.28226 0.011038
0.96585 0.27851 0.011696
0.98347 0.27581 0.012438
0.99933 0.27416 0.013337
1 0.27328 0.014357
0 0.32703 0.065235
0.01678 0.32746 0.076465
0.047411 0.32706 0.087332
0.076522 0.32581 0.097092
0.10556 0.32396 0.10459
0.13674 0.32209 0.10868
0.17318 0.32091 0.10792
0.21723 0.32134 0.10098
0.26643 0.32338 0.088668
0.31321 0.32533 0.074247
0.35267 0.32616 0.060198
0.38565 0.32654 0.047399
0.41422 0.32724 0.035973
0.44026 0.32845 0.026514
0.46528 0.33036 0.018981
0.49056 0.33284 0.013488
0.51727 0.33575 0.0096358
0.54799 0.33878 0.0066694
0.58386 0.34172 0.0047372
0.6248 0.34443 0.0039106
0.66995 0.34645 0.0039361
0.71893 0.34703 0.004266
0.76568 0.34545 0.0052438
0.80725 0.34154 0.0063063
0.84229 0.33615 0.0070959
0.8722 0.33021 0.0074187
0.89836 0.32437 0.0075501
0.92182 0.31905 0.0077678
0.94328 0.31431 0.0081205
0.96308 0.31037 0.0086297
0.98164 0.3073 0.0094141
0.9984 0.30532 0.010401
1 0.30426 0.011494
0 0.37644 0.053742
0.018674 0.3772 0.063333
0.048446 0.37689 0.072345
0.076817 0.37558 0.080067
0.10526 0.37366 0.085649
0.13618 0.37152 0.088201
0.17234 0.36992 0.086524
0.21583 0.36904 0.080292
0.26475 0.36903 0.070649
0.31136 0.36885 0.060265
0.35112 0.36783 0.05059
0.38453 0.3664 0.041716
0.41352 0.3654 0.033108
0.44002 0.36523 0.025374
0.46576 0.36603 0.019
0.49179 0.36753 0.014433
0.51931 0.36952 0.011089
0.55064 0.37206 0.0084032
0.58702 0.37486 0.0064922
0.62805 0.37756 0.0054916
0.67255 0.37958 0.0054144
0.72005 0.37994 0.0058196
0.76427 0.37781 0.0066532
0.80324 0.3734 0.0071236
0.83702 0.36765 0.0072273
0.86669 0.36157 0.0068217
0.89316 0.35564 0.0063425
0.91728 0.35013 0.0061254
0.93948 0.34528 0.0062203
0.96015 0.34133 0.0066209
0.97948 0.33841 0.0072457
0.99707 0.33638 0.0081356
1 0.33515 0.009151
0 0.4254 0.04125
0.020824 0.42534 0.049769
0.049665 0.42444 0.057218
0.077257 0.42269 0.063375
0.10511 0.4203 0.06753
0.13558 0.41779 0.068928
0.1711 0.4156 0.066822
0.2135 0.41386 0.061193
0.26157 0.41264 0.053441
0.30819 0.41101 0.045977
0.34837 0.40856 0.039426
0.38211 0.40574 0.033363
0.41159 0.40329 0.027425
0.43892 0.40187 0.021795
0.46556 0.40174 0.016897
0.49228 0.40248 0.013254
0.52047 0.40378 0.010535
0.55249 0.40554 0.0083275
0.58954 0.40772 0.0066483
0.63084 0.41001 0.0058188
0.67478 0.41159 0.0060229
0.72039 0.4111 0.0064399
0.76197 0.40808 0.0069872
0.799 0.40329 0.0072616
0.83187 0.39755 0.007305
0.86139 0.39155 0.0068784
0.88809 0.38584 0.006139
0.91271 0.38059 0.0054617
0.9356 0.37591 0.005211
0.95715 0.37199 0.0054248
0.97733 0.3691 0.0060639
0.99563 0.36721 0.0069426
1 0.36606 0.0079258
0 0.47042 0.02782
0.02156 0.46915 0.03552
0.049912 0.46723 0.0422
0.077075 0.46482 0.047469
0.10457 0.46217 0.050769
0.13458 0.45963 0.051505
0.1693 0.45735 0.049492
0.21062 0.45538 0.044727
0.25773 0.45376 0.038153
0.30413 0.45148 0.032053
0.34457 0.44803 0.027472
0.37883 0.44412 0.023632
0.40896 0.44072 0.019837
0.43716 0.43833 0.016119
0.46464 0.43716 0.012706
0.49215 0.43695 0.010109
0.52106 0.43766 0.0081197
0.55366 0.4391 0.0062814
0.59134 0.44109 0.0047349
0.63282 0.44299 0.0041565
0.67573 0.44345 0.0046636
0.71893 0.44164 0.0052337
0.7586 0.43771 0.0058787
0.79453 0.43245 0.0063419
0.82685 0.42664 0.0066153
0.85635 0.42078 0.0065585
0.88342 0.41532 0.0061942
0.90848 0.41046 0.005614
0.93195 0.40623 0.0052067
0.95413 0.40273 0.0052177
0.97512 0.40001 0.0056819
0.99422 0.39814 0.0065026
1 0.39702 0.0075478
0 0.51153 0.014231
0.020525 0.50906 0.021525
0.048709 0.50619 0.027764
0.076007 0.50322 0.032558
0.10361 0.50042 0.035413
0.13351 0.49801 0.035923
0.16761 0.49608 0.034004
0.20801 0.49459 0.029822
0.25384 0.49317 0.024132
0.29933 0.49054 0.018991
0.33987 0.4864 0.015524
0.37482 0.48166 0.013124
0.40575 0.47746 0.011019
0.4347 0.47422 0.0090087
0.46303 0.47209 0.0070332
0.49143 0.47109 0.0054048
0.52126 0.47133 0.004027
0.55473 0.47258 0.0026697
0.5931 0.47441 0.0014095
0.63394 0.47582 0.00071483
0.67469 0.47546 0.00089385
0.71561 0.47275 0.0016778
0.75411 0.46801 0.0027838
0.78942 0.4622 0.0038992
0.82168 0.45587 0.0048534
0.85151 0.44976 0.0054121
0.87913 0.44433 0.0056282
0.9047 0.43976 0.0055914
0.92866 0.4359 0.0055485
0.95149 0.43273 0.0056489
0.97314 0.43039 0.0060985
0.99295 0.42883 0.0069039
1 0.42793 0.0079422
0 0.54975 0.001352
0.017949 0.54646 0.0081696
0.046382 0.54299 0.013948
0.074179 0.53961 0.018401
0.10246 0.53665 0.021076
0.13267 0.53444 0.021518
0.16668 0.53303 0.019733
0.20617 0.53219 0.015803
0.25029 0.53099 0.010672
0.2943 0.52842 0.0063862
0.33448 0.52418 0.0036507
0.37 0.51888 0.0023552
0.40181 0.51385 0.0016019
0.43163 0.50984 0.0010085
0.46075 0.50696 0.00029166
0.49025 0.50528 0
0.52133 0.50513 0
0.55584 0.50626 0
0.59423 0.50761 0
0.63383 0.50797 0
0.67268 0.50692 0
0.71158 0.50412 0
0.74867 0.49944 0
0.78339 0.49322 0
0.81585 0.48617 0.0014907
0.84635 0.47937 0.0030644
0.87484 0.47339 0.0041114
0.90122 0.46853 0.0047931
0.92578 0.46479 0.0053379
0.94918 0.4619 0.0059758
0.97156 0.45982 0.0068146
0.99202 0.45857 0.0078428
1 0.45791 0.00909
0 0.58549 0
0.014589 0.58184 0
0.043448 0.5781 0.00091941
0.072053 0.57465 0.0049905
0.10129 0.57185 0.0073166
0.13237 0.56999 0.0077308
0.16658 0.56916 0.0059041
0.20509 0.56879 0.0020603
0.24714 0.56785 0
0.28948 0.56531 0
0.32898 0.56117 0
0.36461 0.55593 0
0.39719 0.5506 0
0.42797 0.54592 0
0.45804 0.54245 0
0.48872 0.54037 0
0.52125 0.53979 0
0.55648 0.54022 0
0.59435 0.54061 0
0.63267 0.54017 0
0.67001 0.53859 0
0.70714 0.53539 0
0.74304 0.53051 0
0.77703 0.52443 0
0.80932 0.51747 0
0.84038 0.5102 0
0.86997 0.50335 0.0012587
0.89748 0.4977 0.0029098
0.923 0.4934 0.0043001
0.94719 0.49039 0.0056334
0.97031 0.48842 0.0071389
0.99156 0.48735 0.008786
1 0.48703 0.010522
0 0.61882 0
0.010983 0.61513 0
0.040494 0.61154 0
0.070148 0.60843 0
0.10067 0.60617 0
0.13273 0.60498 0
0.16717 0.60467 0
0.20463 0.60468 0
0.24463 0.60407 0
0.28499 0.60187 0
0.32365 0.59792 0
0.35917 0.59302 0
0.39231 0.58786 0
0.42396 0.58317 0
0.45514 0.57946 0
0.48703 0.57702 0
0.52052 0.57573 0
0.55597 0.57487 0
0.59343 0.57412 0
0.63072 0.57282 0
0.66669 0.57044 0
0.70223 0.56668 0
0.73702 0.56165 0
0.77056 0.55539 0
0.80281 0.54846 0
0.83405 0.54139 0
0.86425 0.5344 0
0.89294 0.52795 0
0.91973 0.52271 0.0022159
0.94505 0.519 0.00452
0.96924 0.51675 0.0068763
0.99151 0.51574 0.0092966
1 0.51564 0.01177
0 0.65011 0
0.0075163 0.64671 0
0.037885 0.64351 0
0.06888 0.64096 0
0.10083 0.63947 0
0.13376 0.63896 0
0.16823 0.6392 0
0.20461 0.63961 0
0.2427 0.6394 0
0.28118 0.63769 0
0.31876 0.6344 0
0.35415 0.63008 0
0.38762 0.62574 0
0.42006 0.62157 0
0.45224 0.61804 0
0.48508 0.61533 0
0.51879 0.61311 0
0.55401 0.61097 0
0.59125 0.60867 0
0.6278 0.60602 0
0.6626 0.6026 0
0.6968 0.59815 0
0.7308 0.59275 0
0.76383 0.58647 0
0.79606 0.57957 0
0.82761 0.57241 0
0.85829 0.5654 0
0.88774 0.55886 0
0.91565 0.55318 0
0.94233 0.54874 0.0024822
0.96793 0.54596 0.0059122
0.99156 0.54474 0.0093343
1 0.54468 0.012677
0 0.68007 0
0.0044257 0.67713 0
0.035883 0.67453 0
0.068418 0.67276 0
0.10164 0.67189 0
0.13536 0.67187 0
0.16974 0.67251 0
0.20506 0.67333 0
0.24149 0.67368 0
0.2783 0.67282 0
0.31471 0.67049 0
0.34992 0.66722 0
0.38379 0.66397 0
0.41665 0.66095 0
0.44945 0.65795 0
0.48259 0.65486 0
0.51625 0.65177 0
0.55083 0.64859 0
0.58747 0.64483 0
0.62351 0.64045 0
0.6576 0.63559 0
0.69077 0.63019 0
0.72421 0.62419 0
0.75686 0.61768 0
0.78908 0.61077 0
0.82089 0.60367 0
0.85199 0.59666 0
0.88223 0.58994 0
0.91121 0.58419 0
0.93904 0.57982 0
0.96612 0.57696 0.0042133
0.99137 0.57563 0.008621
1 0.57536 0.012782
0 0.70945 0
0.0019641 0.70717 0
0.034712 0.70536 0
0.06869 0.70431 0
0.10303 0.70402 0
0.13739 0.70443 0
0.17161 0.70538 0
0.2061 0.70651 0
0.24122 0.70745 0
0.27659 0.70744 0
0.31197 0.70631 0
0.34688 0.70445 0
0.38101 0.70253 0
0.41415 0.70068 0
0.44669 0.69829 0
0.47951 0.69507 0
0.51284 0.69129 0
0.54674 0.68698 0
0.58232 0.68198 0
0.61774 0.6762 0
0.65142 0.66985 0
0.6839 0.66325 0
0.71707 0.65633 0
0.7496 0.64929 0
0.78178 0.64223 0
0.81392 0.63507 0
0.84553 0.62817 0
0.87639 0.62175 0
0.90652 0.61614 0
0.93583 0.61208 0
0.96439 0.60991 0.0022926
0.99084 0.60898 0.0072532
1 0.6086 0.011847
0 0.73893 0
0.00049228 0.73758 0
0.034334 0.73653 0
0.069604 0.73605 0
0.10501 0.73634 0
0.13988 0.73724 0
0.17403 0.73856 0
0.20781 0.74006 0
0.24185 0.74139 0
0.27613 0.74213 0
0.31065 0.74217 0
0.34524 0.74166 0
0.37944 0.74105 0
0.41229 0.74001 0
0.44403 0.7381 0
0.47602 0.73493 0
0.50858 0.73069 0
0.54164 0.72553 0
0.57609 0.71954 0
0.61072 0.71273 0
0.64403 0.70522 0
0.67618 0.69743 0
0.70916 0.68953 0
0.74183 0.6818 0
0.77425 0.67435 0
0.80673 0.66718 0
0.839 0.6605 0
0.87071 0.65457 0
0.90203 0.64975 0
0.93293 0.64662 0
0.96284 0.64491 0.00024533
0.99003 0.64395 0.0055005
1 0.64328 0.010219
0 0.76915 0
2.8759e-005 0.76872 0
0.034773 0.76841 0
0.071232 0.76859 0
0.10773 0.76945 0
0.14304 0.77092 0
0.177 0.77269 0
0.21011 0.77449 0
0.24325 0.77617 0
0.27673 0.7775 0
0.31055 0.77838 0
0.34487 0.77895 0
0.37867 0.77906 0
0.41071 0.77832 0
0.44153 0.77653 0
0.47224 0.77359 0
0.50357 0.76913 0
0.53554 0.76343 0
0.56886 0.75679 0
0.60274 0.74931 0
0.6356 0.74112 0
0.66768 0.73253 0
0.70053 0.72385 0
0.73355 0.71556 0
0.76646 0.70788 0
0.79945 0.7009 0
0.83264 0.69463 0
0.8655 0.68949 0
0.89817 0.68574 0
0.93044 0.68331 0
0.96125 0.68173 0
0.9887 0.68065 0.0031847
1 0.67969 0.0078722
0 0.80066 0
0.00070749 0.80112 0
0.036162 0.80154 0
0.073694 0.80237 0
0.1111 0.80378 0
0.14672 0.80569 0
0.1804 0.80777 0
0.21284 0.8098 0
0.24523 0.81181 0
0.27807 0.81355 0
0.31146 0.8151 0
0.3451 0.81615 0
0.37785 0.81607 0
0.40895 0.81497 0
0.43881 0.813 0
0.46829 0.80999 0
0.49802 0.8057 0
0.52864 0.80002 0
0.56064 0.79319 0
0.59385 0.7854 0
0.62638 0.77696 0
0.6584 0.76818 0
0.69123 0.75926 0
0.72499 0.75072 0
0.75874 0.74314 0
0.79257 0.73673 0
0.82671 0.73135 0
0.86103 0.7272 0
0.89507 0.72442 0
0.92824 0.7225 0
0.95951 0.72086 0
0.98708 0.71947 0.00088776
1 0.71811 0.0053847
0 0.83345 0
0.0025641 0.83471 0
0.038568 0.83581 0
0.077001 0.83721 0
0.11495 0.83902 0
0.15057 0.84101 0
0.18379 0.84301 0
0.21572 0.84506 0
0.24747 0.8472 0
0.27992 0.84933 0
0.31272 0.85108 0
0.34512 0.85178 0
0.37645 0.85118 0
0.40653 0.84948 0
0.43549 0.847 0
0.4639 0.84377 0
0.49226 0.83969 0
0.52126 0.83452 0
0.55172 0.82806 0
0.58414 0.82058 0
0.6166 0.81245 0
0.64876 0.80407 0
0.68165 0.79566 0
0.71621 0.78742 0
0.75123 0.78 0
0.78653 0.77407 0
0.82194 0.76987 0
0.85751 0.76703 0
0.89264 0.765 0
0.92623 0.76337 0
0.95762 0.76177 0
0.98504 0.76014 0
1 0.75853 0.0033133
0 0.8667 0
0.0056251 0.8686 0
0.042148 0.87025 0
0.081071 0.87202 0
0.11894 0.87384 0
0.15409 0.87552 0
0.18679 0.8772 0
0.21836 0.87898 0
0.24984 0.88105 0
0.28182 0.8831 0
0.31351 0.88426 0
0.34442 0.88417 0
0.37436 0.88299 0
0.40333 0.88088 0
0.43144 0.87814 0
0.459 0.87488 0
0.4863 0.87102 0
0.51397 0.86645 0
0.54278 0.86101 0
0.57416 0.85445 0
0.6065 0.84708 0
0.63899 0.83944 0
0.67216 0.83185 0
0.70762 0.82444 0
0.74406 0.81779 0
0.78133 0.8125 0
0.81853 0.80909 0
0.85506 0.8071 0
0.89069 0.8056 0
0.92457 0.80438 0
0.95578 0.80315 0
0.98283 0.80173 0
1 0.80013 0.0014708
0 0.89892 0
0.0098216 0.90123 0
0.046708 0.90314 0
0.085466 0.9048 0
0.1226 0.90621 0
0.15706 0.90737 0
0.18942 0.90859 0
0.22085 0.91022 0
0.25207 0.91203 0
0.28307 0.91326 0
0.31342 0.91348 0
0.34297 0.91268 0
0.37179 0.91105 0
0.3998 0.90886 0
0.42712 0.90618 0
0.45394 0.90311 0
0.48042 0.89968 0
0.50703 0.89579 0
0.53451 0.89126 0
0.56446 0.8858 0
0.59639 0.87952 0
0.62936 0.8729 0
0.66343 0.86636 0
0.6998 0.86015 0
0.73784 0.85481 0
0.77711 0.85072 0
0.81613 0.84792 0
0.85365 0.84624 0
0.88956 0.84537 0
0.92354 0.84474 0
0.95449 0.84394 0
0.98091 0.84282 0
1 0.84139 0
0 0.92833 0
0.0148 0.93072 0
0.051692 0.93241 0
0.089803 0.93359 0
0.12602 0.9345 0
0.15982 0.93532 0
0.19212 0.9364 0
0.22341 0.93777 0
0.25373 0.93887 0
0.28354 0.9393 0
0.31268 0.93894 0
0.3412 0.93777 0
0.36908 0.93599 0
0.39633 0.93375 0
0.42294 0.9312 0
0.4491 0.9284 0
0.47492 0.92535 0
0.50069 0.92205 0
0.52713 0.91841 0
0.55574 0.91419 0
0.58697 0.90923 0
0.62037 0.90386 0
0.65554 0.89864 0
0.69313 0.89389 0
0.73315 0.89004 0
0.77407 0.88718 0
0.81437 0.88508 0
0.85315 0.88378 0
0.88974 0.88333 0
0.92363 0.88328 0
0.95398 0.88304 0
0.97957 0.8823 0
1 0.88112 0
0 0.95363 0
0.020168 0.9557 0
0.056647 0.9571 0
0.094092 0.95787 0
0.12975 0.95852 0
0.16329 0.95942 0
0.19533 0.96059 0
0.22563 0.96154 0
0.25486 0.96201 0
