a - Ai/luts/2x_DBZScanLite_252k.cube
LUT_3D_SIZE 9
0 0 0
0.10935 0 0.069634
0.26099 0 0.069353
0.39976 0 0.053963
0.51946 0 0.048071
0.67245 0 0.041977
0.86805 0 0.019622
0.96106 0 0.0016245
1 0 0.0054825
0 0.13299 0.077297
0.11304 0.12534 0.13854
0.26183 0.12162 0.096423
0.40094 0.13485 0.032611
0.50762 0.15053 0.011029
0.6636 0.1527 0.014146
0.86457 0.14418 0.019946
0.9557 0.13976 0.019853
1 0.13902 0.020192
0 0.28093 0.075525
0.10683 0.2748 0.12295
0.26646 0.27772 0.10445
0.41351 0.28881 0.036164
0.51477 0.30184 0.0070026
0.66734 0.31186 0.0024366
0.84734 0.30262 0.0076824
0.94683 0.28226 0.011038
1 0.27328 0.014357
0 0.47042 0.02782
0.10457 0.46217 0.050769
0.25773 0.45376 0.038153
0.40896 0.44072 0.019837
0.52106 0.43766 0.0081197
0.67573 0.44345 0.0046636
0.82685 0.42664 0.0066153
0.93195 0.40623 0.0052067
1 0.39702 0.0075478
0 0.61882 0
0.10067 0.60617 0
0.24463 0.60407 0
0.39231 0.58786 0
0.52052 0.57573 0
0.66669 0.57044 0
0.80281 0.54846 0
0.91973 0.52271 0.0022159
1 0.51564 0.01177
0 0.73893 0
0.10501 0.73634 0
0.24185 0.74139 0
0.37944 0.74105 0
0.50858 0.73069 0
0.64403 0.70522 0
0.77425 0.67435 0
0.90203 0.64975 0
1 0.64328 0.010219
0 0.8667 0
0.11894 0.87384 0
0.24984 0.88105 0
0.37436 0.88299 0
0.4863 0.87102 0
0.6065 0.84708 0
0.74406 0.81779 0
0.89069 0.8056 0
1 0.80013 0.0014708
0 0.9748 0
0.13448 0.97899 0
0.25574 0.98222 0
0.36428 0.97797 0
0.46614 0.96993 0
0.57428 0.96122 0
0.72711 0.95445 0
0.89242 0.95219 0
0.99986 0.95265 0
0.0039933 1 0
0.14865 1 0
0.25789 1 0
0.36079 1 0
0.46139 1 0
0.57321 1 0
0.72449 1 0
0.89292 1 0
0.99793 1 0
0 0 0
0.10741 0 0.045581
0.26116 0 0.048304
0.39958 0.0014827 0.03677
0.51972 0 0.030549
0.67309 0 0.021855
0.86869 0 0.0034547
0.96161 0 0
1 0 0
0 0.12992 0.051215
0.1113 0.12209 0.11578
0.26665 0.11964 0.067531
0.40225 0.13664 0.01639
0.50803 0.15178 0
0.6633 0.15358 0
0.86441 0.14481 0.0062304
0.95606 0.13982 0.0086014
1 0.13929 0.0088834
0 0.28351 0.056199
0.10463 0.28032 0.10121
0.27264 0.28309 0.074222
0.41489 0.28935 0.018255
0.51552 0.30109 0
0.66776 0.31126 0
0.8471 0.30246 0
0.94679 0.28293 0.0020534
1 0.27387 0.0053152
0 0.47375 0.011482
0.10491 0.46645 0.033652
0.26109 0.4587 0.018637
0.40959 0.4437 0.0038714
0.5216 0.43912 0
0.67583 0.44426 0
0.82709 0.42669 0
0.93212 0.40579 0
1 0.39673 0
0 0.62146 0
0.10104 0.60979 0
0.24674 0.60891 0
0.39175 0.5919 0
0.52068 0.57837 0
0.66684 0.57265 0
0.80182 0.55052 0
0.91897 0.52349 0
1 0.51499 0.0041371
0 0.7401 0
0.10563 0.73846 0
0.24357 0.74461 0
0.37876 0.74384 0
0.50835 0.73423 0
0.64353 0.70769 0
0.77291 0.67622 0
0.89983 0.65122 0
1 0.64396 0.0028663
0 0.86647 0
0.1201 0.87465 0
0.25082 0.88196 0
0.37488 0.88456 0
0.48643 0.87277 0
0.60499 0.84875 0
0.74185 0.8189 0
0.88832 0.80608 0
1 0.80112 0
0 0.97534 0
0.13505 0.9791 0
0.25669 0.98231 0
0.36522 0.97834 0
0.46673 0.97022 0
0.57316 0.96149 0
0.72395 0.9549 0
0.89015 0.95306 0
0.99844 0.95384 0
0.0048492 1 0
0.14815 1 0
0.25873 1 0
0.36163 1 0
0.46174 1 0
0.57185 1 0
0.72165 1 0
0.89089 1 0
0.99722 1 0
0.0073822 0.033026 0.19894
0.12456 0.03958 0.22279
0.24498 0.020614 0.22486
0.39471 0 0.18957
0.51949 0 0.16978
0.6762 0 0.18
0.84738 0 0.1661
0.94972 0 0.11613
1 0 0.11939
0.026249 0.13593 0.2161
0.1285 0.14159 0.23731
0.22615 0.14021 0.23965
0.3751 0.13234 0.1943
0.50695 0.13246 0.13228
0.67483 0.13359 0.14057
0.858 0.12993 0.14134
0.94972 0.13237 0.119
1 0.13101 0.11971
0.026246 0.25309 0.20355
0.12987 0.244 0.23781
0.23612 0.24863 0.24377
0.3862 0.27982 0.21328
0.50783 0.30379 0.14043
0.66288 0.31073 0.11132
0.84219 0.29857 0.097136
0.9456 0.27339 0.086547
1 0.26592 0.089668
0.010311 0.43972 0.1476
0.11252 0.41704 0.17881
0.24263 0.3941 0.20549
0.40058 0.3945 0.19793
0.51649 0.41263 0.15312
0.66654 0.42905 0.11582
0.8193 0.42304 0.085854
0.92999 0.40757 0.071606
1 0.39798 0.073767
0 0.59237 0.090332
0.1026 0.57695 0.1095
0.22714 0.56356 0.1174
0.39179 0.54463 0.12015
0.51765 0.5407 0.11626
0.6565 0.5452 0.093099
0.80414 0.53065 0.073113
0.92308 0.51714 0.066952
1 0.5195 0.073425
0 0.72391 0.039738
0.10341 0.71204 0.055001
0.22711 0.70592 0.059201
0.38496 0.70345 0.058637
0.50883 0.69491 0.062303
0.63803 0.68453 0.057243
0.78015 0.66031 0.04893
0.91602 0.64049 0.055823
1 0.63787 0.070515
0 0.86667 0.015677
0.11116 0.86259 0.0072846
0.24055 0.86109 0.0002686
0.37464 0.85256 0
0.49055 0.84059 0.0056534
0.61606 0.82621 0.019883
0.75738 0.81166 0.033933
0.90514 0.80388 0.05069
1 0.79398 0.06113
0 0.97307 0.00981
0.12967 0.97801 0
0.2461 0.97843 0
0.35717 0.96996 0
0.46562 0.96076 0
0.59104 0.953 0
0.75456 0.9473 0.021207
0.90449 0.9458 0.04949
1 0.94353 0.052653
0 1 0.0077531
0.14628 1 0
0.24872 1 0
0.35301 1 0
0.46189 1 0
0.58883 1 0
0.74971 1 0.010282
0.90451 1 0.043262
1 1 0.044909
0.055575 0.032579 0.35861
0.14969 0.028072 0.37716
0.2333 0.011258 0.39654
0.34792 0 0.40451
0.49194 0 0.39601
0.65908 0 0.37946
0.80029 0 0.35461
0.9157 0 0.34974
1 0 0.35819
0.061201 0.13054 0.34847
0.14439 0.13353 0.35346
0.21481 0.13299 0.36222
0.32887 0.13174 0.37051
0.4801 0.13226 0.37849
0.64491 0.11163 0.38472
0.80652 0.093344 0.36024
0.91904 0.085482 0.33777
1 0.088833 0.33877
0.064945 0.23806 0.35039
0.15112 0.23926 0.34636
0.22877 0.25445 0.35222
0.35097 0.28333 0.3523
0.47472 0.30065 0.35351
0.61813 0.29688 0.36367
0.78539 0.27157 0.35844
0.91328 0.2404 0.33512
1 0.23429 0.3254
0.045265 0.37264 0.35632
0.15343 0.35264 0.35342
0.25511 0.36034 0.36347
0.38303 0.38333 0.36043
0.49248 0.40621 0.35938
0.61074 0.4164 0.35797
0.75792 0.41106 0.3482
0.89563 0.39081 0.32974
1 0.38153 0.32185
0.0072729 0.52756 0.34761
0.13408 0.49453 0.35028
0.26644 0.48033 0.36648
0.40661 0.48653 0.37287
0.50743 0.49751 0.37339
0.61873 0.50872 0.36927
0.75094 0.50672 0.35416
0.88988 0.50698 0.32935
1 0.51171 0.31219
0 0.68413 0.31211
0.10398 0.65789 0.31835
0.25588 0.63533 0.3439
0.40697 0.61335 0.36888
0.5176 0.61179 0.38188
0.62221 0.61489 0.382
0.75026 0.61367 0.36625
0.89518 0.62058 0.33652
1 0.62829 0.31457
0 0.8297 0.28996
0.08672 0.81449 0.29512
0.23316 0.79726 0.2958
0.38138 0.77283 0.32499
0.51305 0.74948 0.36858
0.62477 0.74529 0.3837
0.75215 0.75149 0.36892
0.89496 0.75545 0.33264
1 0.75581 0.3099
0 0.95192 0.26525
0.069434 0.94707 0.27137
0.2108 0.93208 0.25673
0.36018 0.91472 0.26678
0.50093 0.9079 0.31656
0.63354 0.90972 0.35794
0.76039 0.91567 0.3426
0.89068 0.91618 0.2973
1 0.90622 0.27226
0 1 0.26273
0.067527 1 0.26538
0.20126 1 0.24292
0.35228 1 0.24796
0.50229 1 0.2927
0.63888 1 0.33419
0.76965 1 0.32435
0.88684 1 0.27277
0.99239 0.99664 0.24284
0.059196 0.0026242 0.50521
0.175 0 0.49721
0.26759 0 0.51684
0.37018 0 0.55771
0.49244 0 0.59221
0.61655 0 0.58421
0.77227 0 0.55079
0.92651 0 0.543
1 0 0.55003
0.036449 0.12469 0.48262
0.14694 0.10575 0.46051
0.24359 0.087732 0.46854
0.36589 0.079605 0.51188
0.49756 0.078199 0.54898
0.63909 0.085587 0.54575
0.78756 0.092028 0.53252
0.9218 0.092103 0.54786
1 0.079584 0.56093
0.017789 0.25186 0.48881
0.1377 0.24573 0.44951
0.24619 0.26356 0.4424
0.37263 0.2795 0.46269
0.50167 0.28174 0.49245
0.63514 0.26208 0.50847
0.77695 0.23724 0.50806
0.91046 0.22069 0.52979
1 0.22276 0.55011
0.0012116 0.3819 0.51086
0.14733 0.37396 0.46977
0.26927 0.38579 0.46072
0.39369 0.40642 0.4681
0.49745 0.41844 0.47943
0.6089 0.41704 0.48922
0.74719 0.39691 0.48595
0.89317 0.36601 0.49491
1 0.35359 0.50717
0 0.51434 0.5188
0.14057 0.49737 0.49747
0.28128 0.49067 0.49439
0.4107 0.50003 0.48759
0.51003 0.51656 0.49037
0.60944 0.53011 0.49427
0.72966 0.53115 0.48741
0.86528 0.51777 0.48293
1 0.49525 0.48018
0 0.63839 0.509
0.1188 0.62679 0.50673
0.27499 0.60769 0.51065
0.42252 0.60378 0.50108
0.52745 0.61687 0.50295
0.62066 0.63189 0.50837
0.73007 0.64394 0.50509
0.85324 0.64145 0.49261
0.9896 0.63201 0.47578
0 0.78544 0.47645
0.1003 0.77793 0.48304
0.2485 0.75731 0.49405
0.42083 0.73444 0.49911
0.54088 0.73277 0.50442
0.63429 0.74338 0.51549
0.73476 0.7506 0.51717
0.85079 0.75461 0.50503
0.97702 0.75139 0.48153
0 0.93662 0.43596
0.078553 0.92865 0.44596
0.22079 0.91144 0.46484
0.39286 0.88944 0.48129
0.54952 0.88039 0.49525
0.64646 0.88762 0.50549
0.74027 0.89074 0.511
0.84866 0.88473 0.50502
0.96768 0.87737 0.48665
0 1 0.43078
0.072812 1 0.43941
0.20651 1 0.45659
0.37554 1 0.47604
0.55148 0.98627 0.48755
0.65733 0.98892 0.49757
0.74366 0.99032 0.50252
0.84429 0.97973 0.49727
0.95955 0.96809 0.48448
0.022217 0 0.71348
0.16057 0 0.67745
0.2903 0 0.67004
0.40877 0 0.70195
0.50701 0 0.73536
0.60574 0 0.75474
0.76197 0 0.76268
0.92771 0 0.76489
1 0 0.75335
0 0.1063 0.68515
0.12252 0.073147 0.63111
0.27206 0.05293 0.62921
0.40772 0.042114 0.67445
0.51704 0.040693 0.71387
0.62682 0.048768 0.73457
0.7915 0.071214 0.75162
0.9314 0.091684 0.77025
1 0.089194 0.76252
0 0.27083 0.67913
0.097965 0.26264 0.61704
0.25532 0.25821 0.59311
0.40253 0.24844 0.61552
0.52948 0.2385 0.64429
0.64381 0.229 0.6683
0.79351 0.21778 0.70384
0.92982 0.20348 0.7494
1 0.19886 0.7587
0 0.39131 0.68607
0.10316 0.40413 0.63764
0.26001 0.41458 0.60055
0.39892 0.41969 0.59423
0.51629 0.41155 0.59839
0.62565 0.39725 0.62319
0.75737 0.36942 0.6581
0.91076 0.33024 0.7052
1 0.3096 0.71964
0 0.49607 0.67546
0.11766 0.50816 0.64761
0.27469 0.52081 0.62751
0.39736 0.52412 0.61817
0.51368 0.5295 0.60246
0.61596 0.53412 0.60685
0.73116 0.52984 0.62491
0.87216 0.49845 0.6448
1 0.46354 0.65682
0 0.61655 0.64413
0.12517 0.61897 0.6408
0.27945 0.61327 0.64542
0.40388 0.61526 0.64068
0.52426 0.62994 0.61664
0.62469 0.64643 0.61003
0.72608 0.65533 0.6147
0.84493 0.64779 0.6178
0.969 0.62727 0.61779
0 0.75455 0.61837
0.1009 0.74715 0.62063
0.26355 0.72762 0.63555
0.41189 0.71961 0.63931
0.54115 0.731 0.62134
0.64014 0.74286 0.61494
0.73332 0.75537 0.61738
0.83941 0.76277 0.6182
0.94762 0.76078 0.61149
0 0.908 0.5936
0.087964 0.90886 0.59729
0.23373 0.89531 0.60344
0.41135 0.87582 0.6144
0.55025 0.87188 0.61121
0.64957 0.8729 0.60895
0.74386 0.87355 0.61393
0.84533 0.87695 0.62142
0.95032 0.88374 0.62182
0 1 0.58279
0.08826 1 0.59115
0.22261 1 0.59937
0.39566 0.99923 0.60537
0.55114 0.97836 0.60765
0.65187 0.97222 0.60193
0.7452 0.96415 0.60139
0.84795 0.96054 0.6147
0.95414 0.96299 0.62409
0.0064648 0 0.89937
0.13762 0 0.88848
0.28479 0 0.86884
0.41195 0 0.85064
0.5174 0 0.84124
0.63151 0 0.85151
0.78648 0 0.87273
0.92814 0 0.88821
1 0 0.88668
0 0.09124 0.88787
0.107 0.054085 0.88794
0.28012 0.037369 0.88079
0.41177 0.028648 0.86307
0.52571 0.027721 0.85036
0.65166 0.036463 0.85504
0.82163 0.0753 0.87619
0.93187 0.09431 0.88671
1 0.092686 0.88392
0 0.26278 0.86516
0.059094 0.25592 0.86522
0.25579 0.2194 0.85753
0.40597 0.19778 0.84815
0.52777 0.18617 0.83264
0.67047 0.18631 0.83498
0.83891 0.19204 0.86999
0.9365 0.19507 0.88793
1 0.19487 0.88412
0 0.38172 0.85116
0.056548 0.39574 0.83522
0.24232 0.4091 0.80371
0.39195 0.40619 0.79161
0.51311 0.38661 0.78367
0.65314 0.35896 0.78107
0.81654 0.3212 0.83181
0.93098 0.29064 0.87536
1 0.28087 0.88085
0 0.47285 0.84565
0.088083 0.49967 0.82382
0.25459 0.52579 0.79067
0.38624 0.53762 0.76977
0.49984 0.53364 0.75672
0.62372 0.52249 0.74901
0.76475 0.48825 0.77883
0.89837 0.43351 0.83506
1 0.40042 0.85674
0 0.5796 0.82982
0.11282 0.59317 0.81579
0.27102 0.61232 0.79402
0.39079 0.62459 0.77351
0.50221 0.63317 0.75616
0.61826 0.64539 0.73529
0.73719 0.64001 0.73629
0.86058 0.61732 0.76551
0.97263 0.58301 0.78801
0 0.71785 0.78516
0.10861 0.71786 0.78244
0.27687 0.71191 0.79044
0.39849 0.71118 0.78643
0.5166 0.72396 0.75986
0.63045 0.74302 0.73052
0.73579 0.75637 0.72015
0.84623 0.75938 0.72946
0.94984 0.75591 0.74534
0 0.8873 0.73877
0.094085 0.89228 0.74803
0.25661 0.87299 0.77838
0.39968 0.85696 0.7888
0.52874 0.85802 0.75351
0.64495 0.86332 0.72854
0.74498 0.86693 0.72057
0.85572 0.87752 0.72587
0.95548 0.88865 0.73965
0 1 0.72977
0.093492 1 0.73449
0.23893 1 0.75563
0.39282 0.97467 0.77433
0.53229 0.96676 0.74565
0.64475 0.95662 0.72282
0.7459 0.94622 0.71852
0.86375 0.94914 0.726
0.96805 0.96334 0.74022
0 0 0.97873
0.13307 0 0.98145
0.25944 0 0.97864
0.38151 0 0.96193
0.50641 0 0.9509
0.6546 0 0.95232
0.82459 0 0.95959
0.94313 0 0.97038
1 0 0.97212
0 0.078963 0.98708
0.13089 0.07293 1
0.2574 0.066533 1
0.38351 0.061535 0.98975
0.50527 0.05647 0.97541
0.66484 0.058212 0.97023
0.84011 0.082885 0.96179
0.9433 0.089333 0.96336
1 0.085093 0.96775
0 0.23681 0.9793
0.10345 0.21316 1
0.2507 0.19228 1
0.38221 0.18877 1
0.50055 0.18356 1
0.67239 0.1854 0.99405
0.85055 0.19138 0.96608
0.94456 0.19499 0.9608
1 0.19563 0.96466
0 0.36316 0.96187
0.071864 0.36049 0.98738
0.2398 0.35038 1
0.38268 0.34469 1
0.499 0.33348 1
0.6509 0.31854 1
0.84146 0.29297 0.97824
0.94585 0.27922 0.96643
1 0.28115 0.97025
0 0.46624 0.95474
0.078447 0.48213 0.97321
0.23595 0.49852 0.98557
0.37303 0.49953 0.97965
0.48543 0.49159 0.97272
0.6178 0.47241 0.96834
0.80127 0.4298 0.96527
0.93305 0.38753 0.96986
1 0.37462 0.97658
0 0.55797 0.95368
0.10039 0.57318 0.97182
0.24755 0.59832 0.97529
0.37246 0.61629 0.95802
0.4792 0.62389 0.94127
0.59366 0.6174 0.91937
0.7511 0.59251 0.91396
0.89597 0.53901 0.93943
1 0.5033 0.96433
0 0.66993 0.94013
0.12037 0.68041 0.96727
0.26937 0.70305 0.97752
0.38513 0.72708 0.96373
0.47857 0.73251 0.9449
0.58721 0.73508 0.9061
0.72529 0.74043 0.86485
0.86687 0.72609 0.86929
0.98226 0.71182 0.89222
0 0.85122 0.90998
0.13341 0.85802 0.93845
0.2865 0.85804 0.97306
0.3886 0.85685 0.97549
0.47766 0.85212 0.9626
0.59397 0.85822 0.91441
0.7285 0.87033 0.85793
0.86705 0.88256 0.8458
0.97687 0.88613 0.85212
0 1 0.90305
0.12611 1 0.91866
0.27768 0.96537 0.96316
0.38447 0.94369 0.97331
0.47703 0.93482 0.95773
0.59765 0.93654 0.9122
0.73467 0.94664 0.86403
0.87287 0.95908 0.85111
0.98973 0.97961 0.85691
0.015145 0 1
0.15031 0 1
0.25738 0 1
0.3725 0 1
0.50563 0 1
0.65197 0 1
0.81581 0 1
0.94576 0 1
1 0 1
0.010235 0.08077 1
0.15582 0.086555 1
0.26013 0.09002 1
0.37283 0.093331 1
0.49865 0.088973 1
0.64911 0.085789 1
0.8156 0.090031 1
0.94205 0.084148 1
1 0.078305 1
0.00075807 0.22287 1
0.14476 0.20485 1
0.26124 0.20012 1
0.37227 0.20068 1
0.49421 0.2033 1
0.65095 0.20809 1
0.81669 0.20893 1
0.93302 0.20186 1
1 0.196 1
0 0.35057 1
0.12459 0.3403 1
0.25712 0.33213 1
0.37632 0.33141 1
0.49675 0.3284 1
0.64297 0.32286 1
0.80603 0.30597 1
0.9293 0.29242 1
1 0.28853 1
0 0.465 1
0.1141 0.46853 1
0.25531 0.46963 1
0.37464 0.46902 1
0.49178 0.46428 1
0.61193 0.44447 1
0.77793 0.41198 1
0.92199 0.3849 1
1 0.37741 1
0 0.55557 1
0.12707 0.57 1
0.25821 0.58784 1
0.37529 0.59859 1
0.48114 0.59539 1
0.58336 0.57973 1
0.73789 0.55145 1
0.89845 0.50648 1
1 0.48632 1
0.005364 0.6558 1
0.15822 0.67748 1
0.27982 0.70858 1
0.3802 0.72766 1
0.47236 0.73291 1
0.56325 0.72665 1
0.70413 0.706 1
0.86331 0.67807 1
1 0.65579 1
0.006667 0.83422 1
0.187 0.8413 1
0.29689 0.84902 1
0.38608 0.85678 1
0.4718 0.85863 1
0.55526 0.85424 1
0.68974 0.8585 1
0.852 0.86627 1
0.98809 0.8653 1
0 1 1
0.17797 0.97564 1
0.29566 0.9526 1
0.38489 0.94201 1
0.469 0.92845 1
0.55653 0.92323 1
0.69745 0.94121 1
0.85901 0.96948 1
0.99987 1 1
