a - Ai/luts/2x_DBZScanLite_252k.cube
LUT_3D_SIZE 5
0 0 0
0.26099 0 0.069353
0.51946 0 0.048071
0.86805 0 0.019622
1 0 0.0054825
0 0.28093 0.075525
0.26646 0.27772 0.10445
0.51477 0.30184 0.0070026
0.84734 0.30262 0.0076824
1 0.27328 0.014357
0 0.61882 0
0.24463 0.60407 0
0.52052 0.57573 0
0.80281 0.54846 0
1 0.51564 0.01177
0 0.8667 0
0.24984 0.88105 0
0.4863 0.87102 0
0.74406 0.81779 0
1 0.80013 0.0014708
0.0039933 1 0
0.25789 1 0
0.46139 1 0
0.72449 1 0
0.99793 1 0
0.0073822 0.033026 0.19894
0.24498 0.020614 0.22486
0.51949 0 0.16978
0.84738 0 0.1661
1 0 0.11939
0.026246 0.25309 0.20355
0.23612 0.24863 0.24377
0.50783 0.30379 0.14043
0.84219 0.29857 0.097136
1 0.26592 0.089668
0 0.59237 0.090332
0.22714 0.56356 0.1174
0.51765 0.5407 0.11626
0.80414 0.53065 0.073113
1 0.5195 0.073425
0 0.86667 0.015677
0.24055 0.86109 0.0002686
0.49055 0.84059 0.0056534
0.75738 0.81166 0.033933
1 0.79398 0.06113
0 1 0.0077531
0.24872 1 0
0.46189 1 0
0.74971 1 0.010282
1 1 0.044909
0.059196 0.0026242 0.50521
0.26759 0 0.51684
0.49244 0 0.59221
0.77227 0 0.55079
1 0 0.55003
0.017789 0.25186 0.48881
0.24619 0.26356 0.4424
0.50167 0.28174 0.49245
0.77695 0.23724 0.50806
1 0.22276 0.55011
0 0.51434 0.5188
0.28128 0.49067 0.49439
0.51003 0.51656 0.49037
0.72966 0.53115 0.48741
1 0.49525 0.48018
0 0.78544 0.47645
0.2485 0.75731 0.49405
0.54088 0.73277 0.50442
0.73476 0.7506 0.51717
0.97702 0.75139 0.48153
0 1 0.43078
0.20651 1 0.45659
0.55148 0.98627 0.48755
0.74366 0.99032 0.50252
0.95955 0.96809 0.48448
0.0064648 0 0.89937
0.28479 0 0.86884
0.5174 0 0.84124
0.78648 0 0.87273
1 0 0.88668
0 0.26278 0.86516
0.25579 0.2194 0.85753
0.52777 0.18617 0.83264
0.83891 0.19204 0.86999
1 0.19487 0.88412
0 0.47285 0.84565
0.25459 0.52579 0.79067
0.49984 0.53364 0.75672
0.76475 0.48825 0.77883
1 0.40042 0.85674
0 0.71785 0.78516
0.27687 0.71191 0.79044
0.5166 0.72396 0.75986
0.73579 0.75637 0.72015
0.94984 0.75591 0.74534
0 1 0.72977
0.23893 1 0.75563
0.53229 0.96676 0.74565
0.7459 0.94622 0.71852
0.96805 0.96334 0.74022
0.015145 0 1
0.25738 0 1
0.50563 0 1
0.81581 0 1
1 0 1
0.00075807 0.22287 1
0.26124 0.20012 1
0.49421 0.2033 1
0.81669 0.20893 1
1 0.196 1
0 0.465 1
0.25531 0.46963 1
0.49178 0.46428 1
0.77793 0.41198 1
1 0.37741 1
0.005364 0.6558 1
0.27982 0.70858 1
0.47236 0.73291 1
0.70413 0.706 1
1 0.65579 1
0 1 1
0.29566 0.9526 1
0.469 0.92845 1
0.69745 0.94121 1
0.99987 1 1
