a - Ai/luts/2x_KemonoScale_v2.cube
LUT_3D_SIZE 33
0 0 0
0.0275 0 0
0.059012 0 0
0.091297 0 0
0.12441 0 0
0.15839 0 0
0.19309 3.2446e-006 0
0.22816 0.00040849 0
0.26314 0.00058674 0
0.29765 0.00050028 0
0.3316 0.00015057 0
0.365 0 0
0.39785 0 0
0.43011 0 0
0.46175 0 0
0.49292 0 0
0.52393 0 0
0.55504 0 0
0.58643 0 0
0.61827 0 0
0.65074 0 0
0.68391 0 0
0.71793 0 0
0.75279 0 0
0.78812 0 0
0.82343 0 0
0.85801 0 0
0.89117 0 0
0.9224 0 0
0.95146 0 0
0.97858 0 0
1 0.001275 0
1 0.0034506 0
0 0.025356 0
0.028745 0.02649 0
0.060094 0.027548 0
0.092218 0.028528 0
0.12519 0.029428 0
0.15906 0.030253 0
0.19365 0.030982 0
0.22851 0.031563 0
0.26326 0.031892 0
0.29752 0.031953 0
0.33125 0.031757 0
0.36447 0.031334 0
0.39715 0.030717 0
0.42924 0.029895 0
0.46073 0.028889 0
0.49175 0.027722 0
0.52265 0.026443 0
0.55368 0.025108 0
0.58506 0.023736 0
0.61702 0.02241 0
0.64969 0.021252 0
0.68321 0.020337 0
0.7177 0.0198 0
0.75298 0.01967 0
0.7887 0.019931 0
0.82432 0.020512 0
0.85909 0.02134 0
0.89243 0.022391 0
0.92383 0.023611 0
0.95307 0.025037 0
0.98036 0.026608 0
1 0.02829 0
1 0.030158 0
0 0.05639 0
0.029855 0.05732 0
0.06116 0.058265 0
0.093214 0.059239 0
0.12609 0.060205 0
0.15987 0.061126 0
0.19434 0.061992 0
0.22903 0.062717 0
0.26352 0.063218 0
0.29754 0.06343 0
0.33105 0.063399 0
0.36407 0.063146 0
0.39653 0.062648 0
0.42842 0.06191 0
0.45971 0.060957 0
0.49056 0.059828 0
0.52133 0.058564 0
0.5523 0.057213 0
0.58366 0.055862 0
0.6157 0.054564 0
0.64858 0.053376 0
0.68242 0.052442 0
0.7173 0.051808 0
0.75293 0.051468 0
0.78893 0.051426 0
0.82473 0.051567 0
0.85965 0.051885 0
0.89313 0.052356 0
0.92471 0.05301 0
0.95419 0.053853 0
0.98173 0.054899 0
1 0.056134 0
1 0.057564 0
0 0.087831 0
0.0308 0.088568 0
0.06214 0.089359 0
0.094208 0.090236 0
0.12705 0.091175 0
0.16078 0.092157 0
0.19516 0.093104 0
0.22968 0.093938 0
0.26394 0.094564 0
0.29772 0.094946 0
0.33101 0.095087 0
0.3638 0.094978 0
0.39603 0.094609 0
0.42769 0.094016 0
0.45877 0.093193 0
0.48944 0.09217 0
0.52006 0.091004 0
0.55093 0.089743 0
0.5823 0.088441 0
0.61442 0.08719 0
0.64747 0.086068 0
0.68161 0.085148 0
0.71677 0.084474 0
0.75265 0.084002 0
0.78883 0.083646 0
0.82471 0.083388 0
0.85974 0.083205 0
0.89332 0.083186 0
0.92508 0.083303 0
0.95479 0.083613 0
0.98259 0.084105 0
1 0.084816 0
1 0.085748 0
0.00050157 0.11954 0
0.031556 0.12007 0
0.062953 0.12067 0
0.095094 0.12137 0
0.128 0.12222 0
0.16175 0.12321 0
0.19604 0.12422 0
0.23041 0.1251 0
0.26446 0.1258 0
0.29805 0.12628 0
0.33112 0.12656 0
0.36368 0.1266 0
0.39567 0.12641 0
0.42711 0.12597 0
0.45797 0.1253 0
0.48846 0.12445 0
0.51893 0.12345 0
0.54968 0.12234 0
0.58103 0.12119 0
0.61321 0.12006 0
0.64644 0.11905 0
0.68081 0.11822 0
0.71618 0.11753 0
0.75219 0.11694 0
0.78839 0.11636 0
0.8243 0.11576 0
0.85936 0.11519 0
0.89306 0.11468 0
0.92495 0.11432 0
0.95488 0.11411 0
0.98291 0.11407 0
1 0.11425 0
1 0.11468 0
0.00093539 0.15148 0
0.032071 0.15173 0
0.063549 0.15208 0
0.095813 0.15258 0
0.1289 0.15331 0
0.16272 0.15424 0
0.19696 0.15523 0
0.23116 0.15612 0
0.26504 0.15683 0
0.29845 0.15735 0
0.33137 0.15771 0
0.36371 0.15789 0
0.39549 0.15785 0
0.42669 0.15759 0
0.45735 0.1571 0
0.48767 0.15643 0
0.51799 0.15563 0
0.54864 0.15473 0
0.57996 0.1538 0
0.61218 0.15291 0
0.64554 0.15209 0
0.68008 0.15137 0
0.71554 0.15072 0
0.75157 0.15005 0
0.78772 0.1493 0
0.82358 0.14846 0
0.85863 0.14759 0
0.89236 0.14673 0
0.92436 0.14592 0
0.95444 0.14521 0
0.98271 0.14467 0
1 0.14435 0
1 0.14423 0
0.0010668 0.18354 0
0.032291 0.18351 0
0.063912 0.18361 0
0.09637 0.18391 0
0.12966 0.18448 0
0.1636 0.18524 0
0.19782 0.18608 0
0.23189 0.18687 0
0.26562 0.18753 0
0.2989 0.18807 0
0.33169 0.18848 0
0.36387 0.18874 0
0.39546 0.18883 0
0.42646 0.18871 0
0.45693 0.18841 0
0.48709 0.18795 0
0.51727 0.18734 0
0.54785 0.18669 0
0.57914 0.18602 0
0.61142 0.18537 0
0.64486 0.1848 0
0.67947 0.18426 0
0.71492 0.18368 0
0.75087 0.18299 0
0.78692 0.18217 0
0.82265 0.18124 0
0.85763 0.18016 0
0.89131 0.17901 0
0.92334 0.17783 0
0.95354 0.1767 0
0.98201 0.17572 0
1 0.17491 0
1 0.1743 0
0.00094379 0.21557 0
0.032262 0.21534 0
0.064054 0.21524 0
0.096731 0.21534 0
0.13023 0.21567 0
0.16426 0.21616 0
0.19848 0.21672 0
0.2325 0.21728 0
0.26616 0.21783 0
0.29936 0.21834 0
0.33205 0.21875 0
0.36411 0.21905 0
0.39554 0.21922 0
0.42636 0.21922 0
0.4567 0.21906 0
0.48672 0.21878 0
0.5168 0.21842 0
0.54733 0.21801 0
0.57861 0.2176 0
0.61092 0.21722 0
0.64442 0.21688 0
0.67901 0.21655 0
0.71438 0.21611 0
0.7502 0.21552 0
0.78609 0.21478 0
0.82165 0.21381 0
0.85642 0.21264 0
0.89 0.21126 0
0.922 0.20981 0
0.95225 0.20835 0
0.98089 0.20699 0
1 0.20578 0
1 0.20471 0
0.00063974 0.24763 0
0.032061 0.24726 0
0.064001 0.247 0
0.096879 0.24691 0
0.13051 0.24696 0
0.16461 0.2471 0
0.19886 0.24728 0
0.23291 0.24753 0
0.2666 0.24787 0
0.29978 0.24826 0
0.33239 0.24862 0
0.36439 0.2489 0
0.39569 0.2491 0
0.42639 0.24917 0
0.45661 0.24913 0
0.48655 0.24899 0
0.51657 0.24883 0
0.54708 0.24867 0
0.57835 0.24852 0
0.61069 0.2484 0
0.64422 0.24831 0
0.67876 0.24819 0
0.71401 0.24796 0
0.74968 0.24759 0
0.78533 0.24699 0
0.82061 0.24608 0
0.85513 0.24486 0
0.88848 0.2434 0
0.92041 0.24174 0
0.95069 0.24005 0
0.97943 0.23843 0
1 0.23688 0
1 0.23543 0
0.0001877 0.28019 0
0.031701 0.27968 0
0.063769 0.27926 0
0.096769 0.27895 0
0.13047 0.27868 0
0.16461 0.27844 0
0.1989 0.27825 0
0.23305 0.27813 0
0.26684 0.27816 0
0.30008 0.27831 0
0.33266 0.27851 0
0.36461 0.27868 0
0.39585 0.2788 0
0.42647 0.27886 0
0.45663 0.27887 0
0.48651 0.27885 0
0.51654 0.27882 0
0.54707 0.27886 0
0.57836 0.27894 0
0.61073 0.27907 0
0.64426 0.27924 0
0.67873 0.27936 0
0.71389 0.27939 0
0.74934 0.27924 0
0.7847 0.27878 0
0.81961 0.27798 0
0.8538 0.2768 0
0.88692 0.27528 0
0.91867 0.27357 0
0.94894 0.27174 0
0.97772 0.2699 0
1 0.26809 0
1 0.26637 0
0 0.31377 0
0.031139 0.31308 0
0.063299 0.31244 0
0.096357 0.31185 0
0.13007 0.31126 0
0.16425 0.31067 0
0.1986 0.31012 0
0.23284 0.30966 0
0.26677 0.3093 0
0.30013 0.30909 0
0.33276 0.30899 0
0.36469 0.30894 0
0.39591 0.30889 0
0.42653 0.30886 0
0.45667 0.30884 0
0.48657 0.30885 0
0.51664 0.30892 0
0.54723 0.30906 0
0.57859 0.3093 0
0.61102 0.30964 0
0.64456 0.31005 0
0.67898 0.31046 0
0.714 0.31075 0
0.74916 0.31078 0
0.78414 0.31045 0
0.81869 0.3097 0
0.8525 0.30857 0
0.88532 0.3071 0
0.91689 0.30535 0
0.94707 0.30347 0
0.97583 0.30152 0
1 0.29956 0
1 0.29759 0
0 0.34844 0
0.030306 0.34754 0
0.062527 0.34666 0
0.095621 0.3458 0
0.12935 0.34493 0
0.16354 0.34404 0
0.19795 0.34316 0
0.23229 0.34236 0
0.26632 0.34166 0
0.2998 0.34105 0
0.33255 0.34057 0
0.36454 0.3402 0
0.39581 0.33992 0
0.42647 0.33972 0
0.45668 0.3396 0
0.48665 0.33956 0
0.51681 0.33964 0
0.54747 0.33982 0
0.57897 0.34014 0
0.61153 0.34065 0
0.64512 0.34129 0
0.67951 0.34195 0
0.71429 0.34245 0
0.7491 0.34262 0
0.78369 0.34239 0
0.81779 0.34174 0
0.85122 0.34064 0
0.88372 0.33919 0
0.91507 0.33749 0
0.94515 0.3356 0
0.97384 0.33363 0
1 0.33155 0
1 0.32944 0
0 0.38371 0
0.02921 0.3826 0
0.061476 0.38152 0
0.094593 0.38042 0
0.12834 0.37929 0
0.16253 0.37814 0
0.19699 0.37699 0
0.23142 0.37591 0
0.26555 0.37492 0
0.2991 0.37402 0
0.33197 0.3732 0
0.36408 0.37249 0
0.39549 0.37194 0
0.42627 0.37155 0
0.45658 0.3713 0
0.48669 0.37117 0
0.51697 0.37121 0
0.54778 0.3714 0
0.57948 0.37183 0
0.61225 0.37248 0
0.64593 0.37329 0
0.68023 0.3741 0
0.71474 0.37472 0
0.74917 0.37501 0
0.78331 0.3749 0
0.81696 0.37433 0
0.84995 0.37334 0
0.88214 0.37195 0
0.91328 0.37032 0
0.94318 0.36849 0
0.97177 0.36649 0
0.99914 0.36438 0
1 0.36218 0
0 0.41919 0
0.02789 0.41792 0
0.060184 0.41664 0
0.093304 0.41533 0
0.12705 0.41397 0
0.16125 0.41258 0
0.19578 0.4112 0
0.2303 0.4099 0
0.26451 0.40869 0
0.29813 0.40755 0
0.33108 0.4065 0
0.36332 0.40554 0
0.3949 0.40472 0
0.42588 0.40408 0
0.45636 0.40366 0
0.48664 0.40345 0
0.51712 0.40342 0
0.54816 0.40366 0
0.58013 0.40417 0
0.6131 0.40495 0
0.64687 0.40583 0
0.68107 0.40668 0
0.71529 0.40734 0
0.74935 0.4077 0
0.78304 0.40768 0
0.81621 0.40722 0
0.84879 0.40636 0
0.88064 0.40514 0
0.91154 0.40363 0
0.94124 0.4019 0
0.96964 0.39998 0
0.99692 0.3979 0
1 0.39574 0
0 0.45461 0
0.026374 0.4532 0
0.058666 0.45175 0
0.091788 0.45023 0
0.12553 0.44867 0
0.15975 0.44709 0
0.19436 0.44553 0
0.22898 0.44404 0
0.26326 0.44265 0
0.29697 0.44134 0
0.33 0.44011 0
0.36234 0.43899 0
0.39407 0.43799 0
0.42525 0.43715 0
0.45599 0.43653 0
0.48652 0.43619 0
0.51724 0.43612 0
0.54863 0.43638 0
0.58091 0.437 0
0.61404 0.43783 0
0.64783 0.43873 0
0.68189 0.43954 0
0.71587 0.44016 0
0.74957 0.4405 0
0.78284 0.44049 0
0.81559 0.44011 0
0.84778 0.43937 0
0.87929 0.4383 0
0.90994 0.43697 0
0.9394 0.4354 0
0.96762 0.43363 0
0.99476 0.43171 0
1 0.42969 0
0 0.48968 0
0.024717 0.48821 0
0.056968 0.48664 0
0.090061 0.48496 0
0.12381 0.48322 0
0.15809 0.48147 0
0.19277 0.47976 0
0.2275 0.47813 0
0.26186 0.47658 0
0.29565 0.47513 0
0.32877 0.47378 0
0.36123 0.47254 0
0.39309 0.47143 0
0.42444 0.47047 0
0.45545 0.46972 0
0.48629 0.46928 0
0.51739 0.46917 0
0.54915 0.46946 0
0.58173 0.47008 0
0.61501 0.47091 0
0.64875 0.47178 0
0.68263 0.47252 0
0.71637 0.47304 0
0.74975 0.47331 0
0.78264 0.47326 0
0.81503 0.47289 0
0.84687 0.4722 0
0.87811 0.47125 0
0.9085 0.47006 0
0.93774 0.46868 0
0.96578 0.46712 0
0.99284 0.46544 0
1 0.46367 0
0 0.52429 0
0.023002 0.52282 0
0.055156 0.5212 0
0.088187 0.51943 0
0.12194 0.51757 0
0.15629 0.51568 0
0.19107 0.51384 0
0.22587 0.51207 0
0.26033 0.51039 0
0.29422 0.50881 0
0.32743 0.50734 0
0.36001 0.50599 0
0.39202 0.5048 0
0.42357 0.50381 0
0.45485 0.50305 0
0.48602 0.50258 0
0.51751 0.50247 0
0.54966 0.50271 0
0.58251 0.50327 0
0.61592 0.504 0
0.6496 0.50476 0
0.68328 0.5054 0
0.71677 0.50584 0
0.74985 0.50601 0
0.78241 0.50589 0
0.81446 0.50547 0
0.84602 0.50478 0
0.87703 0.5039 0
0.90722 0.50283 0
0.93629 0.50162 0
0.96421 0.5003 0
0.99119 0.49889 0
1 0.49737 0
0 0.55837 0
0.0213 0.55695 0
0.053316 0.55536 0
0.086253 0.55359 0
0.11998 0.55169 0
0.15438 0.54973 0
0.18924 0.54778 0
0.22412 0.54587 0
0.25868 0.54404 0
0.29267 0.54233 0
0.32599 0.54074 0
0.35872 0.5393 0
0.39092 0.53805 0
0.42272 0.53706 0
0.45427 0.53635 0
0.48577 0.53594 0
0.51761 0.53582 0
0.55009 0.53601 0
0.58318 0.53644 0
0.61667 0.53701 0
0.65031 0.53759 0
0.68382 0.53811 0
0.71705 0.53843 0
0.74982 0.53848 0
0.78207 0.53824 0
0.81386 0.53776 0
0.8452 0.53707 0
0.87604 0.53623 0
0.90609 0.53528 0
0.93506 0.53422 0
0.96292 0.53312 0
0.98985 0.53197 0
1 0.53073 0
0 0.59195 0
0.019677 0.59063 0
0.051523 0.58912 0
0.084342 0.58739 0
0.11801 0.58552 0
0.15241 0.58355 0
0.1873 0.58152 0
0.22225 0.57949 0
0.25691 0.57754 0
0.291 0.57569 0
0.32446 0.57399 0
0.35736 0.57247 0
0.38981 0.57118 0
0.42191 0.57019 0
0.45377 0.56951 0
0.48557 0.56914 0
0.51769 0.56905 0
0.55043 0.56919 0
0.58368 0.5695 0
0.61724 0.56988 0
0.65083 0.57027 0
0.68422 0.57058 0
0.71719 0.57073 0
0.74966 0.57064 0
0.78163 0.57029 0
0.8132 0.56973 0
0.8444 0.56904 0
0.87513 0.56827 0
0.9051 0.56741 0
0.93403 0.56652 0
0.9619 0.56562 0
0.98879 0.56471 0
1 0.5637 0
0 0.62507 0
0.018177 0.62391 0
0.049834 0.62251 0
0.08249 0.62088 0
0.11608 0.61905 0
0.15042 0.61709 0
0.18531 0.61502 0
0.22028 0.61293 0
0.25503 0.61087 0
0.28923 0.60892 0
0.32285 0.60712 0
0.35596 0.60553 0
0.38868 0.60422 0
0.42111 0.60321 0
0.45328 0.60252 0
0.48538 0.60211 0
0.51777 0.602 0
0.5507 0.60211 0
0.58404 0.60229 0
0.61762 0.60251 0
0.65116 0.6027 0
0.68438 0.60279 0
0.71714 0.60271 0
0.74935 0.60243 0
0.78111 0.60198 0
0.81252 0.60139 0
0.84363 0.60072 0
0.87431 0.59999 0
0.90425 0.59926 0
0.93322 0.59853 0
0.96113 0.59784 0
0.98799 0.59713 0
1 0.59633 0
0 0.65779 0
0.016852 0.65682 0
0.048266 0.65558 0
0.080743 0.65406 0
0.11419 0.65232 0
0.14845 0.65038 0
0.18328 0.64831 0
0.21827 0.64617 0
0.25306 0.64405 0
0.28739 0.64201 0
0.32117 0.64014 0
0.35453 0.6385 0
0.38755 0.63715 0
0.42029 0.6361 0
0.45275 0.63535 0
0.48513 0.63488 0
0.51782 0.63467 0
0.55088 0.63467 0
0.58427 0.63475 0
0.61783 0.63479 0
0.65127 0.63477 0
0.68434 0.63463 0
0.71687 0.63435 0
0.7489 0.63391 0
0.78053 0.63336 0
0.81184 0.63275 0
0.84292 0.63212 0
0.87358 0.63148 0
0.90357 0.63086 0
0.93262 0.6303 0
0.96057 0.6298 0
0.98741 0.62926 0
1 0.62862 0
0 0.69006 0
0.015753 0.68938 0
0.046883 0.68834 0
0.079107 0.68699 0
0.11239 0.68534 0
0.1465 0.68348 0
0.18124 0.68141 0
0.21621 0.67924 0
0.25105 0.67707 0
0.28548 0.67498 0
0.31946 0.67305 0
0.35308 0.67139 0
0.38638 0.67 0
0.4194 0.66888 0
0.45214 0.66802 0
0.4848 0.66743 0
0.51775 0.66709 0
0.55095 0.66692 0
0.58437 0.66683 0
0.61785 0.66671 0
0.65116 0.66649 0
0.68407 0.66613 0
0.71645 0.66566 0
0.74835 0.66511 0
0.7799 0.6645 0
0.8112 0.6639 0
0.84228 0.66333 0
0.87298 0.66279 0
0.90303 0.6623 0
0.9322 0.6619 0
0.96019 0.66154 0
0.98699 0.66113 0
1 0.66061 0
0 0.72182 0
0.014973 0.72146 0
0.045738 0.72074 0
0.077656 0.71963 0
0.11067 0.71816 0
0.14461 0.71638 0
0.17921 0.71436 0
0.21414 0.7122 0
0.24899 0.70999 0
0.28354 0.70787 0
0.31774 0.70593 0
0.35161 0.70422 0
0.38516 0.70277 0
0.41842 0.70155 0
0.45141 0.70054 0
0.48435 0.6998 0
0.5175 0.69928 0
0.55084 0.6989 0
0.58429 0.69859 0
0.6177 0.69828 0
0.65086 0.69788 0
0.68362 0.69736 0
0.71589 0.69675 0
0.74774 0.6961 0
0.77928 0.69549 0
0.81062 0.69493 0
0.84174 0.69445 0
0.87249 0.69402 0
0.90266 0.69367 0
0.93191 0.69341 0
0.95993 0.69313 0
0.9867 0.69281 0
1 0.69237 0
0 0.75291 0
0.014569 0.75297 0
0.044939 0.75264 0
0.07647 0.75187 0
0.10916 0.75068 0
0.14282 0.74911 0
0.17724 0.74721 0
0.21205 0.74511 0
0.24691 0.74291 0
0.28158 0.74077 0
0.31599 0.7388 0
0.35007 0.73704 0
0.38386 0.73548 0
0.4173 0.73413 0
0.45053 0.73297 0
0.48375 0.73204 0
0.51706 0.73128 0
0.55052 0.73065 0
0.58401 0.73011 0
0.61736 0.72959 0
0.65042 0.72903 0
0.68303 0.7284 0
0.71522 0.72769 0
0.74709 0.72701 0
0.7787 0.7264 0
0.81012 0.72592 0
0.84131 0.72555 0
0.87215 0.72525 0
0.90242 0.72503 0
0.93173 0.72485 0
0.95974 0.72466 0
0.98645 0.72438 0
1 0.72397 0
0 0.7833 0
0.014617 0.78379 0
0.044561 0.7839 0
0.075662 0.78357 0
0.10795 0.78277 0
0.14125 0.78152 0
0.17539 0.77985 0
0.21005 0.77791 0
0.24487 0.77583 0
0.27963 0.77374 0
0.31417 0.77175 0
0.34845 0.76988 0
0.38242 0.76818 0
0.41605 0.76664 0
0.4495 0.7653 0
0.48293 0.76415 0
0.51639 0.76315 0
0.54997 0.76227 0
0.5835 0.76149 0
0.61684 0.76076 0
0.64983 0.76004 0
0.68236 0.75931 0
0.71452 0.75859 0
0.74643 0.75791 0
0.77816 0.75734 0
0.80972 0.75691 0
0.84102 0.75664 0
0.87195 0.75649 0
0.9023 0.7564 0
0.93161 0.7563 0
0.95959 0.75613 0
0.98623 0.75586 0
1 0.75546 0
0 0.81296 0
0.015128 0.81391 0
0.044655 0.81447 0
0.075305 0.81461 0
0.10714 0.81426 0
0.14 0.81342 0
0.1738 0.81213 0
0.20823 0.81048 0
0.24297 0.80862 0
0.27772 0.80667 0
0.31232 0.80469 0
0.34671 0.80276 0
0.38081 0.80091 0
0.41461 0.79917 0
0.44829 0.79759 0
0.48189 0.7962 0
0.5155 0.79496 0
0.54919 0.79386 0
0.58279 0.79286 0
0.61613 0.79193 0
0.6491 0.79106 0
0.68163 0.79023 0
0.71382 0.78949 0
0.74581 0.78885 0
0.77766 0.78833 0
0.80938 0.78796 0
0.84085 0.78776 0
0.87191 0.78772 0
0.90227 0.78775 0
0.93153 0.78772 0
0.95943 0.78758 0
0.98599 0.7873 0
1 0.78687 0
0 0.84188 0
0.016105 0.84327 0
0.045221 0.84428 0
0.075414 0.84488 0
0.10676 0.84501 0
0.13918 0.84464 0
0.17259 0.84383 0
0.20673 0.84261 0
0.24127 0.84108 0
0.27594 0.83931 0
0.3105 0.83745 0
0.34492 0.83552 0
0.37906 0.83356 0
0.413 0.83165 0
0.44687 0.82988 0
0.48064 0.82825 0
0.51442 0.82679 0
0.5482 0.82548 0
0.58186 0.82427 0
0.61524 0.82317 0
0.64823 0.82215 0
0.68082 0.82124 0
0.71312 0.82045 0
0.74522 0.81983 0
0.77722 0.81936 0
0.80909 0.81903 0
0.84074 0.81887 0
0.87195 0.81889 0
0.90233 0.81898 0
0.9315 0.81902 0
0.95929 0.81891 0
0.98571 0.81865 0
1 0.81819 0
0 0.87001 0
0.017542 0.87181 0
0.046232 0.87326 0
0.075981 0.8743 0
0.10686 0.8749 0
0.13885 0.87507 0
0.17187 0.87478 0
0.20564 0.87406 0
0.23988 0.87293 0
