a - Ai/luts/2x_KemonoScale_v2.cube
LUT_3D_SIZE 9
0 0 0
0.12441 0 0
0.26314 0.00058674 0
0.39785 0 0
0.52393 0 0
0.65074 0 0
0.78812 0 0
0.9224 0 0
1 0.0034506 0
0.00050157 0.11954 0
0.128 0.12222 0
0.26446 0.1258 0
0.39567 0.12641 0
0.51893 0.12345 0
0.64644 0.11905 0
0.78839 0.11636 0
0.92495 0.11432 0
1 0.11468 0
0.00063974 0.24763 0
0.13051 0.24696 0
0.2666 0.24787 0
0.39569 0.2491 0
0.51657 0.24883 0
0.64422 0.24831 0
0.78533 0.24699 0
0.92041 0.24174 0
1 0.23543 0
0 0.38371 0
0.12834 0.37929 0
0.26555 0.37492 0
0.39549 0.37194 0
0.51697 0.37121 0
0.64593 0.37329 0
0.78331 0.3749 0
0.91328 0.37032 0
1 0.36218 0
0 0.52429 0
0.12194 0.51757 0
0.26033 0.51039 0
0.39202 0.5048 0
0.51751 0.50247 0
0.6496 0.50476 0
0.78241 0.50589 0
0.90722 0.50283 0
1 0.49737 0
0 0.65779 0
0.11419 0.65232 0
0.25306 0.64405 0
0.38755 0.63715 0
0.51782 0.63467 0
0.65127 0.63477 0
0.78053 0.63336 0
0.90357 0.63086 0
1 0.62862 0
0 0.7833 0
0.10795 0.78277 0
0.24487 0.77583 0
0.38242 0.76818 0
0.51639 0.76315 0
0.64983 0.76004 0
0.77816 0.75734 0
0.9023 0.7564 0
1 0.75546 0
0 0.89732 0
0.10746 0.90385 0
0.23887 0.90393 0
0.37547 0.89776 0
0.51177 0.89047 0
0.64608 0.88469 0
0.77641 0.88128 0
0.90245 0.88082 0
1 0.87989 0
0.0027659 1 0
0.11418 1 0
0.23895 1 0
0.371 1 0
0.50683 1 0
0.64053 1 0
0.77371 1 0
0.90109 1 0
1 0.99819 0
0 0 0.13517
0.1168 0 0.12597
0.25774 0 0.11694
0.39289 0 0.10775
0.51959 0 0.099139
0.64835 0 0.09314
0.78687 0 0.090356
0.92589 0 0.089063
1 0 0.090703
0 0.11422 0.1273
0.12177 0.11826 0.11856
0.25987 0.12257 0.11129
0.39086 0.12272 0.10463
0.51516 0.11926 0.098116
0.64462 0.11515 0.092967
0.78753 0.11251 0.089257
0.93017 0.11149 0.087913
1 0.11298 0.089581
0 0.24561 0.12211
0.12502 0.24585 0.11498
0.26241 0.24716 0.10833
0.3901 0.24834 0.10223
0.51223 0.24743 0.096129
0.64205 0.24571 0.091612
0.78592 0.24413 0.087661
0.9264 0.23911 0.08771
1 0.23302 0.090382
0 0.38642 0.12075
0.1232 0.38323 0.11484
0.26139 0.37924 0.10929
0.39015 0.37652 0.10394
0.51183 0.37608 0.097999
0.6417 0.37689 0.092295
0.78346 0.37686 0.087809
0.91801 0.37016 0.088449
1 0.36084 0.091205
0 0.52635 0.12013
0.11813 0.52149 0.11559
0.25635 0.51521 0.11182
0.38666 0.50973 0.10753
0.51174 0.50682 0.10231
0.64429 0.50817 0.095818
0.78087 0.50862 0.089851
0.90933 0.50352 0.089146
1 0.49671 0.091731
0 0.65829 0.11924
0.11155 0.65376 0.1161
0.24953 0.64592 0.11332
0.38204 0.63903 0.10918
0.51069 0.6363 0.10344
0.64544 0.63561 0.096593
0.77826 0.63348 0.090221
0.90465 0.63036 0.088166
1 0.62814 0.090572
0 0.78084 0.11636
0.10609 0.781 0.11416
0.24155 0.77427 0.11235
0.37686 0.76664 0.10793
0.50889 0.76166 0.10112
0.64352 0.75873 0.093865
0.77521 0.75558 0.087642
0.90368 0.75389 0.085613
1 0.75365 0.088325
0 0.8943 0.11256
0.10579 0.90113 0.11026
0.23539 0.90079 0.1086
0.36998 0.89445 0.10433
0.50429 0.88685 0.097131
0.64032 0.88107 0.089696
0.77254 0.87738 0.083242
0.90402 0.87666 0.080688
1 0.87603 0.084161
0.0010271 1 0.1131
0.11244 1 0.11033
0.23504 1 0.10788
0.36456 1 0.10347
0.4986 1 0.096081
0.63462 1 0.088602
0.76963 1 0.082273
0.90309 1 0.078827
1 0.99832 0.082237
0 0 0.28188
0.1081 0 0.2764
0.24685 0 0.26516
0.38134 0 0.25147
0.51068 0 0.24033
0.64317 0 0.23375
0.78406 0 0.23094
0.92235 0 0.22709
1 0 0.22264
0 0.106 0.27362
0.11436 0.11078 0.268
0.25229 0.11719 0.25965
0.38313 0.12006 0.2503
0.50881 0.11976 0.24282
0.63964 0.11736 0.23776
0.7826 0.11404 0.23355
0.92524 0.11297 0.22613
1 0.11385 0.21998
0 0.24043 0.26498
0.11902 0.24219 0.25992
0.25596 0.24449 0.25354
0.38425 0.24614 0.24689
0.50788 0.24615 0.24248
0.63748 0.2453 0.23924
0.78068 0.24337 0.23434
0.9234 0.23997 0.22647
1 0.23565 0.22029
0 0.38429 0.26023
0.11836 0.38185 0.25621
0.25598 0.37955 0.25109
0.38463 0.37805 0.24524
0.50804 0.37832 0.24207
0.63657 0.37873 0.24027
0.77869 0.3783 0.23518
0.91658 0.37253 0.22875
1 0.36439 0.22461
0 0.52442 0.25678
0.11424 0.5199 0.2527
0.25242 0.51467 0.24822
0.3825 0.51033 0.24373
0.50824 0.50827 0.24145
0.63756 0.50894 0.23933
0.77609 0.50859 0.23459
0.90858 0.50296 0.23066
1 0.4972 0.2284
0 0.6548 0.25253
0.10878 0.6514 0.24827
0.24638 0.64443 0.24467
0.37816 0.63766 0.24134
0.50658 0.63386 0.23922
0.6381 0.63233 0.23533
0.77317 0.63063 0.23014
0.90414 0.62694 0.22802
1 0.62493 0.22766
0 0.77664 0.24835
0.10415 0.77654 0.24375
0.2393 0.77053 0.24064
0.37236 0.76335 0.23797
0.50274 0.75705 0.23461
0.6362 0.75314 0.22876
0.7707 0.74995 0.22364
0.90317 0.74845 0.22153
1 0.74846 0.22199
0 0.89418 0.24845
0.10322 0.90017 0.24269
0.23358 0.89931 0.2392
0.36499 0.8929 0.23675
0.49674 0.88539 0.2324
0.63236 0.87974 0.2257
0.76747 0.87516 0.22021
0.90335 0.87321 0.218
1 0.87295 0.2184
0 1 0.25042
0.10953 1 0.24395
0.23268 1 0.24
0.35933 1 0.23696
0.49088 1 0.23227
0.62667 1 0.22597
0.76398 1 0.22026
0.90166 1 0.21804
1 1 0.21913
0 0 0.4192
0.10118 0 0.41381
0.23415 0 0.40464
0.36793 0 0.39076
0.5022 0 0.38019
0.64074 0 0.37677
0.78262 0 0.37687
0.91736 0 0.37415
1 0 0.36985
0 0.096295 0.41378
0.1087 0.1015 0.40995
0.2424 0.11074 0.40207
0.37299 0.11789 0.38993
0.50261 0.12094 0.38065
0.6371 0.12066 0.37711
0.77772 0.11649 0.3755
0.91759 0.11156 0.36997
1 0.11056 0.36438
0 0.2332 0.40485
0.11459 0.23492 0.401
0.24941 0.23889 0.39501
0.3774 0.24321 0.38657
0.50456 0.24617 0.38033
0.63584 0.24696 0.37847
0.77425 0.24508 0.37607
0.91361 0.24149 0.36708
1 0.23618 0.35937
0 0.38025 0.39898
0.11439 0.37769 0.39423
0.25036 0.37517 0.38878
0.37999 0.37469 0.38268
0.50697 0.37697 0.37977
0.63581 0.37868 0.37995
0.77268 0.379 0.37818
0.90835 0.37587 0.36931
1 0.37007 0.36076
0 0.51889 0.393
0.10999 0.51446 0.38816
0.24704 0.50921 0.38212
0.37883 0.506 0.37622
0.50819 0.50452 0.37484
0.63712 0.50484 0.37674
0.7724 0.50538 0.37638
0.90368 0.5033 0.37069
1 0.49997 0.36518
0 0.64949 0.38648
0.10415 0.64519 0.38131
0.24207 0.63862 0.37462
0.37574 0.6331 0.36957
0.50586 0.6298 0.36858
0.63581 0.62598 0.36985
0.77168 0.62342 0.36992
0.90237 0.62211 0.36823
1 0.62226 0.36554
0 0.77672 0.38539
0.098715 0.77569 0.3791
0.23512 0.76906 0.3714
0.3704 0.76189 0.36685
0.50094 0.75514 0.36675
0.63194 0.75007 0.36622
0.76926 0.74642 0.36515
0.90221 0.7445 0.36538
1 0.74499 0.3643
0 0.89596 0.38719
0.097086 0.90118 0.37993
0.22892 0.89955 0.37132
0.36274 0.89276 0.36626
0.49374 0.88474 0.36604
0.62796 0.87884 0.36486
0.76606 0.87462 0.3641
0.90223 0.87305 0.36428
1 0.87279 0.36379
0 1 0.38899
0.10282 1 0.38069
0.22812 1 0.37182
0.35663 1 0.36693
0.48677 1 0.36548
0.62221 1 0.36324
0.76254 1 0.36322
0.90152 1 0.36366
1 1 0.36374
0 0 0.54285
0.094722 0 0.53546
0.22507 0 0.52797
0.35839 0 0.52202
0.49713 0 0.51815
0.64016 0 0.51597
0.78206 0 0.5152
0.91351 0 0.51428
1 0 0.51167
0 0.08988 0.54097
0.1037 0.096387 0.53532
0.2331 0.10627 0.52786
0.36322 0.11498 0.51929
0.4966 0.11929 0.51302
0.63565 0.1188 0.50971
0.77605 0.113 0.50826
0.91291 0.10585 0.50627
1 0.10391 0.50342
0 0.227 0.53611
0.10984 0.22847 0.53149
0.24155 0.23318 0.52385
0.37015 0.24021 0.51556
0.50026 0.24602 0.50994
0.63462 0.24888 0.50691
0.76976 0.24644 0.50433
0.90645 0.24004 0.49984
1 0.23241 0.49575
0 0.37363 0.52822
0.1096 0.37073 0.52472
0.24425 0.36863 0.5181
0.37505 0.36937 0.51169
0.50549 0.37419 0.50814
0.63626 0.37818 0.5076
0.76751 0.37962 0.50474
0.89961 0.37737 0.49777
1 0.37147 0.49209
0 0.51217 0.52024
0.10504 0.50711 0.51621
0.24086 0.50105 0.50986
0.37527 0.49751 0.50439
0.50911 0.49755 0.50322
0.6391 0.49993 0.50499
0.76845 0.50169 0.50316
0.89776 0.50251 0.49662
1 0.50221 0.4909
0 0.64723 0.51781
0.098269 0.64223 0.51253
0.23456 0.63425 0.5048
0.37246 0.62867 0.49809
0.50794 0.62564 0.49798
0.63881 0.62187 0.50224
0.76973 0.62081 0.50266
0.89949 0.62253 0.49836
1 0.62433 0.49408
0 0.777 0.5172
0.091848 0.77577 0.51157
0.22688 0.76848 0.50291
0.36753 0.76105 0.49546
0.50308 0.75453 0.49504
0.63417 0.74862 0.50017
0.76939 0.74517 0.50301
0.90156 0.74544 0.50194
1 0.74709 0.49916
0 0.89722 0.51699
0.089421 0.90193 0.51112
0.22042 0.89954 0.50187
0.35992 0.89249 0.49443
0.49558 0.88415 0.49416
0.62919 0.87707 0.49803
0.7674 0.87313 0.50083
0.90213 0.87168 0.50184
1 0.87191 0.50039
0 1 0.5179
0.094561 1 0.51172
0.21972 1 0.50174
0.35374 1 0.49433
0.48672 1 0.49347
0.6231 1 0.49574
0.76462 1 0.49867
0.90077 1 0.49934
1 0.99955 0.49786
0 0 0.66472
0.087204 0 0.65505
0.22139 0 0.64991
0.35881 0 0.65259
0.49699 0 0.65672
0.63936 0 0.65765
0.78161 0 0.65659
0.91207 0 0.65671
1 0 0.65599
0 0.087493 0.66304
0.096674 0.095404 0.65459
0.22684 0.10441 0.6475
0.35953 0.10952 0.64589
0.49428 0.11115 0.64616
0.63398 0.10933 0.64552
0.77557 0.10254 0.64419
0.91201 0.094683 0.64479
1 0.093868 0.64573
0 0.22207 0.66058
0.10379 0.2256 0.65457
0.23357 0.23043 0.64672
0.36436 0.23692 0.64035
0.49712 0.24254 0.63738
0.63232 0.2456 0.63521
0.76759 0.24232 0.63314
0.90442 0.23375 0.63241
1 0.22492 0.63351
0 0.36425 0.65256
0.10507 0.36262 0.64934
0.23672 0.36187 0.6424
0.37043 0.36447 0.63596
0.50336 0.3709 0.63289
0.63427 0.3767 0.62988
0.76322 0.37758 0.62656
0.89563 0.37306 0.62343
1 0.36551 0.6234
0 0.50844 0.64596
0.10052 0.50214 0.64401
0.23456 0.49559 0.63812
0.3724 0.49286 0.63364
0.50928 0.49472 0.63202
0.63856 0.49959 0.63036
0.76335 0.50261 0.62618
0.89197 0.50364 0.62049
1 0.50173 0.61776
0 0.64666 0.64347
0.092457 0.64066 0.64091
0.22774 0.63187 0.63508
0.36968 0.62484 0.63152
0.51053 0.62204 0.63097
0.64098 0.62105 0.63175
0.76653 0.62328 0.62967
0.89459 0.6279 0.62503
1 0.63077 0.62038
0 0.77575 0.64208
0.085843 0.77441 0.63861
0.21917 0.76716 0.63232
0.36362 0.75876 0.62785
0.5064 0.7518 0.62766
0.63914 0.7465 0.63087
0.76915 0.74514 0.63149
0.89897 0.74827 0.62962
1 0.75155 0.62602
0 0.89631 0.63985
0.083782 0.90109 0.63621
0.21232 0.89854 0.63003
0.35611 0.89174 0.62481
0.4985 0.88319 0.62456
0.63382 0.87465 0.62846
0.769 0.87029 0.63068
0.90141 0.8702 0.6305
1 0.87142 0.62823
0 1 0.63907
0.088642 1 0.63546
0.21157 1 0.62945
0.35004 1 0.62432
0.48872 1 0.62375
0.62632 1 0.6264
0.76625 1 0.62793
0.90055 0.9985 0.62878
1 0.99693 0.62796
0 0 0.79399
0.080744 0 0.78453
0.2233 0 0.78422
0.36662 0 0.79252
0.50334 0 0.80162
0.64126 0 0.80746
0.78167 0 0.80922
0.91107 0 0.80857
1 0 0.80467
0 0.084583 0.78802
0.089488 0.094509 0.77871
0.22629 0.1017 0.77742
0.36287 0.10223 0.78316
0.49676 0.098593 0.78896
0.63498 0.093311 0.7927
0.77732 0.085713 0.79544
0.91342 0.079102 0.79784
1 0.081652 0.79733
0 0.2178 0.78415
0.097357 0.22422 0.77689
0.22992 0.22914 0.77419
0.36281 0.23176 0.77669
0.4955 0.23396 0.77768
0.63066 0.23446 0.77734
0.76768 0.22908 0.77742
0.90639 0.21869 0.77974
1 0.21071 0.78249
0 0.35889 0.78205
0.10054 0.36009 0.77745
0.23206 0.36019 0.77502
0.36677 0.36266 0.77399
0.50028 0.369 0.77175
0.63062 0.3734 0.76864
0.76073 0.37215 0.76532
0.89568 0.36463 0.76491
1 0.35506 0.76798
0 0.50309 0.77747
0.098011 0.49879 0.77647
0.23064 0.49359 0.77584
0.37034 0.49287 0.7751
0.50645 0.49647 0.77246
0.63404 0.50156 0.76707
0.75836 0.50374 0.76138
0.88985 0.50335 0.75874
1 0.49872 0.76071
0 0.64339 0.77137
0.090702 0.63681 0.77253
0.22538 0.62783 0.77342
0.36972 0.62253 0.77499
0.50876 0.62106 0.77418
0.63729 0.62185 0.76821
0.76153 0.62538 0.76097
0.89125 0.63101 0.75646
1 0.63236 0.75669
0 0.7735 0.76728
0.083005 0.77071 0.76763
0.2172 0.7625 0.7681
0.36438 0.75332 0.77125
0.50689 0.7475 0.77231
0.63741 0.74485 0.76802
0.76602 0.74567 0.76143
0.89633 0.75062 0.75714
1 0.75471 0.75559
0 0.89428 0.76485
0.080208 0.8981 0.76342
0.20959 0.89549 0.76229
0.35617 0.88811 0.76507
0.5009 0.8793 0.7675
0.6341 0.87173 0.76574
0.76793 0.86917 0.76107
0.90002 0.87064 0.75867
1 0.87326 0.75747
0 1 0.76314
0.085274 1 0.76081
0.20859 1 0.75942
0.34946 1 0.7612
0.49091 1 0.76334
0.62682 1 0.76296
0.76638 0.99935 0.76058
0.90084 0.99708 0.75977
1 0.99713 0.75963
0 0 0.91857
0.076112 0 0.91463
0.23084 0 0.91864
0.37767 0 0.92828
0.51294 0 0.93741
0.64674 0 0.94424
0.7826 0 0.94786
0.9074 0 0.94608
1 0 0.93856
0 0.077209 0.91132
0.084763 0.087202 0.90552
0.23252 0.095161 0.90889
0.37156 0.093748 0.91825
0.50454 0.086782 0.92747
0.64043 0.077892 0.93442
0.78216 0.069732 0.93958
0.91378 0.066628 0.94163
1 0.073489 0.9369
0 0.21761 0.91001
0.09301 0.22546 0.90212
0.23534 0.22925 0.90586
0.36814 0.22942 0.91419
0.49801 0.22749 0.92119
0.63163 0.22339 0.92474
0.77113 0.2138 0.92829
0.90907 0.20151 0.93177
1 0.19716 0.93033
0 0.35897 0.9133
0.097268 0.36337 0.90566
0.23504 0.36376 0.90837
0.36879 0.36319 0.9147
0.49881 0.36609 0.91741
0.62801 0.36744 0.91655
0.76022 0.3624 0.91675
0.89789 0.35238 0.91877
1 0.34387 0.92118
0 0.49802 0.91335
0.097506 0.49741 0.90792
0.23355 0.49447 0.91142
0.37027 0.49427 0.91519
0.50279 0.49684 0.91431
0.62823 0.49922 0.91007
0.75484 0.49815 0.90643
0.89126 0.49515 0.90644
1 0.4898 0.91061
0 0.63623 0.90835
0.092764 0.63207 0.90608
0.23003 0.62458 0.91165
0.37107 0.62144 0.91561
0.50443 0.62158 0.91311
0.62902 0.62186 0.90687
0.75491 0.62314 0.9001
0.89083 0.62626 0.89736
1 0.62558 0.90054
0 0.76923 0.90188
0.085169 0.76555 0.90216
0.22297 0.7559 0.90866
0.36842 0.74831 0.91406
0.50381 0.74514 0.91304
0.62898 0.74381 0.90608
0.7579 0.74483 0.89703
0.89447 0.74969 0.89184
1 0.75202 0.89327
0 0.89232 0.89761
0.079667 0.89429 0.89788
0.21443 0.88892 0.90282
0.36242 0.88112 0.90984
0.50015 0.87418 0.91128
0.62732 0.86952 0.90554
0.76122 0.8694 0.89663
0.89824 0.87268 0.89081
1 0.87519 0.89041
0 1 0.89423
0.082909 1 0.89344
0.21196 1 0.8962
0.35524 1 0.90334
0.49243 1 0.90684
0.62307 1 0.90387
0.76248 0.9986 0.89727
0.90007 0.99844 0.89339
1 0.99927 0.89227
0 0 1
0.075493 0 1
0.23643 0 1
0.38763 0 1
0.52129 0 1
0.65235 0 1
0.78312 0 1
0.90221 0 1
1 0 1
0 0.074164 1
0.082971 0.080947 1
0.23931 0.088747 1
0.38246 0.087815 1
0.5142 0.080874 1
0.64769 0.071998 1
0.78549 0.06514 1
0.91117 0.065316 1
1 0.074102 1
0 0.22023 1
0.090541 0.22572 1
0.24285 0.23071 1
0.37808 0.23024 1
0.50603 0.22593 1
0.6372 0.21826 1
0.77582 0.20684 1
0.9094 0.19632 1
1 0.19589 1
0 0.36347 1
0.09406 0.36733 1
0.24251 0.36657 1
0.3762 0.36441 1
0.50212 0.3633 1
0.62914 0.35979 1
0.76338 0.35102 1
0.90035 0.34005 1
1 0.33543 1
0 0.49792 1
0.095141 0.49955 1
0.23943 0.49743 1
0.37463 0.4945 1
0.50167 0.49335 1
0.62565 0.49225 1
0.75497 0.48808 1
0.89387 0.48232 1
1 0.47762 1
0 0.63078 1
0.093535 0.63029 1
0.23638 0.62529 1
0.37246 0.622 1
0.50071 0.62003 1
0.62438 0.6186 1
0.75206 0.61703 1
0.89152 0.61701 1
1 0.61479 1
0 0.76211 1
0.08888 0.76192 1
0.23061 0.75355 1
0.36999 0.74731 1
0.49943 0.74564 1
0.62232 0.74366 1
0.75193 0.74201 1
0.89293 0.74407 1
1 0.74474 1
0 0.88599 1
0.084169 0.88934 1
0.2227 0.88313 1
0.3662 0.877 1
0.49735 0.87286 1
0.62013 0.8699 1
0.75292 0.86964 1
0.89506 0.8721 1
1 0.87284 1
0 0.99993 1
0.085801 1 1
0.21947 1 1
0.36134 1 1
0.49252 1 1
0.61777 0.99865 1
0.75527 0.99798 1
0.89692 0.99985 1
1 1 1
