a - Ai/luts/2x_KemonoScale_v2.cube
LUT_3D_SIZE 5
0 0 0
0.26314 0.00058674 0
0.52393 0 0
0.78812 0 0
1 0.0034506 0
0.00063974 0.24763 0
0.2666 0.24787 0
0.51657 0.24883 0
0.78533 0.24699 0
1 0.23543 0
0 0.52429 0
0.26033 0.51039 0
0.51751 0.50247 0
0.78241 0.50589 0
1 0.49737 0
0 0.7833 0
0.24487 0.77583 0
0.51639 0.76315 0
0.77816 0.75734 0
1 0.75546 0
0.0027659 1 0
0.23895 1 0
0.50683 1 0
0.77371 1 0
1 0.99819 0
0 0 0.28188
0.24685 0 0.26516
0.51068 0 0.24033
0.78406 0 0.23094
1 0 0.22264
0 0.24043 0.26498
0.25596 0.24449 0.25354
0.50788 0.24615 0.24248
0.78068 0.24337 0.23434
1 0.23565 0.22029
0 0.52442 0.25678
0.25242 0.51467 0.24822
0.50824 0.50827 0.24145
0.77609 0.50859 0.23459
1 0.4972 0.2284
0 0.77664 0.24835
0.2393 0.77053 0.24064
0.50274 0.75705 0.23461
0.7707 0.74995 0.22364
1 0.74846 0.22199
0 1 0.25042
0.23268 1 0.24
0.49088 1 0.23227
0.76398 1 0.22026
1 1 0.21913
0 0 0.54285
0.22507 0 0.52797
0.49713 0 0.51815
0.78206 0 0.5152
1 0 0.51167
0 0.227 0.53611
0.24155 0.23318 0.52385
0.50026 0.24602 0.50994
0.76976 0.24644 0.50433
1 0.23241 0.49575
0 0.51217 0.52024
0.24086 0.50105 0.50986
0.50911 0.49755 0.50322
0.76845 0.50169 0.50316
1 0.50221 0.4909
0 0.777 0.5172
0.22688 0.76848 0.50291
0.50308 0.75453 0.49504
0.76939 0.74517 0.50301
1 0.74709 0.49916
0 1 0.5179
0.21972 1 0.50174
0.48672 1 0.49347
0.76462 1 0.49867
1 0.99955 0.49786
0 0 0.79399
0.2233 0 0.78422
0.50334 0 0.80162
0.78167 0 0.80922
1 0 0.80467
0 0.2178 0.78415
0.22992 0.22914 0.77419
0.4955 0.23396 0.77768
0.76768 0.22908 0.77742
1 0.21071 0.78249
0 0.50309 0.77747
0.23064 0.49359 0.77584
0.50645 0.49647 0.77246
0.75836 0.50374 0.76138
1 0.49872 0.76071
0 0.7735 0.76728
0.2172 0.7625 0.7681
0.50689 0.7475 0.77231
0.76602 0.74567 0.76143
1 0.75471 0.75559
0 1 0.76314
0.20859 1 0.75942
0.49091 1 0.76334
0.76638 0.99935 0.76058
1 0.99713 0.75963
0 0 1
0.23643 0 1
0.52129 0 1
0.78312 0 1
1 0 1
0 0.22023 1
0.24285 0.23071 1
0.50603 0.22593 1
0.77582 0.20684 1
1 0.19589 1
0 0.49792 1
0.23943 0.49743 1
0.50167 0.49335 1
0.75497 0.48808 1
1 0.47762 1
0 0.76211 1
0.23061 0.75355 1
0.49943 0.74564 1
0.75193 0.74201 1
1 0.74474 1
0 0.99993 1
0.21947 1 1
0.49252 1 1
0.75527 0.99798 1
1 1 1
