a - Ai/luts/2x_QDCU.cube
LUT_3D_SIZE 9
0 0 0
0.12255 0 0.005751
0.28228 0 0.0041832
0.41351 0 0
0.52004 0 0
0.6316 0 0
0.77399 0 0
0.9479 0 0
1 0 0.0021993
0 0.15218 0
0.1178 0.13466 0.003776
0.27978 0.12704 0.007956
0.41102 0.12301 0.0021514
0.51863 0.12055 0
0.6332 0.12099 0
0.77755 0.12611 0
0.9438 0.13081 0
1 0.12578 0.0041266
0 0.30731 0
0.10387 0.28991 0
0.27018 0.27047 0.0034161
0.40457 0.2601 0.00089611
0.5151 0.25467 0
0.63525 0.25235 0
0.78343 0.25384 0
0.93997 0.25376 0
1 0.25183 0
0 0.45535 0
0.090176 0.44122 0
0.25457 0.42599 0
0.39235 0.41458 0
0.50806 0.4073 0
0.63177 0.40336 0
0.78061 0.39727 0
0.93248 0.38757 0
1 0.38197 0
0 0.59128 0
0.077822 0.57972 0
0.24315 0.56273 0
0.38281 0.5533 0
0.50259 0.55048 0
0.62661 0.54898 0
0.77172 0.54451 0
0.92101 0.53151 0
1 0.52286 0
0 0.72332 0
0.065345 0.71903 0
0.23005 0.70058 0
0.37582 0.69024 0
0.4995 0.68841 0
0.62489 0.69026 0
0.76358 0.68761 0
0.90852 0.67693 0
1 0.66882 0
0 0.84486 0
0.056139 0.8508 0
0.21655 0.84064 0
0.36857 0.83113 0
0.50002 0.83099 0
0.62486 0.83428 0
0.75394 0.83084 0
0.89892 0.82321 0
1 0.81746 0
0 0.94071 0
0.056131 0.95404 0
0.21115 0.96152 0
0.36707 0.96307 0
0.50161 0.96662 0
0.6229 0.96836 0
0.74699 0.96475 0
0.89411 0.96271 0
1 0.9592 0
0 0.99952 0
0.060656 1 0
0.21537 1 0
0.37201 1 0
0.50504 1 0
0.62125 1 0
0.74485 1 0
0.89289 1 0
1 1 0
0.0088773 0 0.12597
0.11968 0 0.1277
0.27266 0 0.11199
0.4042 0 0.097165
0.51313 0 0.087691
0.63044 0 0.086699
0.78593 0 0.10062
0.95744 0 0.11521
1 0 0.11052
0.0034525 0.13545 0.12314
0.11877 0.12861 0.12706
0.27325 0.12668 0.114
0.40346 0.12427 0.10223
0.51242 0.1238 0.093482
0.62927 0.12517 0.090424
0.78409 0.12688 0.09834
0.95903 0.12698 0.1187
1 0.12585 0.11571
0 0.28946 0.10814
0.11246 0.27688 0.11884
0.2674 0.26715 0.11058
0.39893 0.26102 0.10148
0.51064 0.25641 0.095889
0.63042 0.2534 0.093425
0.78554 0.25419 0.094816
0.95654 0.25122 0.11325
1 0.25019 0.11461
0 0.43658 0.090869
0.1024 0.42638 0.10443
0.25621 0.41763 0.10397
0.39115 0.41076 0.099687
0.50413 0.40511 0.096124
0.62607 0.39969 0.093028
0.78182 0.39298 0.093619
0.95065 0.38256 0.11146
1 0.38082 0.11525
0 0.57676 0.072808
0.09338 0.56401 0.08802
0.24762 0.55236 0.093431
0.38421 0.5465 0.093383
0.49857 0.54377 0.091078
0.62081 0.54123 0.086532
0.77383 0.53639 0.086831
0.94074 0.52188 0.10659
1 0.51646 0.1144
0 0.72051 0.058708
0.080394 0.7078 0.072364
0.23636 0.6914 0.080993
0.3774 0.68257 0.083174
0.49544 0.6794 0.08129
0.62055 0.68105 0.077266
0.76631 0.67921 0.078257
0.92795 0.66554 0.097884
1 0.65878 0.11004
0 0.85319 0.051768
0.067428 0.84853 0.060671
0.22251 0.8351 0.06897
0.36788 0.82479 0.071409
0.49447 0.82246 0.068462
0.62087 0.82459 0.064517
0.75778 0.82009 0.066654
0.9145 0.80868 0.08442
1 0.79961 0.10121
0 0.94947 0.05117
0.064341 0.9585 0.054975
0.21473 0.95937 0.060151
0.36174 0.95664 0.060291
0.4935 0.95686 0.05465
0.61751 0.9565 0.048987
0.74848 0.94966 0.050149
0.90534 0.9416 0.064623
1 0.93465 0.081711
0 1 0.053042
0.068773 1 0.055356
0.21645 1 0.057621
0.36242 1 0.054175
0.494 1 0.045325
0.61391 1 0.036667
0.74338 1 0.035071
0.90106 1 0.045478
1 1 0.062559
0.012237 0.001459 0.28705
0.10981 0.0029439 0.28161
0.25 0.0047577 0.26921
0.39006 0.0036913 0.25503
0.51189 0 0.2512
0.64843 0 0.26628
0.80613 0 0.28602
0.949 0 0.28214
1 0 0.27364
0.011919 0.12393 0.28381
0.1106 0.12108 0.28142
0.25315 0.12317 0.269
0.38961 0.12458 0.25278
0.50959 0.12568 0.24787
0.64361 0.12268 0.2623
0.80861 0.12172 0.28409
0.9494 0.12565 0.27774
1 0.12505 0.26752
0.0049893 0.27386 0.27683
0.10661 0.26856 0.27571
0.25105 0.26423 0.26474
0.38994 0.26155 0.25184
0.50905 0.25967 0.24807
0.63779 0.25615 0.25658
0.8108 0.25043 0.28199
0.95188 0.25057 0.27758
1 0.25275 0.26557
0 0.41662 0.26802
0.10208 0.41165 0.27027
0.24543 0.41071 0.25911
0.38494 0.40805 0.24842
0.5036 0.40172 0.24711
0.63161 0.39434 0.25412
0.80524 0.38524 0.27621
0.95277 0.38088 0.27804
1 0.38174 0.26962
0 0.55294 0.25514
0.096964 0.54507 0.26035
0.24374 0.5416 0.25221
0.38113 0.54121 0.24498
0.49665 0.53861 0.24273
0.62367 0.53279 0.24804
0.79703 0.52276 0.26882
0.94986 0.51593 0.2755
1 0.5151 0.26818
0 0.69868 0.23974
0.085917 0.68691 0.2447
0.23721 0.67709 0.23868
0.3779 0.67203 0.23746
0.49387 0.66957 0.2381
0.62184 0.67043 0.24141
0.78723 0.66556 0.25822
0.94529 0.65597 0.27218
1 0.65448 0.26605
0 0.839 0.22298
0.071469 0.82924 0.22484
0.22603 0.81858 0.21986
0.36999 0.81031 0.22232
0.49275 0.80664 0.22551
0.62259 0.80703 0.22918
0.77826 0.80109 0.24476
0.94045 0.79104 0.26649
1 0.79004 0.26257
0 0.94732 0.21032
0.064996 0.94769 0.2085
0.21711 0.94518 0.20391
0.36161 0.93901 0.20636
0.48986 0.93494 0.20855
0.6199 0.93101 0.21171
0.76864 0.92192 0.22689
0.93626 0.91198 0.25654
1 0.91135 0.25589
0 1 0.2081
0.068058 1 0.20355
0.21462 1 0.19814
0.35695 1 0.1977
0.4865 1 0.19725
0.61401 1 0.19823
0.76128 1 0.21246
0.93402 0.9932 0.24499
1 0.99286 0.24746
0.0011801 0.0042015 0.41642
0.10225 0.0076125 0.40765
0.2442 0.0069234 0.4066
0.38466 0.002925 0.40873
0.52165 0 0.41685
0.6711 0 0.43196
0.80585 0 0.43352
0.93978 0 0.42776
1 0 0.42377
0.0048373 0.11842 0.41537
0.10404 0.11908 0.40846
0.24311 0.12066 0.40471
0.38183 0.11853 0.40469
0.51923 0.11808 0.41016
0.66791 0.11728 0.42463
0.80553 0.11664 0.42455
0.93758 0.11639 0.41623
1 0.11291 0.41119
0.0025383 0.26988 0.41315
0.10099 0.26672 0.40905
0.24142 0.26239 0.40485
0.38029 0.26047 0.40081
0.51646 0.25853 0.40428
0.66621 0.25097 0.42513
0.80859 0.25233 0.42326
0.93445 0.25431 0.41011
1 0.25502 0.40204
0 0.41074 0.41009
0.096829 0.40961 0.4069
0.23506 0.40684 0.40248
0.37875 0.40219 0.39807
0.50948 0.3978 0.39937
0.65846 0.3857 0.42018
0.81056 0.37931 0.42534
0.9386 0.38098 0.4136
1 0.38484 0.40434
0 0.54031 0.40527
0.095572 0.53677 0.40521
0.23257 0.5356 0.39933
0.37576 0.53635 0.39147
0.50196 0.53244 0.39413
0.64792 0.52267 0.41272
0.80668 0.51471 0.42064
0.94018 0.51261 0.41278
1 0.51246 0.4065
0 0.68096 0.39275
0.086123 0.67079 0.39524
0.22985 0.66173 0.39121
0.37693 0.66151 0.3836
0.49846 0.66208 0.38624
0.64124 0.65987 0.40426
0.80217 0.65465 0.41585
0.93714 0.65293 0.40886
1 0.65148 0.40217
0 0.8215 0.3784
0.06978 0.81031 0.38069
0.22094 0.79941 0.37485
0.37449 0.79401 0.37105
0.49939 0.79166 0.377
0.63787 0.79155 0.39278
0.80112 0.78877 0.41297
0.93483 0.78831 0.4084
1 0.78813 0.39986
0 0.93488 0.36378
0.059125 0.92983 0.36352
0.21421 0.92596 0.35523
0.36745 0.91886 0.35374
0.49784 0.91168 0.36157
0.63493 0.90676 0.37764
0.80053 0.9014 0.40575
0.93517 0.90155 0.40608
1 0.90297 0.39725
0 1 0.36004
0.058019 1 0.35591
0.21008 1 0.3447
0.35954 1 0.34355
0.49235 1 0.35037
0.6289 1 0.36623
0.79741 0.98712 0.40004
0.93633 0.98519 0.40375
1 0.9872 0.39472
0 0.0024731 0.53649
0.096009 0.0077817 0.52696
0.24785 0.0085863 0.52705
0.40121 0 0.54486
0.53914 0 0.56914
0.66988 0 0.56828
0.80186 0 0.5608
0.93479 0 0.55717
1 0 0.55536
0 0.11915 0.53514
0.098691 0.12128 0.52684
0.24592 0.11944 0.52784
0.39233 0.11567 0.53885
0.53366 0.11126 0.55872
0.6653 0.10859 0.55564
0.79843 0.10538 0.54655
0.93189 0.10104 0.54152
1 0.096095 0.54135
0 0.26819 0.53552
0.095918 0.26731 0.52846
0.2409 0.26286 0.52769
0.38805 0.2561 0.53853
0.53292 0.25297 0.55557
0.66305 0.25321 0.55021
0.79482 0.2536 0.53755
0.92465 0.25217 0.52804
1 0.25012 0.5274
0 0.4082 0.53044
0.09252 0.40814 0.52528
0.23509 0.40446 0.52579
0.38051 0.397 0.53239
0.52772 0.38544 0.5493
0.66437 0.37978 0.55025
0.79651 0.38111 0.53757
0.92545 0.38443 0.52526
1 0.38709 0.52258
0 0.53577 0.52638
0.091711 0.53533 0.52214
0.23023 0.53301 0.52235
0.37443 0.52814 0.52641
0.51769 0.5211 0.53683
0.66038 0.51299 0.54448
0.79783 0.51011 0.53796
0.92994 0.51125 0.52752
1 0.51315 0.52317
0 0.6727 0.52262
0.086593 0.66506 0.52126
0.22569 0.65701 0.52127
0.37281 0.65424 0.52059
0.5137 0.65397 0.52935
0.65686 0.65475 0.54036
0.79457 0.65406 0.53557
0.92847 0.65143 0.52747
1 0.64762 0.52388
0 0.80776 0.51312
0.07266 0.79759 0.51371
0.21811 0.78502 0.51702
0.37343 0.78152 0.51472
0.513 0.78189 0.52207
0.66075 0.78339 0.54125
0.79659 0.78945 0.53849
0.9231 0.79085 0.52826
1 0.78809 0.52169
0 0.92639 0.50161
0.059861 0.91854 0.502
0.21037 0.90886 0.50406
0.37091 0.90076 0.50303
0.51244 0.89628 0.51235
0.66262 0.89406 0.53628
0.80231 0.89688 0.53891
0.92311 0.89964 0.52871
1 0.89993 0.51968
0 1 0.49887
0.054167 1 0.49766
0.20386 1 0.49555
0.36432 1 0.49436
0.50771 1 0.50718
0.66038 0.99014 0.535
0.80379 0.98803 0.54116
0.92428 0.98905 0.53205
1 0.99053 0.52216
0 0.0015626 0.66699
0.090142 0.0074197 0.66367
0.26642 0 0.68026
0.42902 0 0.70868
0.54629 0 0.71442
0.66491 0 0.71386
0.79548 0 0.70826
0.93234 0 0.70276
1 0 0.70484
0 0.1199 0.66911
0.095065 0.12387 0.66477
0.25541 0.12272 0.67228
0.41741 0.11183 0.69695
0.53706 0.10392 0.70269
0.65748 0.096289 0.70024
0.79153 0.088399 0.69444
0.93156 0.082179 0.69081
1 0.079118 0.69516
0 0.26536 0.6668
0.093925 0.26463 0.66333
0.25098 0.25828 0.67237
0.41129 0.25347 0.69366
0.53069 0.25056 0.69697
0.6478 0.24825 0.68762
0.78237 0.24583 0.67536
0.92342 0.24039 0.67099
1 0.23492 0.67767
0 0.40153 0.6603
0.090442 0.40195 0.65541
0.24373 0.39684 0.66174
0.40567 0.38256 0.68818
0.52804 0.37732 0.69231
0.64672 0.3773 0.67953
0.78062 0.37968 0.66352
0.92057 0.3802 0.65657
1 0.37961 0.66016
0 0.53464 0.65628
0.088606 0.53459 0.65052
0.23732 0.53073 0.65475
0.39361 0.51921 0.67738
0.5243 0.50943 0.68994
0.64851 0.50895 0.6782
0.78239 0.51126 0.66038
0.92128 0.5129 0.65064
1 0.51188 0.65115
0 0.67022 0.65506
0.084029 0.66528 0.6496
0.23135 0.6568 0.65381
0.38642 0.65117 0.67338
0.52256 0.65203 0.6872
0.64753 0.65458 0.6771
0.78319 0.65433 0.66231
0.92097 0.65327 0.65315
1 0.65012 0.65068
0 0.79515 0.64875
0.07535 0.787 0.64625
0.22437 0.77759 0.65128
0.38383 0.77241 0.6693
0.52847 0.77561 0.68762
0.65363 0.78451 0.6773
0.78372 0.7918 0.66218
0.91538 0.79084 0.65364
1 0.78509 0.65229
0 0.92092 0.63939
0.063644 0.91332 0.63958
0.21749 0.90144 0.64886
0.37997 0.89339 0.6631
0.53336 0.89124 0.68436
0.66203 0.89545 0.67863
0.78961 0.90135 0.66417
0.9123 0.90377 0.65245
0.99491 0.90154 0.64906
0 1 0.63639
0.057348 1 0.63692
0.20892 1 0.6477
0.3757 1 0.66339
0.5317 0.99816 0.68466
0.66449 0.9953 0.68358
0.79305 0.9971 0.67133
0.91259 1 0.65916
0.99362 1 0.65389
0 0 0.82262
0.11039 0 0.84095
0.29799 0 0.87211
0.43191 0 0.87034
0.54657 0 0.86463
0.6661 0 0.86422
0.79618 0 0.86936
0.93293 0 0.87692
1 0 0.88151
0 0.12417 0.82122
0.10341 0.12512 0.83113
0.28093 0.11146 0.85622
0.42154 0.10202 0.85622
0.5393 0.094524 0.8546
0.66182 0.084874 0.85882
0.79462 0.075783 0.8669
0.93394 0.070233 0.87381
1 0.072137 0.88025
0 0.25997 0.82205
0.099551 0.25769 0.82673
0.27299 0.24978 0.84512
0.41584 0.24719 0.84521
0.52752 0.24413 0.84251
0.64573 0.23659 0.84482
0.78126 0.22421 0.85209
0.92999 0.21265 0.85896
1 0.20956 0.8698
0 0.39704 0.81811
0.093617 0.39238 0.82206
0.26845 0.38172 0.83881
0.41262 0.37785 0.84066
0.52136 0.37441 0.83609
0.63623 0.37089 0.83346
0.77137 0.36539 0.83271
0.92581 0.36032 0.83467
1 0.3569 0.84876
0 0.53337 0.81741
0.086765 0.53094 0.81632
0.26067 0.52139 0.83204
0.40899 0.51377 0.84206
0.51767 0.51359 0.83596
0.63116 0.51162 0.82958
0.76593 0.50727 0.82015
0.92357 0.50417 0.81696
1 0.49933 0.83091
0 0.6671 0.81616
0.08092 0.66216 0.81329
0.25314 0.65465 0.82595
0.40769 0.65251 0.8445
0.51927 0.65429 0.84265
0.62785 0.65595 0.83242
0.76336 0.6563 0.81521
0.91801 0.65383 0.80689
1 0.64464 0.81729
0 0.78445 0.80858
0.074826 0.77962 0.80621
0.24706 0.77149 0.82132
0.41046 0.7697 0.84521
0.52293 0.77439 0.8438
0.63214 0.77985 0.83166
0.76731 0.78727 0.81341
0.91134 0.78806 0.80329
1 0.78119 0.80802
0 0.91684 0.80603
0.070042 0.91302 0.80624
0.23808 0.90698 0.82248
0.41083 0.89763 0.85248
0.52772 0.89807 0.85071
0.63875 0.90219 0.83259
0.77298 0.90834 0.81252
0.90767 0.90868 0.80516
0.9998 0.90553 0.80871
0 1 0.80684
0.068384 1 0.8105
0.23128 1 0.82927
0.40646 1 0.86051
0.52798 1 0.86093
0.64307 1 0.8411
0.77606 1 0.8201
0.90661 1 0.81201
0.99714 1 0.81651
0 0 0.96809
0.1439 0 0.99662
0.29946 0 1
0.42345 0 0.99302
0.54278 0 0.98425
0.66849 0 0.98295
0.80597 0 0.99004
0.94389 0 1
1 0 1
0 0.12156 0.9555
0.12972 0.11432 0.98036
0.28293 0.09912 0.9885
0.41715 0.090325 0.98193
0.54196 0.085502 0.97884
0.66944 0.079514 0.98274
0.80545 0.073467 0.99336
0.94557 0.069758 1
1 0.076315 1
0 0.26029 0.94986
0.11987 0.25322 0.97143
0.27224 0.24478 0.98021
0.41015 0.242 0.97034
0.53019 0.23731 0.96679
0.65585 0.22618 0.97369
0.79349 0.20951 0.98874
0.94448 0.19688 1
1 0.19993 1
0 0.39507 0.95088
0.10952 0.38949 0.96881
0.26828 0.38057 0.97917
0.40569 0.37778 0.96663
0.51977 0.37248 0.95988
0.64167 0.36417 0.96418
0.77896 0.35015 0.97853
0.94048 0.33879 0.99808
1 0.33906 1
0 0.53392 0.95107
0.099758 0.52605 0.96965
0.26541 0.51958 0.98213
0.40086 0.51861 0.96779
0.51251 0.51685 0.95837
0.63053 0.51051 0.95815
0.76556 0.4961 0.96673
0.93842 0.48573 0.98272
1 0.4831 1
0 0.66181 0.95009
0.089911 0.65528 0.96485
0.26676 0.65116 0.98434
0.40306 0.65603 0.97352
0.51223 0.66069 0.96187
0.62012 0.65939 0.95674
0.75406 0.65105 0.95669
0.9296 0.63995 0.96495
1 0.62656 0.98731
0 0.77984 0.94554
0.082818 0.77332 0.95656
0.26924 0.76919 0.97906
0.40903 0.7721 0.97627
0.51708 0.77669 0.96789
0.62029 0.78007 0.95942
0.75185 0.7845 0.94902
0.917 0.7799 0.94763
1 0.76556 0.96872
0 0.92322 0.9538
0.077826 0.92048 0.96127
0.26629 0.91409 0.98628
0.41217 0.91172 0.98808
0.51908 0.91122 0.98003
0.62323 0.91028 0.97077
0.75831 0.91442 0.95681
0.90988 0.91968 0.94879
1 0.91633 0.96472
0 1 0.95973
0.077967 1 0.96571
0.26095 1 0.99203
0.41128 1 0.99966
0.51693 1 0.99149
0.62334 1 0.97864
0.76293 1 0.96329
0.91248 1 0.96139
1 1 0.97568
0.0026233 0 1
0.14796 0 1
0.29831 0 1
0.42102 0 1
0.54138 0 1
0.66901 0 1
0.8091 0 1
0.94733 0 1
1 0 1
0 0.11901 0.99248
0.13432 0.11107 1
0.28264 0.096665 1
0.41574 0.087489 1
0.54224 0.083285 1
0.67107 0.078541 1
0.80895 0.073693 1
0.94955 0.071461 1
1 0.078801 1
0 0.25953 0.98429
0.12542 0.25176 1
0.27102 0.24432 1
0.40838 0.2408 1
0.5311 0.23546 1
0.65886 0.22388 1
0.79789 0.20722 1
0.94945 0.19629 1
1 0.20062 1
0 0.39562 0.98441
0.11563 0.38955 1
0.26633 0.38085 1
0.40296 0.37784 1
0.51988 0.37182 0.99396
0.64445 0.36249 0.99935
0.78324 0.34733 1
0.94601 0.33559 1
1 0.33703 1
0 0.53399 0.98612
0.10651 0.52597 1
0.26281 0.52075 1
0.39764 0.51946 1
0.51152 0.51705 0.99155
0.63203 0.50946 0.99304
0.7688 0.49296 1
0.94434 0.4815 1
1 0.48079 1
0 0.66071 0.98528
0.096645 0.65309 1
0.2654 0.65061 1
0.39965 0.65733 1
0.51032 0.66197 0.99323
0.62017 0.65951 0.98998
0.75528 0.64848 0.99544
0.9358 0.63453 1
1 0.62199 1
0 0.7801 0.98271
0.087882 0.77264 0.99886
0.26992 0.7692 1
0.40707 0.77309 1
0.5153 0.77859 0.99923
0.61859 0.78185 0.99174
0.75018 0.78377 0.98696
0.92158 0.77583 0.99308
1 0.76047 1
0 0.92595 0.99297
0.081472 0.92256 1
0.2687 0.91707 1
0.41048 0.91566 1
0.51744 0.91481 1
0.62131 0.91314 1
0.75514 0.91733 0.99553
0.91238 0.923 0.99251
1 0.91851 1
0 1 0.99884
0.080698 1 1
0.26548 1 1
0.40993 1 1
0.51454 1 1
0.62043 1 1
0.76049 1 1
0.91565 1 1
1 1 1
