a - Ai/luts/2x_QDCU.cube
LUT_3D_SIZE 33
0 0 0
0.020377 0 0
0.049349 0 0.0012289
0.084165 0 0.0041341
0.12255 0 0.005751
0.16263 0 0.0061512
0.20354 0 0.0057971
0.24383 0 0.0051042
0.28228 0 0.0041832
0.31831 0 0.0029459
0.35202 0 0.0012869
0.38369 0 0
0.41351 0 0
0.44166 0 0
0.46843 0 0
0.49435 0 0
0.52004 0 0
0.54608 0 0
0.57302 0 0
0.60137 0 0
0.6316 0 0
0.66391 0 0
0.69845 0 0
0.7352 0 0
0.77399 0 0
0.81491 0 0
0.85829 0 0
0.90389 0 0
0.9479 0 0
0.98475 0 0
1 0 0.00079031
1 0 0.0018922
1 0 0.0021993
0 0.032251 0
0.018612 0.029489 0
0.048242 0.027236 0.00097016
0.083675 0.025639 0.0043453
0.12251 0.024752 0.0063638
0.16277 0.024505 0.007055
0.20356 0.024483 0.0068949
0.24363 0.024237 0.0063731
0.28192 0.023773 0.0056384
0.31792 0.023252 0.0045338
0.35171 0.022799 0.0029791
0.38344 0.022454 0.0010451
0.41324 0.022159 0
0.44133 0.021842 0
0.46807 0.0215 0
0.494 0.0212 0
0.51971 0.020969 0
0.54579 0.020769 0
0.5728 0.020628 0
0.60128 0.020632 0
0.63165 0.020806 0
0.66407 0.021137 0
0.69871 0.021601 0
0.73544 0.022189 0
0.77417 0.022749 0
0.81492 0.023174 0
0.85801 0.02326 0
0.90324 0.022892 0
0.94733 0.022042 0
0.9844 0.021026 0
1 0.020112 0.0017312
1 0.019594 0.0032181
1 0.019321 0.0037994
0 0.071258 0
0.016025 0.06777 0
0.046255 0.064728 0
0.082321 0.062028 0.003864
0.12175 0.06005 0.0064323
0.16255 0.058942 0.0075999
0.20345 0.05847 0.0077943
0.24333 0.058134 0.0074683
0.28141 0.057606 0.0068574
0.31736 0.05696 0.0058395
0.35121 0.056342 0.0043648
0.38298 0.055789 0.002539
0.41277 0.055306 0.00048312
0.44083 0.054843 0
0.46759 0.054415 0
0.4936 0.054077 0
0.51941 0.053831 0
0.54557 0.053683 0
0.57271 0.05367 0
0.6014 0.05384 0
0.63195 0.054179 0
0.66458 0.054707 0
0.69938 0.055484 0
0.73617 0.056505 0
0.77481 0.057654 0
0.81537 0.058695 0
0.85811 0.059557 0
0.90271 0.0598 0
0.94626 0.05899 0
0.98299 0.057375 0
1 0.055731 0.0018616
1 0.054596 0.0037974
1 0.053782 0.0047534
0 0.11175 0
0.012576 0.10756 0
0.043439 0.10371 0
0.080032 0.10015 0.0023462
0.12012 0.097133 0.0056425
0.16163 0.095071 0.0074485
0.20296 0.093842 0.0081584
0.24285 0.093062 0.0081693
0.28074 0.092321 0.0077078
0.3166 0.091502 0.0067496
0.35046 0.090718 0.0053144
0.38222 0.089972 0.003553
0.41201 0.089268 0.0016048
0.44013 0.088618 0
0.46701 0.088058 0
0.49314 0.087644 0
0.51906 0.087359 0
0.54538 0.08718 0
0.57275 0.087188 0
0.6017 0.087422 0
0.63249 0.087876 0
0.66538 0.088592 0
0.70039 0.089607 0
0.73734 0.090878 0
0.77601 0.092388 0
0.8164 0.094009 0
0.8588 0.095542 0
0.90253 0.096425 0
0.94496 0.095965 0
0.98102 0.094337 0
1 0.092523 0.0012706
1 0.091157 0.0035286
1 0.090068 0.0047948
0 0.15218 0
0.00837 0.14747 0
0.03982 0.14289 0
0.077063 0.13841 0
0.1178 0.13466 0.003776
0.16001 0.13181 0.0063764
0.20181 0.12976 0.0077539
0.2419 0.12826 0.0082241
0.27978 0.12704 0.007956
0.3156 0.12595 0.0070614
0.34944 0.12492 0.005681
0.3812 0.12393 0.003995
0.41102 0.12301 0.0021514
0.43923 0.12219 0.0002693
0.46624 0.12151 0
0.49253 0.12097 0
0.51863 0.12055 0
0.54516 0.12031 0
0.57283 0.12027 0
0.60208 0.1205 0
0.6332 0.12099 0
0.66641 0.12181 0
0.70169 0.12297 0
0.73881 0.12442 0
0.77755 0.12611 0
0.81789 0.12803 0
0.85991 0.12984 0
0.90259 0.13094 0
0.9438 0.13081 0
0.9791 0.12952 0
1 0.12803 0.00023628
1 0.12681 0.0026671
1 0.12578 0.0041266
0 0.19176 0
0.0037158 0.18693 0
0.03556 0.18194 0
0.073455 0.17674 0
0.115 0.17223 0.00091398
0.15776 0.16869 0.0043466
0.19994 0.1658 0.0064796
0.24032 0.16344 0.0075318
0.2784 0.1616 0.0075614
0.3143 0.16013 0.0067729
0.34814 0.15882 0.0054669
0.37989 0.15759 0.0038689
0.40977 0.15643 0.0021474
0.4381 0.15539 0.00041402
0.46529 0.15449 0
0.49177 0.15375 0
0.51807 0.15319 0
0.5449 0.15286 0
0.57288 0.15278 0
0.60246 0.15294 0
0.63398 0.15339 0
0.66757 0.1542 0
0.70312 0.15538 0
0.74039 0.15684 0
0.77922 0.15856 0
0.8196 0.16048 0
0.86107 0.16226 0
0.90276 0.16328 0
0.94282 0.1632 0
0.97751 0.16221 0
1 0.16112 0
1 0.16024 0.0015128
1 0.15951 0.0030775
0 0.23033 0
0 0.22573 0
0.031081 0.2208 0
0.069401 0.21543 0
0.11166 0.21035 0
0.15491 0.20597 0.0015425
0.19732 0.2022 0.0044527
0.23796 0.19895 0.0060986
0.27646 0.19628 0.0065758
0.31265 0.19428 0.0060444
0.34656 0.19268 0.0048871
0.37833 0.19123 0.003384
0.40825 0.18989 0.0017711
0.43672 0.18866 0.00015086
0.46406 0.18755 0
0.49074 0.18659 0
0.51733 0.18582 0
0.5445 0.18532 0
0.57284 0.18509 0
0.60277 0.18514 0
0.63468 0.1855 0
0.66866 0.1862 0
0.7045 0.18721 0
0.74196 0.18852 0
0.7809 0.19013 0
0.82115 0.19186 0
0.8621 0.19327 0
0.90291 0.19408 0
0.94192 0.19391 0
0.97622 0.1931 0
1 0.19229 0
1 0.1917 0.00021346
1 0.19126 0.001863
0 0.26855 0
0 0.2644 0
0.026744 0.25984 0
0.065298 0.25472 0
0.10785 0.24957 0
0.15134 0.24453 0
0.19391 0.23984 0.0019328
0.2348 0.23566 0.0042049
0.27373 0.23219 0.0051097
0.31046 0.22943 0.0049799
0.34465 0.22732 0.0041068
0.37654 0.22561 0.0027947
0.40653 0.2241 0.0013148
0.43511 0.22273 0
0.46259 0.22147 0
0.48944 0.22035 0
0.51633 0.21942 0
0.54386 0.21873 0
0.57254 0.21827 0
0.60287 0.21806 0
0.63519 0.21816 0
0.66955 0.21855 0
0.70567 0.21928 0
0.74335 0.22034 0
0.78239 0.22166 0
0.82239 0.2229 0
0.86285 0.22382 0
0.90291 0.22422 0
0.94098 0.22381 0
0.97516 0.223 0
1 0.22237 0
1 0.22199 0
1 0.22179 0.0006007
0 0.30731 0
0 0.30365 0
0.022668 0.29955 0
0.061306 0.29487 0
0.10387 0.28991 0
0.14719 0.28477 0
0.1897 0.27957 0
0.23078 0.27471 0.0020262
0.27018 0.27047 0.0034161
0.30741 0.26698 0.0036501
0.34211 0.26417 0.0031373
0.37437 0.26193 0.0021586
0.40457 0.2601 0.00089611
0.43327 0.25851 0
0.46088 0.25705 0
0.48792 0.25575 0
0.5151 0.25467 0
0.54291 0.25381 0
0.57189 0.25314 0
0.60256 0.25265 0
0.63525 0.25235 0
0.66998 0.25229 0
0.70646 0.25254 0
0.7444 0.25313 0
0.78343 0.25384 0
0.82318 0.25446 0
0.86319 0.25479 0
0.90256 0.25458 0
0.93997 0.25376 0
0.9741 0.25283 0
1 0.25218 0
1 0.25189 0
1 0.25183 0
0 0.34577 0
0 0.34258 0
0.018956 0.33895 0
0.057611 0.33474 0
0.099974 0.33017 0
0.143 0.32528 0
0.18522 0.32026 0
0.2263 0.31541 0
0.26594 0.31098 0.0013801
0.30355 0.30704 0.0020471
0.33876 0.30363 0.0019338
0.37151 0.30083 0.0013415
0.40212 0.29851 0.00044208
0.43104 0.29655 0
0.45883 0.29483 0
0.48612 0.29335 0
0.51356 0.2921 0
0.54164 0.29105 0
0.57088 0.29016 0
0.60182 0.2894 0
0.63481 0.2888 0
0.66987 0.28837 0
0.70669 0.28817 0
0.74475 0.28804 0
0.78377 0.28789 0
0.82333 0.28767 0
0.86296 0.28718 0
0.90171 0.28626 0
0.93869 0.28493 0
0.9729 0.28366 0
1 0.28286 0
1 0.28251 0
1 0.28248 0
0 0.38325 0
0 0.3803 0
0.015684 0.37694 0
0.054293 0.37308 0
0.096452 0.36886 0
0.13916 0.36436 0
0.18109 0.35974 0
0.22206 0.35528 0
0.26173 0.35115 0
0.29941 0.34733 1.0008e-005
0.33486 0.3438 0.00031073
0.36803 0.34062 0.00015737
0.39909 0.3379 0
0.42838 0.3356 0
0.45648 0.33365 0
0.4841 0.33201 0
0.5118 0.33064 0
0.5401 0.32946 0
0.56955 0.32841 0
0.60075 0.32748 0
0.63404 0.32672 0
0.66938 0.32611 0
0.70629 0.32549 0
0.74433 0.32477 0
0.78327 0.32395 0
0.82267 0.32292 0
0.86195 0.32163 0
0.90019 0.31988 0
0.93703 0.31794 0
0.97143 0.3163 0
0.9999 0.31528 0
1 0.31483 0
1 0.31474 0
0 0.41979 0
0 0.4169 0
0.012634 0.41361 0
0.05124 0.40978 0
0.093248 0.40569 0
0.13574 0.40147 0
0.17746 0.39726 0
0.21832 0.39327 0
0.25793 0.38954 0
0.29556 0.38605 0
0.331 0.38278 0
0.36432 0.3797 0
0.39568 0.37688 0
0.42541 0.3744 0
0.45398 0.37235 0
0.48196 0.3707 0
0.50991 0.3693 0
0.53839 0.36803 0
0.56806 0.36693 0
0.59953 0.36597 0
0.63307 0.36511 0
0.66847 0.36419 0
0.70533 0.36309 0
0.74336 0.3619 0
0.78216 0.36059 0
0.82132 0.35908 0
0.86022 0.35719 0
0.89804 0.35482 0
0.93492 0.35237 0
0.96963 0.35026 0
0.99868 0.34889 0
1 0.34821 0
1 0.34799 0
0 0.45535 0
0 0.45255 0
0.0096724 0.44931 0
0.048216 0.44545 0
0.090176 0.44122 0
0.13259 0.43699 0
0.17424 0.43298 0
0.21507 0.42933 0
0.25457 0.42599 0
0.29213 0.42283 0
0.32754 0.41988 0
0.36087 0.41714 0
0.39235 0.41458 0
0.42239 0.41223 0
0.45144 0.41024 0
0.47983 0.40861 0
0.50806 0.4073 0
0.53672 0.40621 0
0.56659 0.40528 0
0.59825 0.40438 0
0.63177 0.40336 0
0.66708 0.40206 0
0.7039 0.40057 0
0.74191 0.39899 0
0.78061 0.39727 0
0.81953 0.39534 0
0.85797 0.39302 0
0.89553 0.39029 0
0.93248 0.38757 0
0.96746 0.38517 0
0.99711 0.38343 0
1 0.38245 0
1 0.38197 0
0 0.49009 0
0 0.48742 0
0.0067813 0.48431 0
0.045209 0.48042 0
0.087063 0.47611 0
0.1295 0.4717 0
0.17125 0.46763 0
0.21214 0.46407 0
0.25161 0.46088 0
0.28912 0.45802 0
0.3245 0.45538 0
0.35787 0.45295 0
0.38942 0.45075 0
0.41964 0.44878 0
0.44901 0.44704 0
0.47778 0.44556 0
0.50637 0.4444 0
0.53535 0.44352 0
0.56538 0.44286 0
0.59692 0.44212 0
0.63021 0.44105 0
0.66534 0.43963 0
0.70213 0.43794 0
0.74008 0.43607 0
0.77865 0.43401 0
0.81733 0.43169 0
0.85537 0.42895 0
0.8928 0.42594 0
0.92987 0.42302 0
0.96509 0.42044 0
0.99523 0.41851 0
1 0.41733 0
1 0.4166 0
0 0.52419 0
0 0.52176 0
0.0040159 0.51885 0
0.042227 0.51505 0
0.083976 0.51066 0
0.12638 0.50617 0
0.16828 0.50194 0
0.20929 0.49822 0
0.24882 0.49499 0
0.2864 0.49216 0
0.32181 0.4897 0
0.35524 0.48752 0
0.38693 0.48558 0
0.41736 0.48397 0
0.44693 0.48263 0
0.47595 0.48154 0
0.50488 0.48064 0
0.53419 0.47995 0
0.56431 0.47937 0
0.59569 0.4787 0
0.62873 0.4778 0
0.66362 0.4766 0
0.70022 0.47504 0
0.73802 0.47314 0
0.77639 0.47094 0
0.81472 0.46832 0
0.85243 0.46521 0
0.88989 0.4619 0
0.92711 0.45874 0
0.96258 0.45597 0
0.99319 0.4539 0
1 0.45257 0
1 0.45167 0
0 0.55783 0
0 0.5558 0
0.001417 0.55317 0
0.039339 0.54954 0
0.080887 0.54517 0
0.12327 0.54056 0
0.16528 0.53618 0
0.20639 0.53225 0
0.24603 0.52885 0
0.28372 0.52593 0
0.31928 0.52342 0
0.35284 0.5213 0
0.38476 0.51956 0
0.41548 0.51822 0
0.44532 0.51724 0
0.47457 0.51654 0
0.50365 0.51599 0
0.53306 0.51546 0
0.56325 0.51491 0
0.59462 0.51436 0
0.62753 0.5137 0
0.66218 0.51279 0
0.69851 0.51156 0
0.73599 0.50997 0
0.77403 0.50786 0
0.81186 0.50515 0
0.84923 0.50183 0
0.88673 0.49831 0
0.92415 0.49491 0
0.95991 0.49196 0
0.99096 0.48971 0
1 0.48817 0
1 0.48703 0
0 0.59128 0
0 0.58968 0
0 0.58741 0
0.036518 0.58403 0
0.077822 0.57972 0
0.12013 0.57505 0
0.16219 0.57053 0
0.20337 0.56637 0
0.24315 0.56273 0
0.28098 0.55965 0
0.31672 0.55707 0
0.35054 0.55494 0
0.38281 0.5533 0
0.4139 0.55217 0
0.44404 0.55142 0
0.47347 0.55092 0
0.50259 0.55048 0
0.53204 0.55011 0
0.56228 0.54977 0
0.59373 0.5494 0
0.62661 0.54898 0
0.6611 0.54842 0
0.69715 0.5476 0
0.73425 0.54635 0
0.77172 0.54451 0
0.80892 0.54187 0
0.84596 0.53854 0
0.88343 0.53498 0
0.92101 0.53151 0
0.95708 0.52843 0
0.98846 0.52602 0
1 0.52425 0
1 0.52286 0
0 0.62468 0
0 0.62358 0
0 0.62174 0
0.033747 0.61865 0
0.074733 0.61441 0
0.11695 0.60971 0
0.15902 0.60507 0
0.20019 0.60073 0
0.24009 0.59686 0
0.27813 0.59356 0
0.31414 0.59085 0
0.3483 0.58874 0
0.38102 0.58725 0
0.41248 0.58626 0
0.44288 0.5856 0
0.47238 0.58507 0
0.50159 0.5847 0
0.53116 0.58446 0
0.56151 0.58429 0
0.59303 0.58414 0
0.62597 0.58397 0
0.66038 0.58374 0
0.69615 0.58329 0
0.73278 0.58238 0
0.76957 0.58077 0
0.80605 0.57828 0
0.84273 0.57512 0
0.88015 0.57165 0
0.91779 0.5682 0
0.95409 0.56509 0
0.98575 0.56263 0
1 0.56077 0
1 0.55925 0
0 0.65796 0
0 0.65742 0
0 0.65607 0
0.031035 0.65338 0
0.071589 0.6493 0
0.11369 0.64457 0
0.15571 0.63979 0
0.19688 0.63526 0
0.23688 0.63121 0
0.27514 0.62775 0
0.3115 0.62494 0
0.34616 0.62286 0
0.37934 0.62144 0
0.41112 0.62048 0
0.44164 0.61978 0
0.47127 0.6193 0
0.5007 0.61904 0
0.53043 0.61896 0
0.56089 0.61897 0
0.59251 0.61902 0
0.62549 0.61902 0
0.65993 0.61896 0
0.69544 0.61876 0
0.73152 0.6181 0
0.76755 0.61663 0
0.80333 0.61429 0
0.83968 0.61135 0
0.87692 0.60808 0
0.91455 0.60473 0
0.95106 0.60167 0
0.98294 0.59923 0
1 0.59737 0
1 0.59583 0
0 0.69092 0
0 0.69101 0
0 0.69018 0
0.028478 0.688 0
0.068416 0.68428 0
0.11032 0.6796 0
0.15224 0.6747 0
0.19341 0.66999 0
0.23354 0.66575 0
0.27207 0.66218 0
0.30885 0.65934 0
0.34408 0.65727 0
0.37765 0.65582 0
0.40965 0.65476 0
0.44039 0.65404 0
0.4703 0.65365 0
0.49997 0.65359 0
0.52989 0.65372 0
0.56048 0.65399 0
0.59214 0.65427 0
0.62512 0.65446 0
0.6595 0.6545 0
0.69483 0.65426 0
0.73036 0.65359 0
0.76558 0.65219 0
0.80074 0.64993 0
0.83676 0.64713 0
0.87381 0.64406 0
0.91143 0.64096 0
0.94805 0.63811 0
0.98013 0.63573 0
1 0.6339 0
1 0.63233 0
0 0.72332 0
0 0.72406 0
0 0.72387 0
0.026134 0.72226 0
0.065345 0.71903 0
0.10686 0.71462 0
0.14861 0.70974 0
0.18978 0.70494 0
0.23005 0.70058 0
0.26896 0.69689 0
0.30624 0.69401 0
0.34192 0.69186 0
0.37582 0.69024 0
0.40814 0.68914 0
0.43922 0.68848 0
0.46951 0.68826 0
0.4995 0.68841 0
0.52963 0.68882 0
0.56033 0.68933 0
0.59199 0.68983 0
0.62489 0.69026 0
0.65903 0.69041 0
0.694 0.69011 0
0.72904 0.6892 0
0.76358 0.68761 0
0.7982 0.6854 0
0.83392 0.68272 0
0.87086 0.67979 0
0.90852 0.67693 0
0.94523 0.67433 0
0.97738 0.67217 0
1 0.67043 0
1 0.66882 0
0 0.75517 0
0 0.7564 0
0 0.75683 0
0.02405 0.75594 0
0.06247 0.75332 0
0.10345 0.74943 0
0.14493 0.74479 0
0.18607 0.74007 0
0.22652 0.7357 0
0.26578 0.732 0
0.30354 0.729 0
0.33958 0.72662 0
0.37391 0.72487 0
0.40669 0.72376 0
0.43822 0.72322 0
0.46899 0.7232 0
0.49933 0.72358 0
0.52967 0.72422 0
0.56044 0.72497 0
0.59206 0.72572 0
0.62479 0.72632 0
0.65855 0.72655 0
0.69296 0.72619 0
0.72735 0.72506 0
0.76136 0.72318 0
0.79572 0.72092 0
0.83119 0.71841 0
0.86801 0.7157 0
0.90578 0.71301 0
0.94258 0.7106 0
0.9748 0.7086 0
1 0.70696 0
1 0.70544 0
0 0.78626 0
0 0.78794 0
0 0.7889 0
0.022375 0.78872 0
0.059871 0.78693 0
0.10029 0.78367 0
0.14138 0.77959 0
0.18242 0.7752 0
0.22302 0.77101 0
0.26259 0.76732 0
0.30067 0.76421 0
0.33714 0.76173 0
0.37199 0.75994 0
0.40532 0.75884 0
0.43745 0.75838 0
0.46872 0.75851 0
0.49941 0.75907 0
0.52996 0.75989 0
0.56082 0.76083 0
0.59236 0.76175 0
0.62482 0.76249 0
0.65805 0.76277 0
0.6917 0.76232 0
0.72534 0.76102 0
0.7589 0.75901 0
0.79319 0.75668 0
0.82863 0.75428 0
0.8654 0.75191 0
0.90318 0.74956 0
0.94002 0.74731 0
0.97232 0.74535 0
0.99899 0.74376 0
1 0.74225 0
0 0.81626 0
0 0.81829 0
0 0.81984 0
0.021129 0.8204 0
0.057721 0.81954 0
0.097472 0.81712 0
0.13821 0.81375 0
0.17902 0.80998 0
0.21967 0.80614 0
0.25941 0.80256 0
0.29783 0.79951 0
0.33477 0.79714 0
0.37016 0.79545 0
0.40408 0.79443 0
0.43682 0.79406 0
0.46863 0.79426 0
0.49968 0.7949 0
0.53045 0.79579 0
0.56135 0.7968 0
0.5928 0.7978 0
0.62489 0.79853 0
0.65747 0.79876 0
0.69031 0.79826 0
0.72318 0.79695 0
0.75637 0.795 0
0.79059 0.79275 0
0.82615 0.79044 0
0.86311 0.78831 0
0.90087 0.78638 0
0.93762 0.78448 0
0.96985 0.78272 0
0.99654 0.78116 0
1 0.77961 0
0 0.84486 0
0 0.84722 0
0 0.84927 0
0.02038 0.85069 0
0.056139 0.8508 0
0.095149 0.84947 0
0.13552 0.84697 0
0.1761 0.84396 0
0.21655 0.84064 0
0.25646 0.83739 0
0.29528 0.83466 0
0.33267 0.83258 0
0.36857 0.83113 0
0.40304 0.83029 0
0.43637 0.83008 0
0.46862 0.83036 0
0.50002 0.83099 0
0.53097 0.83188 0
0.5619 0.83284 0
0.5932 0.83369 0
0.62486 0.83428 0
0.65682 0.83439 0
0.68891 0.83385 0
0.72107 0.8326 0
0.75394 0.83084 0
0.78809 0.82881 0
0.82379 0.82673 0
0.86104 0.82483 0
0.89892 0.82321 0
0.93557 0.82171 0
0.96764 0.82027 0
0.99418 0.81892 0
1 0.81746 0
0 0.87188 0
0 0.87448 0
0 0.87697 0
0.020238 0.87913 0
0.055176 0.88032 0
0.093553 0.88011 0
0.13344 0.87885 0
0.17371 0.87665 0
0.21396 0.87402 0
0.25402 0.87145 0
0.2932 0.86923 0
0.33103 0.86758 0
0.36737 0.86647 0
0.40235 0.86595 0
0.43614 0.86596 0
0.46874 0.86635 0
0.50036 0.86703 0
0.53143 0.86784 0
0.56229 0.86862 0
0.59336 0.86927 0
0.62466 0.86964 0
0.65603 0.86956 0
0.68746 0.86892 0
0.7191 0.8677 0
0.75175 0.86615 0
0.78584 0.86443 0
0.82168 0.86272 0
0.85921 0.86116 0
0.89729 0.85983 0
0.93391 0.85868 0
0.96579 0.85756 0
0.99209 0.85643 0
1 0.85511 0
0 0.89702 0
0 0.89983 0
0 0.90262 0
0.02063 0.90547 0
0.054923 0.90757 0
0.092709 0.90863 0
0.1322 0.90852 0
0.17195 0.90746 0
0.21213 0.90577 0
0.2523 0.90409 0
0.29174 0.90261 0
0.32995 0.90146 0
0.36669 0.90082 0
0.40211 0.90068 0
0.43622 0.90096 0
0.469 0.90154 0
0.50071 0.90225 0
0.53173 0.90297 0
0.5625 0.90364 0
0.59334 0.90412 0
0.62421 0.90429 0
0.65508 0.90399 0
0.68593 0.90319 0
0.7173 0.90197 0
0.74986 0.90062 0
0.78396 0.89924 0
0.81998 0.89795 0
0.85769 0.8968 0
0.89595 0.89581 0
0.9326 0.89491 0
0.96428 0.89402 0
0.99028 0.89308 0
1 0.89192 0
0 0.91996 0
0 0.92292 0
0 0.92592 0
0.021493 0.92928 0
0.055276 0.93228 0
0.092644 0.93445 0
0.13165 0.93554 0
0.17111 0.93564 0
0.21118 0.93522 0
