a - Ai/luts/2x_QDCU.cube
LUT_3D_SIZE 5
0 0 0
0.28228 0 0.0041832
0.52004 0 0
0.77399 0 0
1 0 0.0021993
0 0.30731 0
0.27018 0.27047 0.0034161
0.5151 0.25467 0
0.78343 0.25384 0
1 0.25183 0
0 0.59128 0
0.24315 0.56273 0
0.50259 0.55048 0
0.77172 0.54451 0
1 0.52286 0
0 0.84486 0
0.21655 0.84064 0
0.50002 0.83099 0
0.75394 0.83084 0
1 0.81746 0
0 0.99952 0
0.21537 1 0
0.50504 1 0
0.74485 1 0
1 1 0
0.012237 0.001459 0.28705
0.25 0.0047577 0.26921
0.51189 0 0.2512
0.80613 0 0.28602
1 0 0.27364
0.0049893 0.27386 0.27683
0.25105 0.26423 0.26474
0.50905 0.25967 0.24807
0.8108 0.25043 0.28199
1 0.25275 0.26557
0 0.55294 0.25514
0.24374 0.5416 0.25221
0.49665 0.53861 0.24273
0.79703 0.52276 0.26882
1 0.5151 0.26818
0 0.839 0.22298
0.22603 0.81858 0.21986
0.49275 0.80664 0.22551
0.77826 0.80109 0.24476
1 0.79004 0.26257
0 1 0.2081
0.21462 1 0.19814
0.4865 1 0.19725
0.76128 1 0.21246
1 0.99286 0.24746
0 0.0024731 0.53649
0.24785 0.0085863 0.52705
0.53914 0 0.56914
0.80186 0 0.5608
1 0 0.55536
0 0.26819 0.53552
0.2409 0.26286 0.52769
0.53292 0.25297 0.55557
0.79482 0.2536 0.53755
1 0.25012 0.5274
0 0.53577 0.52638
0.23023 0.53301 0.52235
0.51769 0.5211 0.53683
0.79783 0.51011 0.53796
1 0.51315 0.52317
0 0.80776 0.51312
0.21811 0.78502 0.51702
0.513 0.78189 0.52207
0.79659 0.78945 0.53849
1 0.78809 0.52169
0 1 0.49887
0.20386 1 0.49555
0.50771 1 0.50718
0.80379 0.98803 0.54116
1 0.99053 0.52216
0 0 0.82262
0.29799 0 0.87211
0.54657 0 0.86463
0.79618 0 0.86936
1 0 0.88151
0 0.25997 0.82205
0.27299 0.24978 0.84512
0.52752 0.24413 0.84251
0.78126 0.22421 0.85209
1 0.20956 0.8698
0 0.53337 0.81741
0.26067 0.52139 0.83204
0.51767 0.51359 0.83596
0.76593 0.50727 0.82015
1 0.49933 0.83091
0 0.78445 0.80858
0.24706 0.77149 0.82132
0.52293 0.77439 0.8438
0.76731 0.78727 0.81341
1 0.78119 0.80802
0 1 0.80684
0.23128 1 0.82927
0.52798 1 0.86093
0.77606 1 0.8201
0.99714 1 0.81651
0.0026233 0 1
0.29831 0 1
0.54138 0 1
0.8091 0 1
1 0 1
0 0.25953 0.98429
0.27102 0.24432 1
0.5311 0.23546 1
0.79789 0.20722 1
1 0.20062 1
0 0.53399 0.98612
0.26281 0.52075 1
0.51152 0.51705 0.99155
0.7688 0.49296 1
1 0.48079 1
0 0.7801 0.98271
0.26992 0.7692 1
0.5153 0.77859 0.99923
0.75018 0.78377 0.98696
1 0.76047 1
0 1 0.99884
0.26548 1 1
0.51454 1 1
0.76049 1 1
1 1 1
