a - Ai/luts/2x_SHARP_ANIME_V1.cube
LUT_3D_SIZE 9
0 0 0
0.11757 0.0033707 0
0.24045 0.0057917 0
0.3705 0.003949 0
0.49027 0.00078957 0
0.6127 0 0
0.74295 0 0
0.8685 0 0
1 0.00014124 0
0 0.13659 0.0025984
0.11657 0.13165 0.00098052
0.2404 0.12971 0
0.36831 0.12983 0
0.48829 0.12947 0
0.61112 0.12993 0
0.74331 0.13115 0
0.87123 0.13155 0
1 0.13323 0
0 0.26564 0
0.11013 0.26021 0
0.23996 0.25722 0
0.37064 0.25978 0
0.49056 0.26385 0
0.61432 0.26582 0
0.7432 0.26838 0
0.87153 0.26747 0
1 0.26553 0
0 0.3827 0
0.10525 0.37797 0
0.24104 0.37907 0.00052109
0.37412 0.3827 0.00023971
0.49331 0.38648 0
0.61686 0.38975 0
0.74326 0.38962 0
0.86856 0.38789 0
1 0.38616 0
0 0.49103 0
0.10186 0.4814 0
0.2458 0.48528 0
0.37967 0.49636 0
0.49797 0.50361 0
0.61678 0.50646 0
0.73973 0.50456 0
0.86718 0.50265 0
1 0.50191 0
0 0.60904 0
0.096276 0.59738 0
0.25667 0.60064 0
0.38974 0.61419 0
0.50473 0.62481 0
0.61792 0.62961 0
0.73756 0.62893 0
0.86477 0.62601 0
1 0.62464 0
0 0.74824 0
0.08703 0.74144 0
0.26834 0.74439 0
0.40043 0.7549 0
0.51062 0.75817 0
0.61805 0.757 0
0.7342 0.75285 0
0.86345 0.75082 0
1 0.75127 0
0 0.88987 0
0.082631 0.90238 0
0.27272 0.90185 0
0.40003 0.89388 0.0005493
0.50628 0.88604 0
0.61318 0.87876 0
0.73142 0.87624 0
0.86447 0.87681 0
1 0.87757 0
0 0.9976 0.0030536
0.096092 1 0
0.26275 1 0
0.3892 1 0
0.49785 0.99915 0
0.61023 0.99655 0
0.73438 0.9997 0
0.86623 1 0
1 1 0
0 0.0016892 0.12992
0.11826 0.0060121 0.12393
0.23976 0.0069748 0.12463
0.36331 0.0041581 0.12095
0.48058 0.0017064 0.11236
0.60953 0 0.10657
0.7525 1.4953e-005 0.10936
0.87769 0 0.11579
1 0.00053917 0.1197
0 0.13256 0.12421
0.11832 0.13055 0.1206
0.23904 0.13118 0.12444
0.36304 0.13407 0.12312
0.48209 0.13797 0.11732
0.60823 0.13774 0.11036
0.74966 0.13536 0.11119
0.87689 0.13276 0.1171
1 0.13073 0.12132
0 0.26322 0.11858
0.11472 0.25913 0.11914
0.24245 0.25763 0.1253
0.36921 0.26197 0.12511
0.48521 0.26787 0.12072
0.6116 0.27398 0.11779
0.74541 0.27506 0.11856
0.87225 0.26866 0.11984
0.99904 0.2631 0.11804
0 0.38402 0.11937
0.10824 0.37745 0.11701
0.24256 0.37583 0.12125
0.37495 0.38042 0.12364
0.49205 0.3867 0.12423
0.61594 0.39116 0.12428
0.74199 0.39056 0.12251
0.86587 0.38708 0.12038
0.99631 0.38514 0.11541
0 0.48976 0.1205
0.1042 0.48282 0.1201
0.24646 0.48628 0.12251
0.38116 0.49501 0.12351
0.49673 0.50062 0.12379
0.61452 0.50219 0.12294
0.73804 0.49972 0.12153
0.86435 0.49782 0.11877
1 0.50041 0.11492
0 0.60615 0.12438
0.10198 0.59706 0.12928
0.25765 0.60416 0.13067
0.38968 0.61889 0.12766
0.50106 0.62614 0.12326
0.61422 0.62779 0.11989
0.73426 0.62425 0.11826
0.86382 0.62095 0.11625
1 0.62186 0.1154
0 0.74592 0.12867
0.09684 0.73814 0.1392
0.27264 0.74558 0.13982
0.39891 0.75555 0.13139
0.50523 0.75852 0.12319
0.61228 0.75681 0.1175
0.72905 0.75248 0.11546
0.86241 0.74958 0.11529
1 0.74557 0.11381
0 0.89927 0.13287
0.090357 0.90486 0.14675
0.27457 0.89569 0.13901
0.39865 0.88806 0.12579
0.50183 0.88196 0.118
0.60878 0.87718 0.11433
0.728 0.87681 0.11537
0.85954 0.8759 0.11449
0.99889 0.8725 0.11039
0 1 0.13538
0.092019 1 0.13773
0.26101 1 0.12968
0.38892 1 0.11888
0.49617 0.99909 0.11423
0.6094 0.99961 0.11453
0.7306 1 0.11603
0.85775 1 0.11316
0.99657 1 0.10518
0 0.00042862 0.26648
0.11294 0.001954 0.26318
0.23903 0.0040942 0.25757
0.35707 0.0041013 0.25377
0.47371 0.0022347 0.24826
0.60547 0 0.24341
0.75397 0 0.24038
0.88045 0.00093818 0.23793
1 0.0012633 0.24075
0 0.12519 0.26231
0.11521 0.12646 0.25863
0.24188 0.12908 0.25221
0.35843 0.13298 0.24893
0.47446 0.13781 0.24478
0.60533 0.14059 0.24334
0.75185 0.13958 0.24285
0.87994 0.13438 0.24024
1 0.12924 0.23963
0 0.25937 0.25497
0.11445 0.25565 0.25115
0.24557 0.25548 0.24837
0.36646 0.26153 0.24755
0.48192 0.27107 0.24518
0.61037 0.28008 0.24482
0.74505 0.27892 0.24359
0.87066 0.26965 0.24042
0.99743 0.25948 0.23691
0 0.38237 0.24719
0.10974 0.37722 0.24583
0.24609 0.37478 0.24685
0.37527 0.37884 0.24711
0.49258 0.38737 0.24643
0.61403 0.3925 0.24598
0.73916 0.3919 0.24346
0.86174 0.38715 0.23927
0.99367 0.38479 0.2357
0 0.49514 0.24778
0.10609 0.49132 0.24723
0.24812 0.49334 0.2487
0.38112 0.49883 0.24817
0.49581 0.5005 0.24642
0.61343 0.50016 0.24529
0.7364 0.49864 0.24418
0.86095 0.4983 0.2414
0.99914 0.50459 0.23974
0 0.61429 0.25535
0.10695 0.6129 0.2595
0.25566 0.62045 0.26088
0.38436 0.62712 0.25563
0.49587 0.62675 0.24854
0.61191 0.62514 0.2448
0.73396 0.62177 0.2439
0.86414 0.62174 0.24467
1 0.62251 0.24351
0 0.75435 0.26619
0.10711 0.75481 0.27841
0.26273 0.75614 0.2757
0.38616 0.75653 0.26158
0.4956 0.75623 0.24819
0.609 0.75412 0.24168
0.73165 0.7519 0.24354
0.86279 0.74925 0.24592
1 0.74451 0.24388
0 0.89802 0.26898
0.10294 0.89941 0.28395
0.25725 0.88929 0.27765
0.38334 0.88057 0.2596
0.49341 0.87632 0.24511
0.60905 0.876 0.24062
0.73093 0.87783 0.24387
0.85806 0.8755 0.24538
0.99457 0.87018 0.24302
0 1 0.26345
0.098917 1 0.27138
0.24707 1 0.26639
0.3775 1 0.25189
0.49327 1 0.24325
0.61263 1 0.24437
0.73205 1 0.24762
0.85345 1 0.24643
0.99005 1 0.24224
0 0.0041418 0.38556
0.11118 0.0034293 0.39215
0.23253 0.001148 0.38879
0.35037 0 0.38077
0.47137 0 0.37837
0.60603 0 0.38276
0.74754 0 0.38262
0.87678 0 0.37622
1 0 0.37841
0 0.12217 0.38845
0.10997 0.12178 0.3909
0.23337 0.12359 0.38616
0.35258 0.12836 0.37559
0.47436 0.13495 0.37196
0.60906 0.13937 0.37719
0.74589 0.13799 0.3768
0.87425 0.1321 0.36932
1 0.12345 0.36602
0 0.25119 0.38366
0.11165 0.24994 0.3867
0.23957 0.2535 0.38298
0.36156 0.26176 0.37314
0.4826 0.27173 0.37021
0.61073 0.27735 0.37282
0.7394 0.27472 0.36947
0.86367 0.26538 0.36073
0.99586 0.25557 0.35512
0 0.37667 0.37562
0.1111 0.37174 0.37819
0.24482 0.37223 0.37815
0.37175 0.37945 0.37392
0.49153 0.38791 0.37026
0.61156 0.39178 0.36882
0.73315 0.3909 0.36386
0.85556 0.38719 0.35621
0.99472 0.38787 0.35402
0 0.49751 0.37115
0.10871 0.49413 0.37326
0.24961 0.49669 0.37552
0.37775 0.50111 0.374
0.49451 0.5017 0.3709
0.61228 0.50127 0.37011
0.73235 0.50133 0.36595
0.85852 0.50558 0.36167
0.99815 0.51176 0.36046
0 0.62394 0.37513
0.11031 0.62674 0.37738
0.25503 0.63168 0.37805
0.37894 0.63188 0.37546
0.49224 0.62782 0.37278
0.61028 0.62407 0.37222
0.73401 0.62349 0.37188
0.86352 0.62614 0.37106
0.99964 0.62608 0.36702
0 0.7606 0.38107
0.1127 0.76556 0.38587
0.25514 0.76271 0.3827
0.37508 0.75743 0.37542
0.48773 0.75256 0.37031
0.60864 0.74992 0.36962
0.7355 0.75103 0.37288
0.86165 0.74885 0.37293
0.99527 0.74306 0.36851
0 0.89439 0.38038
0.10785 0.89261 0.38451
0.24687 0.88152 0.38039
0.37065 0.87375 0.37072
0.48632 0.87284 0.36526
0.61105 0.87711 0.36677
0.73393 0.87831 0.37064
0.85681 0.87435 0.37047
0.98866 0.86791 0.3654
0 1 0.37589
0.10081 1 0.37657
0.23702 0.99894 0.3713
0.3691 0.99508 0.36323
0.49359 1 0.36294
0.61696 1 0.368
0.73305 1 0.37138
0.8499 1 0.37017
0.98204 1 0.3644
0 0.0096096 0.49945
0.11409 0.0050941 0.50033
0.23231 0.00028437 0.50523
0.34833 0 0.51086
0.47559 0 0.51631
0.61154 0 0.52307
0.74412 0 0.52577
0.87605 0 0.52623
1 0 0.52606
0 0.12529 0.50403
0.11297 0.12438 0.50546
0.2295 0.12486 0.50781
0.34534 0.12542 0.5082
0.47587 0.1286 0.50764
0.61149 0.13091 0.50797
0.74012 0.12647 0.50476
0.86961 0.11744 0.50111
1 0.10465 0.50194
0 0.25098 0.51093
0.11249 0.24664 0.50922
0.23358 0.24906 0.50617
0.35372 0.25909 0.50241
0.48261 0.26929 0.49935
0.61 0.27258 0.49804
0.73048 0.26713 0.49223
0.85496 0.25531 0.48264
0.99597 0.24641 0.47957
0 0.37077 0.51099
0.11025 0.36482 0.50625
0.24222 0.36847 0.5013
0.3673 0.37965 0.498
0.48894 0.38784 0.49587
0.6085 0.39034 0.49412
0.72406 0.3886 0.48736
0.84963 0.38817 0.47839
0.99603 0.39182 0.47645
0 0.49382 0.50591
0.1096 0.49134 0.50104
0.25001 0.49414 0.49812
0.37542 0.499 0.49685
0.4934 0.50274 0.49647
0.60997 0.5053 0.4955
0.72643 0.50899 0.49029
0.85547 0.51704 0.48605
0.99634 0.51963 0.48213
0 0.6283 0.50481
0.10993 0.63071 0.50024
0.25308 0.6306 0.49492
0.37716 0.62801 0.49188
0.49401 0.62508 0.49418
0.61195 0.62376 0.49831
0.73367 0.62885 0.49934
0.85921 0.63307 0.4957
0.99388 0.6322 0.48927
0 0.76141 0.50629
0.10978 0.76545 0.49829
0.24879 0.75996 0.48977
0.37174 0.75128 0.48412
0.49014 0.74553 0.48653
0.61433 0.74602 0.49622
0.73682 0.74842 0.50046
0.85791 0.74695 0.4985
0.98942 0.74199 0.49308
0 0.88766 0.50277
0.10339 0.88424 0.49089
0.23943 0.87366 0.48184
0.36566 0.86647 0.47567
0.49121 0.86822 0.47949
0.61827 0.87338 0.49043
0.73633 0.87496 0.49613
0.85339 0.87211 0.49629
0.98297 0.86544 0.49223
0 1 0.50106
0.094704 1 0.48503
0.23051 0.99458 0.47626
0.36754 0.99445 0.47378
0.49986 1 0.47838
0.62279 1 0.48526
0.7351 1 0.48934
0.84835 1 0.49107
0.97541 0.99764 0.48836
0 0.011357 0.62717
0.11623 0.008618 0.62363
0.23925 0.0010096 0.62757
0.3597 0 0.64237
0.48618 0 0.66162
0.61562 0 0.67293
0.74182 0 0.67394
0.87179 0 0.66926
1 0 0.65963
0 0.13505 0.63172
0.11275 0.13165 0.62689
0.23194 0.12522 0.62552
0.35173 0.11907 0.63314
0.48095 0.117 0.64758
0.60879 0.11357 0.65411
0.73375 0.10431 0.6514
0.86515 0.092449 0.64625
1 0.082268 0.63909
0 0.25853 0.64124
0.10653 0.25097 0.63353
0.22967 0.24753 0.62513
0.35472 0.25295 0.62387
0.48321 0.25916 0.62993
0.60537 0.26163 0.63117
0.72075 0.25519 0.62397
0.84935 0.24201 0.61738
0.99886 0.23316 0.61756
0 0.37205 0.64686
0.10133 0.36469 0.63948
0.23407 0.36712 0.62665
0.36493 0.37654 0.61826
0.48926 0.38506 0.61934
0.60471 0.38768 0.61881
0.71557 0.38791 0.61338
0.84642 0.39231 0.6099
0.99565 0.39472 0.61042
0 0.49393 0.6519
0.099586 0.49156 0.64548
0.2396 0.49209 0.62801
0.37405 0.49709 0.61556
0.49547 0.503 0.61685
0.60769 0.50779 0.61774
0.72233 0.51547 0.61646
0.85279 0.52424 0.6138
0.99316 0.52531 0.61276
0 0.62612 0.65413
0.099003 0.62759 0.6469
0.23977 0.62432 0.62629
0.37591 0.62 0.61212
0.4992 0.61862 0.6144
0.61576 0.62466 0.61958
0.73109 0.63352 0.62004
0.85582 0.63836 0.61718
0.98955 0.63664 0.6151
0 0.75844 0.65173
0.09589 0.75618 0.64029
0.23367 0.74936 0.61797
0.3692 0.74115 0.60298
0.50036 0.7376 0.60769
0.62344 0.7421 0.61807
0.73626 0.74665 0.62078
0.8558 0.74708 0.61983
0.9845 0.74406 0.61802
0 0.88301 0.64918
0.086474 0.87384 0.63195
0.22513 0.86485 0.60819
0.36487 0.86193 0.5955
0.50367 0.86485 0.60268
0.6277 0.86757 0.61364
0.73827 0.87005 0.6183
0.85293 0.86867 0.61908
0.97919 0.86321 0.61882
0 1 0.65009
0.075161 1 0.62934
0.22129 0.99798 0.60729
0.36968 1 0.60084
0.50587 1 0.60392
0.62826 1 0.60886
0.73784 1 0.61254
0.84844 0.99631 0.6136
0.97255 0.99045 0.61332
0 0.0081634 0.75935
0.11703 0.0049619 0.76142
0.24792 0 0.76869
0.37715 0 0.78207
0.50275 0 0.79601
0.62322 0 0.80497
0.74328 0 0.81163
0.86356 0 0.81285
0.9981 0 0.80477
0 0.14183 0.75849
0.10867 0.13582 0.75825
0.23228 0.12076 0.7574
0.36509 0.10433 0.76668
0.49542 0.096683 0.7803
0.61644 0.090456 0.79389
0.73523 0.082576 0.80702
0.85743 0.075113 0.81185
0.9941 0.069199 0.80259
0 0.26598 0.76341
0.097199 0.25744 0.76009
0.22169 0.24876 0.75237
0.35771 0.24447 0.75117
0.49072 0.24269 0.75678
0.60762 0.23825 0.76482
0.72039 0.22684 0.77641
0.85062 0.21566 0.78902
0.99771 0.21676 0.78989
0 0.3791 0.76991
0.089591 0.37435 0.76699
0.21978 0.37174 0.75455
0.35869 0.37308 0.74503
0.49048 0.37696 0.74238
0.60371 0.37752 0.74324
0.71625 0.37962 0.74934
0.85085 0.38488 0.76016
0.99761 0.38516 0.7669
0 0.50054 0.77761
0.08685 0.50005 0.77638
0.21788 0.49567 0.76118
0.36251 0.49578 0.74511
0.49509 0.50119 0.73653
0.6093 0.50841 0.73591
0.72446 0.51793 0.74131
0.85441 0.52342 0.74804
0.99311 0.52208 0.7518
0 0.62866 0.78351
0.084241 0.62737 0.78242
0.21338 0.62008 0.76523
0.36329 0.61519 0.74528
0.50182 0.6181 0.7372
0.6193 0.6282 0.73796
0.73089 0.63574 0.74068
0.85512 0.63866 0.74263
0.98862 0.63605 0.74417
0 0.75594 0.78533
0.08061 0.75122 0.78428
0.20479 0.74262 0.76495
0.35836 0.73389 0.74298
0.50873 0.73411 0.74001
0.62785 0.73999 0.74075
0.73667 0.74644 0.74259
0.85533 0.74999 0.74284
0.98401 0.74808 0.74372
0 0.88091 0.78326
0.073012 0.87249 0.78599
0.19853 0.86515 0.77061
0.35685 0.86622 0.74788
0.51011 0.86499 0.74165
0.63278 0.8651 0.74053
0.74064 0.8668 0.74227
0.85532 0.86691 0.74558
0.979 0.86228 0.74775
0 1 0.77713
0.064363 1 0.78617
0.20388 1 0.78293
0.35985 1 0.76063
0.50525 1 0.74792
0.62967 1 0.74184
0.73969 0.99542 0.74003
0.85007 0.99041 0.74216
0.97291 0.9843 0.74475
0 0.0024464 0.88811
0.12407 0 0.89147
0.25765 0 0.90024
0.38598 0 0.90517
0.51012 0 0.90735
0.63212 0 0.91109
0.75249 0 0.91798
0.86748 0 0.92517
0.99415 0 0.93187
0 0.14246 0.88598
0.1084 0.13328 0.8882
0.237 0.10917 0.89283
0.37388 0.09027 0.9013
0.5034 0.08096 0.90564
0.62893 0.077595 0.90966
0.75009 0.075717 0.91844
0.8624 0.072769 0.92764
0.99093 0.067616 0.93623
0 0.2668 0.88442
0.092409 0.25846 0.88727
0.21865 0.24592 0.88718
0.3602 0.23349 0.8921
0.49331 0.22495 0.89473
0.61796 0.21396 0.89883
0.74026 0.20082 0.91175
0.86179 0.19622 0.92535
0.99576 0.20357 0.93182
0 0.38371 0.88445
0.084865 0.38178 0.88983
0.21005 0.37593 0.88732
0.35297 0.36981 0.88621
0.48633 0.36551 0.88335
0.60822 0.36116 0.88256
0.73336 0.35945 0.89426
0.86429 0.35905 0.91054
1 0.3597 0.9199
0 0.50669 0.88857
0.08135 0.50619 0.89324
0.20431 0.50151 0.88899
0.34801 0.49583 0.88378
0.48578 0.49581 0.87638
0.61123 0.50309 0.87137
0.73531 0.50762 0.87562
0.86505 0.50713 0.88779
0.9994 0.50308 0.89928
0 0.63182 0.89292
0.078501 0.62982 0.89565
0.1963 0.62107 0.88948
0.34516 0.61443 0.88294
0.49325 0.62099 0.87456
0.61769 0.62992 0.86564
0.73564 0.63292 0.86404
0.8619 0.63022 0.87138
0.99406 0.62594 0.88198
0 0.75415 0.89482
0.074889 0.75171 0.89751
0.18565 0.74553 0.89045
0.34594 0.73926 0.8865
0.50103 0.74098 0.87958
0.62314 0.74513 0.8683
0.73674 0.7491 0.86132
0.85929 0.75027 0.86319
0.98948 0.74742 0.87199
0 0.87648 0.89137
0.07424 0.87304 0.89738
0.18697 0.87899 0.89785
0.34315 0.88349 0.89788
0.49934 0.87647 0.89167
0.62477 0.87011 0.87784
0.74027 0.86856 0.86686
0.85941 0.86949 0.86519
0.98323 0.86515 0.87022
0 0.99974 0.88648
0.07683 1 0.89542
0.20036 1 0.90406
0.34388 1 0.90756
0.49058 1 0.90298
0.6167 1 0.88777
0.73637 0.99699 0.87242
0.85389 0.98877 0.86889
0.97967 0.98452 0.87541
0 0 1
0.13292 0 1
0.26506 0 1
0.39101 0 1
0.51314 0 1
0.63599 0 1
0.75592 0 1
0.87172 0 1
0.9978 0 1
0 0.14019 1
0.11361 0.1305 1
0.24573 0.10659 1
0.37922 0.090708 1
0.50601 0.082431 1
0.6335 0.079419 1
0.75647 0.077331 1
0.87302 0.074124 1
1 0.069037 1
0 0.2635 0.99931
0.097934 0.25799 1
0.22496 0.24696 1
0.36389 0.23429 1
0.49403 0.2232 1
0.6234 0.21101 1
0.75096 0.20066 1
0.87155 0.19818 1
1 0.20321 1
0 0.38469 0.9994
0.09144 0.38284 1
0.21471 0.37747 1
0.35443 0.37042 1
0.48377 0.36348 1
0.61189 0.35644 1
0.74331 0.34957 1
0.87323 0.34572 1
1 0.34563 1
0 0.50961 1
0.087211 0.50701 1
0.20743 0.50015 1
0.34785 0.49342 1
0.48136 0.49286 1
0.60912 0.4938 1
0.73919 0.49054 1
0.87035 0.48584 1
1 0.4819 1
0 0.63272 1
0.081707 0.62883 1
0.19712 0.61873 1
0.34641 0.61475 1
0.48515 0.61868 1
0.60863 0.62192 1
0.73384 0.61869 1
0.86603 0.61278 1
1 0.60985 1
0 0.75263 1
0.07623 0.74997 1
0.18969 0.74484 1
0.35017 0.74556 1
0.48851 0.74866 1
0.60921 0.75021 1
0.72853 0.74823 1
0.86072 0.74215 1
1 0.73639 1
0 0.8695 1
0.078054 0.86825 1
0.1963 0.88129 1
0.35064 0.88808 1
0.48955 0.88714 1
0.60782 0.88349 1
0.72546 0.87821 1
0.854 0.8731 1
0.99644 0.86411 0.99757
0 0.99946 0.99849
0.087002 1 1
0.21221 1 1
0.35352 1 1
0.4856 1 1
0.60031 1 1
0.71872 1 1
0.84785 0.99864 1
0.9953 0.99979 1
