a - Ai/luts/2x_SHARP_ANIME_V1.cube
LUT_3D_SIZE 5
0 0 0
0.24045 0.0057917 0
0.49027 0.00078957 0
0.74295 0 0
1 0.00014124 0
0 0.26564 0
0.23996 0.25722 0
0.49056 0.26385 0
0.7432 0.26838 0
1 0.26553 0
0 0.49103 0
0.2458 0.48528 0
0.49797 0.50361 0
0.73973 0.50456 0
1 0.50191 0
0 0.74824 0
0.26834 0.74439 0
0.51062 0.75817 0
0.7342 0.75285 0
1 0.75127 0
0 0.9976 0.0030536
0.26275 1 0
0.49785 0.99915 0
0.73438 0.9997 0
1 1 0
0 0.00042862 0.26648
0.23903 0.0040942 0.25757
0.47371 0.0022347 0.24826
0.75397 0 0.24038
1 0.0012633 0.24075
0 0.25937 0.25497
0.24557 0.25548 0.24837
0.48192 0.27107 0.24518
0.74505 0.27892 0.24359
0.99743 0.25948 0.23691
0 0.49514 0.24778
0.24812 0.49334 0.2487
0.49581 0.5005 0.24642
0.7364 0.49864 0.24418
0.99914 0.50459 0.23974
0 0.75435 0.26619
0.26273 0.75614 0.2757
0.4956 0.75623 0.24819
0.73165 0.7519 0.24354
1 0.74451 0.24388
0 1 0.26345
0.24707 1 0.26639
0.49327 1 0.24325
0.73205 1 0.24762
0.99005 1 0.24224
0 0.0096096 0.49945
0.23231 0.00028437 0.50523
0.47559 0 0.51631
0.74412 0 0.52577
1 0 0.52606
0 0.25098 0.51093
0.23358 0.24906 0.50617
0.48261 0.26929 0.49935
0.73048 0.26713 0.49223
0.99597 0.24641 0.47957
0 0.49382 0.50591
0.25001 0.49414 0.49812
0.4934 0.50274 0.49647
0.72643 0.50899 0.49029
0.99634 0.51963 0.48213
0 0.76141 0.50629
0.24879 0.75996 0.48977
0.49014 0.74553 0.48653
0.73682 0.74842 0.50046
0.98942 0.74199 0.49308
0 1 0.50106
0.23051 0.99458 0.47626
0.49986 1 0.47838
0.7351 1 0.48934
0.97541 0.99764 0.48836
0 0.0081634 0.75935
0.24792 0 0.76869
0.50275 0 0.79601
0.74328 0 0.81163
0.9981 0 0.80477
0 0.26598 0.76341
0.22169 0.24876 0.75237
0.49072 0.24269 0.75678
0.72039 0.22684 0.77641
0.99771 0.21676 0.78989
0 0.50054 0.77761
0.21788 0.49567 0.76118
0.49509 0.50119 0.73653
0.72446 0.51793 0.74131
0.99311 0.52208 0.7518
0 0.75594 0.78533
0.20479 0.74262 0.76495
0.50873 0.73411 0.74001
0.73667 0.74644 0.74259
0.98401 0.74808 0.74372
0 1 0.77713
0.20388 1 0.78293
0.50525 1 0.74792
0.73969 0.99542 0.74003
0.97291 0.9843 0.74475
0 0 1
0.26506 0 1
0.51314 0 1
0.75592 0 1
0.9978 0 1
0 0.2635 0.99931
0.22496 0.24696 1
0.49403 0.2232 1
0.75096 0.20066 1
1 0.20321 1
0 0.50961 1
0.20743 0.50015 1
0.48136 0.49286 1
0.73919 0.49054 1
1 0.4819 1
0 0.75263 1
0.18969 0.74484 1
0.48851 0.74866 1
0.72853 0.74823 1
1 0.73639 1
0 0.99946 0.99849
0.21221 1 1
0.4856 1 1
0.71872 1 1
0.9953 0.99979 1
