a - Ai/luts/2x_SHARP_ANIME_V1.cube
LUT_3D_SIZE 33
0 0 0
0.028627 0.00046532 0
0.058409 0.0014614 0
0.088329 0.0024602 0
0.11757 0.0033707 0
0.14629 0.0041478 0
0.17592 0.0048373 0
0.20751 0.0054251 0
0.24045 0.0057917 0
0.27368 0.0057985 0
0.30662 0.0054517 0
0.33892 0.0047764 0
0.3705 0.003949 0
0.40126 0.0031406 0
0.43133 0.002392 0
0.46092 0.0016052 0
0.49027 0.00078957 0
0.51976 0 0
0.5499 0 0
0.58089 0 0
0.6127 0 0
0.64513 0 0
0.6779 0 0
0.7106 0 0
0.74295 0 0
0.77485 0 0
0.80622 0 0
0.83719 0 0
0.8685 0 0
0.90106 0 0
0.93492 0 0
0.96891 0 0
1 0.00014124 0
0.00036374 0.032759 0
0.029374 0.033226 0
0.059136 0.033632 0
0.088983 0.03402 0
0.11814 0.034396 0
0.14684 0.034789 0
0.17646 0.035232 0
0.20786 0.035596 0
0.24054 0.035761 0
0.27348 0.035655 0
0.30613 0.035264 0
0.33823 0.034625 0
0.36976 0.033878 0
0.40058 0.033121 0
0.43066 0.032385 0
0.4602 0.03164 0
0.48955 0.030873 0
0.51905 0.030155 0
0.54917 0.029462 0
0.5801 0.028755 0
0.61191 0.028082 0
0.64439 0.027426 0
0.67733 0.026855 0
0.71031 0.026495 0
0.74293 0.026478 0
0.77503 0.02675 0
0.80646 0.027226 0
0.83747 0.027828 0
0.86883 0.028608 0
0.9015 0.029553 0
0.93559 0.030638 0
0.96941 0.030969 0
1 0.030592 0
0.00075584 0.06752 0.00073174
0.029616 0.067432 0
0.059258 0.067215 0
0.089082 0.066918 0
0.11829 0.066615 0
0.1471 0.066453 0
0.17676 0.066467 0
0.20804 0.066586 0
0.24051 0.066641 0
0.27321 0.066524 0
0.30563 0.066201 0
0.33759 0.065694 0
0.36909 0.065098 0
0.39992 0.064476 0
0.43001 0.063854 0
0.45952 0.063235 0
0.4889 0.062615 0
0.51845 0.062041 0
0.54856 0.061536 0
0.57954 0.061073 0
0.61133 0.060663 0
0.64384 0.060245 0
0.67687 0.059912 0
0.71006 0.059688 0
0.74304 0.059677 0
0.77538 0.060029 0
0.80698 0.06068 0
0.83814 0.061677 0
0.8697 0.062974 0
0.9024 0.064288 0
0.9358 0.064334 0
0.96917 0.064096 0
1 0.063681 0
0.0005952 0.10257 0.0020652
0.029199 0.10201 0.0011031
0.058709 0.10125 0.0005989
0.088493 0.10034 0.00049723
0.11777 0.099379 0.00060674
0.14682 0.098598 0.00062642
0.17671 0.098172 0.00030342
0.20808 0.098093 0
0.24044 0.098133 0
0.273 0.098114 0
0.30524 0.097966 0
0.3371 0.097697 0
0.36856 0.097351 0
0.39939 0.096956 0
0.42949 0.096554 0
0.45902 0.096164 0
0.48841 0.095799 0
0.51804 0.095503 0
0.5482 0.095275 0
0.57922 0.095085 0
0.61104 0.094932 0
0.6436 0.094852 0
0.67668 0.094818 0
0.70997 0.094797 0
0.74315 0.094919 0
0.77579 0.095279 0
0.80772 0.096011 0
0.83929 0.09727 0
0.87058 0.097687 0
0.90285 0.098227 0
0.93597 0.098661 0
0.96906 0.098719 0
1 0.098475 0
0 0.13659 0.0025984
0.028223 0.13562 0.0016814
0.057532 0.13445 0.0011176
0.087189 0.13307 0.0009306
0.11657 0.13165 0.00098052
0.14602 0.13048 0.00098816
0.17635 0.12982 0.00065284
0.208 0.12965 0
0.2404 0.12971 0
0.2729 0.12981 0
0.30505 0.12986 0
0.33687 0.12986 0
0.36831 0.12983 0
0.39912 0.12976 0
0.42922 0.12963 0
0.4588 0.12949 0
0.48829 0.12947 0
0.51797 0.12953 0
0.54817 0.12961 0
0.5792 0.12973 0
0.61112 0.12993 0
0.64375 0.13019 0
0.67683 0.1305 0
0.71012 0.13083 0
0.74331 0.13115 0
0.77615 0.13153 0
0.80812 0.13123 0
0.83961 0.13115 0
0.87123 0.13155 0
0.90358 0.13225 0
0.93647 0.13291 0
0.96917 0.13327 0
1 0.13323 0
0 0.16948 0.0022451
0.026787 0.16826 0.0013686
0.055894 0.16687 0.00076127
0.085426 0.16529 0.00051679
0.115 0.16368 0.00058109
0.14491 0.16237 0.00064348
0.1758 0.16159 0.00042223
0.20783 0.16132 0
0.24039 0.16137 0
0.27293 0.16157 0
0.30512 0.16179 0
0.33697 0.16207 0
0.36841 0.16237 0
0.39919 0.16262 0
0.42927 0.16281 0
0.45892 0.163 0
0.4885 0.16325 0
0.51823 0.16353 0
0.54848 0.16391 0
0.57962 0.16441 0
0.61164 0.16503 0
0.64435 0.16577 0
0.67744 0.16657 0
0.71057 0.16729 0
0.74325 0.167 0
0.77561 0.16626 0
0.80776 0.16567 0
0.83975 0.16538 0
0.87186 0.16563 0
0.90437 0.16626 0
0.93702 0.16686 0
0.96941 0.16715 0
1 0.1672 0
0 0.20178 0.0013169
0.025178 0.20053 0.00047784
0.054107 0.19909 0
0.08355 0.19748 0
0.11331 0.19589 0
0.14366 0.19455 0
0.17509 0.19366 0
0.20751 0.19327 0
0.24035 0.19321 0
0.27305 0.19337 0
0.30539 0.19371 0
0.33738 0.19421 0
0.36887 0.19479 0
0.39962 0.19538 0
0.42968 0.19592 0
0.45935 0.19644 0
0.48895 0.1969 0
0.51877 0.1974 0
0.54919 0.19806 0
0.58048 0.19893 0
0.61266 0.19997 0
0.6455 0.20121 0
0.67817 0.20161 0
0.71052 0.20161 0
0.74281 0.20145 0
0.77508 0.20106 0
0.80729 0.20056 0
0.83962 0.20016 0
0.87221 0.20011 0
0.90483 0.20031 0
0.9373 0.20044 0
0.96948 0.20047 0
1 0.20042 0
0 0.23388 0.00019511
0.023608 0.23267 0
0.052347 0.23128 0
0.081754 0.22973 0
0.11167 0.22821 0
0.14236 0.2269 0
0.17423 0.22596 0
0.20704 0.22542 0
0.24018 0.22521 0
0.2732 0.22532 0
0.30582 0.22576 0
0.33803 0.2264 0
0.36964 0.22721 0
0.40043 0.2281 0
0.43047 0.22898 0
0.46006 0.22977 0
0.48962 0.23047 0
0.51958 0.23118 0
0.5502 0.23209 0
0.58174 0.23325 0
0.61366 0.23366 0
0.6461 0.23416 0
0.67859 0.23467 0
0.71086 0.23512 0
0.74288 0.2354 0
0.77481 0.23538 0
0.80688 0.23506 0
0.8393 0.23468 0
0.87207 0.23431 0
0.90472 0.23397 0
0.93714 0.23366 0
0.96934 0.23343 0
1 0.23323 0
0 0.26564 0
0.022119 0.26446 0
0.050705 0.26312 0
0.080089 0.26165 0
0.11013 0.26021 0
0.14109 0.25895 0
0.17328 0.258 0
0.20646 0.25741 0
0.23996 0.25722 0
0.27338 0.25739 0
0.3064 0.25793 0
0.33887 0.25878 0
0.37064 0.25978 0
0.40152 0.26085 0
0.43152 0.26192 0
0.46101 0.26291 0
0.49056 0.26385 0
0.5205 0.26452 0
0.55088 0.26472 0
0.5822 0.26516 0
0.61432 0.26582 0
0.64687 0.26657 0
0.67934 0.26732 0
0.71147 0.26797 0
0.7432 0.26838 0
0.77476 0.2685 0
0.80659 0.26833 0
0.8389 0.26799 0
0.87153 0.26747 0
0.90419 0.26682 0
0.93673 0.26626 0
0.96905 0.26584 0
1 0.26553 0
0 0.29663 0
0.020691 0.29549 0
0.049147 0.29415 0
0.078509 0.29271 0
0.10866 0.29131 0
0.13987 0.29011 0
0.1724 0.28929 0
0.20596 0.28889 0
0.23983 0.28885 0
0.2737 0.28921 0
0.30714 0.28998 3.7714e-006
0.3399 0.29103 0.00046659
0.37181 0.29221 0.00092872
0.40273 0.29342 0.001342
0.43272 0.29463 0.001577
0.46188 0.29513 0.00075041
0.49103 0.29541 0
0.52077 0.29579 0
0.55135 0.29629 0
0.58289 0.29694 0
0.61515 0.29774 0
0.64773 0.29858 0
0.6801 0.29933 0
0.71203 0.29989 0
0.74349 0.30023 0
0.77477 0.30032 0
0.80633 0.30021 0
0.83843 0.29985 0
0.87088 0.29926 0
0.90348 0.29854 0
0.93617 0.29784 0
0.96862 0.2973 0
1 0.29691 0
0 0.32644 0
0.019302 0.32532 0
0.047634 0.32401 0
0.077 0.32265 0
0.10729 0.32135 0
0.1388 0.32033 0
0.17173 0.31972 0
0.20566 0.31955 0
0.23993 0.3198 0
0.27426 0.32047 0.00019277
0.30811 0.32153 0.00090386
0.34113 0.32283 0.0015966
0.37312 0.32422 0.0023089
0.40358 0.32466 0.0018899
0.43315 0.32512 0.0013007
0.46226 0.32563 0.00044782
0.49152 0.32621 0
0.52137 0.32688 0
0.55201 0.32759 0
0.58362 0.32832 0
0.61592 0.32905 0
0.64845 0.32974 0
0.68069 0.33032 0
0.71239 0.33075 0
0.74363 0.33095 0
0.77469 0.33099 0
0.80602 0.33082 0
0.83788 0.33042 0
0.87014 0.32978 0
0.90271 0.32899 0
0.93552 0.32822 0
0.96819 0.32763 0
1 0.32732 0
0 0.35505 0
0.017949 0.35389 0
0.046216 0.35259 0
0.075654 0.35133 0
0.10613 0.35025 0
0.13798 0.34948 0
0.17132 0.34916 0
0.20564 0.34931 0
0.24034 0.34991 9.0683e-005
0.27513 0.35098 0.00094478
0.30928 0.35226 0.0016447
0.34193 0.35292 0.0014371
0.37348 0.35362 0.0012744
0.40401 0.35429 0.0010487
0.43369 0.35497 0.00061048
0.46291 0.35573 0
0.49231 0.35657 0
0.52219 0.35749 0
0.55274 0.35834 0
0.58428 0.35904 0
0.61651 0.35963 0
0.64891 0.36013 0
0.68099 0.36048 0
0.7125 0.36065 0
0.74357 0.36068 0
0.77449 0.36058 0
0.80561 0.36035 0
0.83724 0.35989 0
0.86933 0.35922 0
0.90191 0.35845 0
0.93487 0.35774 0
0.96779 0.35722 0
1 0.35694 0
0 0.3827 0
0.016606 0.38142 0
0.044863 0.3801 0
0.074483 0.37888 0
0.10525 0.37797 0
0.13747 0.37753 0
0.17125 0.37761 0
0.206 0.3782 0
0.24104 0.37907 0.00052109
0.27571 0.37972 0.00037103
0.30969 0.38066 0.00027106
0.34251 0.38167 0.00023968
0.37412 0.3827 0.00023971
0.40466 0.38363 0.00014688
0.43443 0.38451 0
0.46378 0.38545 0
0.49331 0.38648 0
0.52319 0.38755 0
0.55356 0.3885 0
0.58485 0.38924 0
0.61686 0.38975 0
0.64906 0.38998 0
0.68091 0.38998 0
0.71227 0.38984 0
0.74326 0.38962 0
0.77406 0.38933 0
0.80507 0.38895 0
0.83653 0.38847 0
0.86856 0.38789 0
0.90121 0.38732 0
0.93433 0.3868 0
0.96748 0.38638 0
1 0.38616 0
0 0.40971 0
0.015163 0.40823 0
0.043537 0.40678 0
0.073426 0.40557 0
0.10462 0.40479 0
0.13739 0.40466 0
0.17157 0.40502 0
0.2062 0.40526 0
0.24128 0.40605 0
0.27636 0.40729 0
0.31053 0.40874 0
0.34344 0.41018 0
0.37504 0.41148 0
0.40557 0.41269 0
0.43534 0.4138 0
0.46483 0.41493 0
0.49443 0.41611 0
0.52424 0.41721 0
0.55444 0.41819 0
0.58541 0.41896 0
0.61703 0.41938 0
0.64885 0.4194 0
0.68041 0.41911 0
0.71167 0.41862 0
0.74263 0.41808 0
0.77343 0.41756 0
0.80439 0.41708 0
0.83588 0.41662 0
0.86799 0.41623 0
0.90074 0.41593 0
0.93394 0.41563 0
0.9672 0.41531 0
1 0.41511 0
0 0.43651 0
0.013542 0.43477 0
0.042164 0.43312 0
0.072463 0.43186 0
0.10414 0.43105 0
0.13705 0.43031 0
0.17142 0.43038 0
0.2066 0.43115 0
0.24221 0.43259 0
0.27758 0.43447 0
0.31187 0.43646 0
0.34472 0.43833 0
0.37624 0.43998 0
0.40673 0.44149 0
0.43647 0.44289 0
0.46603 0.4442 0
0.49559 0.44544 0
0.52528 0.44655 0
0.55531 0.44752 0
0.58591 0.44824 0
0.61701 0.44855 0
0.64835 0.44839 0
0.67962 0.4479 0
0.71075 0.44723 0
0.7417 0.44649 0
0.77259 0.44576 0
0.80372 0.4452 0
0.83538 0.44486 0
0.86766 0.44466 0
0.90048 0.4445 0
0.93368 0.44431 0
0.96698 0.4441 0
1 0.44396 0
0 0.46358 0
0.011714 0.46153 0
0.040571 0.45949 0
0.070979 0.45735 0
0.10295 0.4559 0
0.13662 0.45535 0
0.17173 0.45572 0
0.2076 0.45692 0
0.24376 0.45886 0
0.27941 0.46129 0
0.3137 0.46383 0
0.3464 0.46618 0
0.37778 0.46824 0
0.40817 0.47007 0
0.43787 0.47174 0
0.4673 0.47326 0
0.49675 0.47455 0
0.52631 0.47567 0
0.5561 0.4766 0
0.58628 0.47719 0
0.61687 0.47739 0
0.64776 0.47721 0
0.67874 0.47672 0
0.70973 0.47599 0
0.74067 0.47519 0
0.77172 0.47445 0
0.80311 0.47391 0
0.83502 0.47358 0
0.86744 0.47338 0
0.9003 0.47324 0
0.93349 0.47307 0
0.96685 0.47291 0
1 0.47285 0
0 0.49103 0
0.0090848 0.48801 0
0.038078 0.48518 0
0.069122 0.48287 0
0.10186 0.4814 0
0.13644 0.48091 0
0.1724 0.48145 0
0.20903 0.48294 0
0.2458 0.48528 0
0.28174 0.48812 0
0.316 0.49109 0
0.34851 0.49387 0
0.37967 0.49636 0
0.40988 0.49854 0
0.43946 0.50047 0
0.46871 0.50216 0
0.49797 0.50361 0
0.52734 0.50482 0
0.5568 0.50572 0
0.58657 0.50625 0
0.61678 0.50646 0
0.6473 0.50638 0
0.67798 0.50598 0
0.70878 0.50532 0
0.73973 0.50456 0
0.77095 0.50389 0
0.80256 0.50336 0
0.83463 0.50297 0
0.86718 0.50265 0
0.90011 0.50239 0
0.9333 0.50214 0
0.96676 0.50193 0
1 0.50191 0
0 0.51835 0
0.0059867 0.51511 0
0.035393 0.51208 0
0.067128 0.50957 0
0.10079 0.50792 0
0.13637 0.50737 0
0.1733 0.50796 0
0.21082 0.50965 0
0.24824 0.51228 0
0.28443 0.51545 0
0.31865 0.51872 0
0.35095 0.52181 0
0.38188 0.52459 0
0.41186 0.52705 0
0.44125 0.52927 0
0.47032 0.53124 0
0.49935 0.53295 0
0.52843 0.53429 0
0.55755 0.53525 0
0.58696 0.53589 0
0.61684 0.53619 0
0.64706 0.53619 0
0.67744 0.53591 0
0.70807 0.53544 0
0.739 0.53485 0
0.77029 0.53425 0
0.802 0.53367 0
0.83415 0.5331 0
0.86679 0.53257 0
0.8998 0.53213 0
0.93305 0.53175 0
0.96663 0.53148 0
1 0.53147 0
0 0.54708 0
0.002734 0.54373 0
0.032513 0.54057 0
0.06493 0.53783 0
0.099587 0.53591 0
0.13625 0.53516 0
0.17432 0.53564 0
0.21285 0.53747 0
0.25096 0.54033 0
0.28736 0.54369 0
0.3215 0.54711 0
0.35357 0.55032 0
0.38427 0.55327 0
0.41409 0.55601 0
0.44333 0.55855 0
0.47221 0.56085 0
0.50096 0.56283 0
0.52967 0.56438 0
0.55845 0.56551 0
0.58752 0.56626 0
0.61707 0.56665 0
0.64699 0.56675 0
0.67714 0.56661 0
0.70764 0.56632 0
0.73846 0.56588 0
0.76971 0.56534 0
0.80139 0.56472 0
0.83352 0.56402 0
0.86621 0.56331 0
0.89934 0.56263 0
0.93273 0.56209 0
0.96652 0.56178 0
1 0.56184 0
0 0.57731 0
0 0.57401 0
0.029517 0.57082 0
0.062497 0.56793 0
0.098092 0.56572 0
0.13597 0.56462 0
0.17534 0.56497 0
0.21506 0.56678 0
0.25384 0.56969 0
0.29038 0.57311 0
0.32439 0.57652 0
0.3563 0.5798 0
0.38689 0.58295 0
0.4166 0.58595 0
0.44567 0.58877 0
0.47433 0.59124 0
0.50278 0.59336 0
0.53114 0.59509 0
0.55956 0.59643 0
0.58825 0.59735 0
0.61743 0.59786 0
0.64707 0.59804 0
0.67705 0.59799 0
0.70736 0.59775 0
0.73803 0.59734 0
0.76917 0.59678 0
0.80073 0.5961 0
0.83281 0.59536 0
0.8655 0.59458 0
0.89872 0.5938 0
0.93232 0.59314 0
0.96643 0.59279 0
1 0.59294 0
0 0.60904 0
0 0.60597 0
0.02646 0.60285 0
0.059842 0.59987 0
0.096276 0.59738 0
0.13545 0.59599 0
0.17628 0.59615 0
0.21723 0.59785 0
0.25667 0.60064 0
0.29337 0.60393 0
0.32736 0.60737 0
0.35924 0.61083 0
0.38974 0.61419 0
0.41932 0.61733 0
0.44818 0.62016 0
0.47656 0.62266 0
0.50473 0.62481 0
0.53279 0.6266 0
0.56083 0.62799 0
0.58912 0.62898 0
0.61792 0.62961 0
0.64723 0.62985 0
0.67695 0.62978 0
0.70704 0.62945 0
0.73756 0.62893 0
0.76856 0.62829 0
0.80003 0.62754 0
0.83207 0.62677 0
0.86477 0.62601 0
0.89805 0.62526 0
0.93191 0.62468 0
0.96643 0.62447 0
1 0.62464 0
0 0.64212 0
0 0.63948 0
0.023371 0.63657 0
0.057008 0.63352 0
0.094161 0.63086 0
0.13466 0.62919 0
0.1771 0.62914 0
0.21929 0.63073 0
0.25941 0.63341 0
0.29642 0.63669 0
0.3305 0.64026 0
0.36237 0.64379 0
0.39276 0.64718 0
0.4221 0.65026 0
0.45067 0.65292 0
0.4788 0.65524 0
0.5067 0.65724 0
0.53442 0.65886 0
0.56209 0.66014 0
0.59002 0.66107 0
0.61842 0.66162 0
0.64733 0.66178 0
0.67672 0.6616 0
0.70658 0.66111 0
0.73693 0.66044 0
0.76783 0.65964 0
0.79926 0.65882 0
0.83135 0.65805 0
0.86413 0.65737 0
0.89753 0.65684 0
0.93166 0.6565 0
0.96651 0.65642 0
1 0.65655 0
0 0.67651 0
0 0.67435 0
0.020406 0.67175 0
0.054085 0.66878 0
0.091848 0.66599 0
0.13365 0.66415 0
0.17779 0.66397 0
0.22133 0.66549 0
0.26223 0.66824 0
0.29966 0.67167 0
0.3338 0.67531 0
0.36556 0.67879 0
0.39571 0.68195 0
0.42471 0.68464 0
0.45299 0.68692 0
0.48088 0.68887 0
0.50846 0.6905 0
0.53585 0.6918 0
0.56318 0.69275 0
0.5907 0.69335 0
0.61872 0.69359 0
0.64723 0.6935 0
0.67629 0.69308 0
0.70592 0.69241 0
0.73614 0.6916 0
0.76696 0.69072 0
0.79846 0.68987 0
0.83067 0.68913 0
0.86366 0.6886 0
0.89728 0.68835 0
0.93162 0.6883 0
0.96661 0.68834 0
1 0.68832 0
0 0.71199 0
0 0.7105 0
0.01773 0.70835 0
0.051193 0.70562 0
0.089443 0.70284 0
0.13258 0.70097 0
0.17848 0.70082 0
0.22348 0.70244 0
0.26527 0.70532 0
0.30302 0.70876 0
0.3371 0.71223 0
0.36858 0.71541 0
0.39834 0.71807 0
0.42695 0.7202 0
0.45491 0.72189 0
0.48253 0.72321 0
0.50985 0.72427 0
0.53692 0.72508 0
0.56384 0.72554 0
0.59097 0.72566 0
0.61862 0.72544 0
0.64681 0.72493 0
0.67559 0.72419 0
0.70506 0.7233 0
0.73521 0.72234 0
0.76607 0.72141 0
0.79769 0.72061 0
0.8301 0.72003 0
0.86341 0.71972 0
0.89735 0.71973 0
0.93179 0.71992 0
0.96668 0.72001 0
1 0.7199 0
0 0.74824 0
0 0.74775 0
0.015523 0.74635 0
0.048453 0.74406 0
0.08703 0.74144 0
0.13162 0.73968 0
0.17935 0.73976 0
0.22582 0.74157 0
0.26834 0.74439 0
0.30618 0.74751 0
0.34007 0.75043 0
0.37115 0.75293 0
0.40043 0.7549 0
0.42858 0.7563 0.00024223
0.4562 0.75723 0.00013322
0.48354 0.75782 0
0.51062 0.75817 0
0.53738 0.75826 0
0.56397 0.7581 0
0.59075 0.7577 0
0.61805 0.757 0
0.64599 0.75607 0
0.67462 0.75501 0
0.70402 0.75391 0
0.7342 0.75285 0
0.76517 0.75191 0
0.79704 0.75121 0
0.82979 0.75083 0
0.86345 0.75082 0
0.89761 0.75107 0
0.93205 0.75134 0
0.96672 0.75142 0
1 0.75127 0
0 0.7848 0
0 0.78553 0
0.014006 0.78529 0
0.046131 0.78382 0
0.084838 0.78164 0
0.1309 0.78019 0
0.1805 0.78052 0
0.22815 0.78235 0
0.27105 0.78475 0
0.30873 0.78705 0
0.34227 0.78899 0
0.37294 0.79049 0
0.40175 0.79154 0.00068303
0.42945 0.79211 0.0010957
0.4567 0.79227 0.00098423
0.48378 0.79211 0.00043662
0.51059 0.79169 0
0.53714 0.79103 0
0.56352 0.79022 0
0.59003 0.78926 0
0.61709 0.78814 0
0.64487 0.78693 0
0.67345 0.78568 0
0.70286 0.78449 0
0.73314 0.78339 0
0.76438 0.78251 0
0.79658 0.78196 0
0.82976 0.78182 0
0.86372 0.78197 0
0.898 0.7823 0
0.93232 0.7826 0
0.96677 0.78271 0
1 0.78256 0
0 0.82115 0
0 0.82333 0
0.013589 0.82447 0
0.044534 0.82415 0
0.083106 0.82283 0
0.13054 0.82188 0
0.18171 0.82232 0
0.23013 0.82377 0
0.27293 0.82526 0
0.31023 0.82634 0
0.34336 0.82698 0
0.37368 0.82725 0
0.40215 0.82722 0.0010356
0.42951 0.82695 0.0015208
0.45643 0.82641 0.0014409
0.48319 0.82553 0.00091302
0.50978 0.82437 0
0.53617 0.82304 0
0.56244 0.82163 0
0.5889 0.82021 0
0.61586 0.81882 0
0.64362 0.81747 0
0.67223 0.81621 0
0.70174 0.81508 0
0.73222 0.81414 0
0.76376 0.81348 0
0.79637 0.81316 0
0.82989 0.81311 0
0.86405 0.81326 0
0.89841 0.81353 0
0.93265 0.81386 0
0.96685 0.81406 0
1 0.81398 0
0 0.85643 0
0 0.86002 0
0.014472 0.86258 0
0.044086 0.86376 0
0.0823 0.8637 0
0.13053 0.86342 0
0.1827 0.86382 0
0.23124 0.86452 0
0.27356 0.86471 0
