a - Ai/luts/2xken-lightgrain-v1-evA-01.cube
LUT_3D_SIZE 9
0 0.00055742 0.00084634
0.12773 0.012043 0.016189
0.2484 0.014532 0.021158
0.38454 0.010132 0.015122
0.51501 0.00082881 0.0060101
0.63507 0 0
0.76322 0.0019661 0
0.8909 0.00019206 0
1 0 8.3e-005
0.010741 0.13645 0.019215
0.12827 0.14046 0.02713
0.2466 0.14238 0.024137
0.37693 0.1402 0.010474
0.50881 0.1365 0.00085763
0.63297 0.13655 0
0.76616 0.13629 0
0.88735 0.13544 0.00145
1 0.13252 0
0.016141 0.2523 0.017708
0.13371 0.25646 0.02719
0.2493 0.26113 0.023602
0.37891 0.26542 0.0079074
0.50853 0.2708 0
0.63209 0.27086 0
0.76271 0.26463 0.00046266
0.88359 0.25943 0.0013532
1 0.25674 0.0022649
0.0086724 0.39853 0.0042132
0.12857 0.38467 0.016947
0.25258 0.37556 0.018324
0.38752 0.38242 0.0061016
0.51327 0.39032 0
0.6299 0.39065 0
0.75057 0.38271 0
0.8819 0.37628 0.00040872
1 0.3759 0.00035587
0 0.53227 0
0.10852 0.51366 0.0014704
0.24929 0.50062 0.0069291
0.39192 0.50055 0
0.51435 0.49768 0
0.62726 0.49216 0
0.74587 0.49288 0
0.88235 0.49425 0
1 0.49849 0
0 0.6525 0
0.086209 0.63565 0
0.24003 0.61818 0
0.39112 0.61495 0
0.50942 0.61359 0
0.62437 0.61066 0
0.7515 0.61126 0
0.88872 0.61806 0
1 0.62523 0
0 0.78436 0
0.062115 0.77388 0
0.22581 0.75313 0
0.39185 0.75007 0
0.50862 0.74906 0
0.62248 0.74876 0
0.75681 0.75 0
0.89299 0.75629 0
1 0.75567 0
0 0.9187 0
0.048992 0.92733 0
0.20618 0.91406 0
0.38582 0.90088 0
0.50596 0.89236 0.0012783
0.62262 0.88892 0
0.76123 0.89017 0
0.89955 0.89591 0
1 0.89666 0
0 1 0.0053948
0.052813 1 0
0.19911 1 0
0.37413 1 0
0.50008 1 0.00038787
0.62155 1 0.0007985
0.76369 1 0.00050645
0.90196 1 0.0014538
1 1 0.00068156
0.009585 0.016268 0.14641
0.13259 0.019801 0.14765
0.25277 0.011736 0.15462
0.38011 0 0.16076
0.50885 0 0.158
0.63723 0 0.1598
0.77097 0 0.17286
0.89184 0 0.17814
1 0 0.17317
0.015798 0.13547 0.14369
0.13101 0.14 0.14108
0.24491 0.13974 0.14435
0.36534 0.13523 0.14597
0.5081 0.13114 0.14406
0.64067 0.13127 0.15256
0.77205 0.12877 0.1645
0.88982 0.12749 0.16791
0.9996 0.12844 0.15945
0.021484 0.24883 0.1422
0.13679 0.25472 0.14022
0.24539 0.25767 0.13983
0.36931 0.26336 0.14068
0.50624 0.26798 0.13761
0.63616 0.26763 0.14266
0.76584 0.25885 0.14953
0.88626 0.25117 0.15331
1 0.25065 0.14808
0.015145 0.39163 0.14158
0.13621 0.37576 0.14138
0.24979 0.37123 0.14097
0.37764 0.37843 0.13779
0.51129 0.38743 0.13359
0.63172 0.38636 0.13554
0.75261 0.37657 0.13763
0.88078 0.3703 0.13778
1 0.36933 0.13546
0 0.52936 0.14149
0.1184 0.50664 0.14117
0.24648 0.49376 0.14106
0.38599 0.49446 0.13506
0.51483 0.49319 0.13173
0.62677 0.49214 0.13195
0.74606 0.49206 0.13237
0.88063 0.49235 0.13237
1 0.4946 0.12857
0 0.64267 0.13762
0.096658 0.62455 0.13942
0.24236 0.61185 0.14072
0.38841 0.61635 0.13506
0.51049 0.61674 0.13393
0.62541 0.61367 0.13663
0.75204 0.61309 0.1381
0.88354 0.6197 0.13501
1 0.6239 0.12779
0 0.77553 0.13036
0.070003 0.75485 0.13183
0.24403 0.73951 0.14117
0.39607 0.74971 0.13829
0.50965 0.75444 0.13842
0.6251 0.75424 0.14361
0.75492 0.75613 0.14715
0.88335 0.75875 0.14139
1 0.75341 0.13187
0 0.9256 0.11879
0.042244 0.92181 0.11168
0.23803 0.89382 0.13005
0.40063 0.88798 0.13466
0.51015 0.88685 0.13954
0.62658 0.88769 0.14628
0.76166 0.89361 0.15402
0.88705 0.90164 0.14996
1 0.90116 0.13857
0 1 0.11569
0.038379 1 0.099485
0.22066 1 0.10689
0.39274 1 0.12148
0.50843 1 0.13332
0.62835 1 0.14371
0.76873 1 0.15483
0.89117 1 0.15024
0.99788 1 0.13873
0.0094944 0.012792 0.27801
0.13715 0.0053361 0.28156
0.25984 0 0.2873
0.37933 0 0.29106
0.50662 0 0.28681
0.64902 0 0.2914
0.78202 0 0.30383
0.88888 0 0.30656
0.99987 0 0.30749
0.0073624 0.13094 0.26824
0.13055 0.13166 0.26375
0.24903 0.13004 0.26485
0.36869 0.12248 0.27326
0.51146 0.12087 0.27512
0.65395 0.12163 0.28155
0.78178 0.11512 0.2937
0.88827 0.11315 0.29441
0.99442 0.11234 0.29405
0.012566 0.25069 0.26528
0.13369 0.25606 0.2563
0.24787 0.257 0.25465
0.36902 0.25916 0.26012
0.50926 0.26108 0.25886
0.64698 0.25491 0.26794
0.77295 0.24191 0.28
0.88656 0.23514 0.28157
0.99399 0.23625 0.27611
0.011466 0.39428 0.26943
0.13315 0.37961 0.26362
0.24748 0.37723 0.25841
0.37366 0.37892 0.25749
0.51109 0.38211 0.2511
0.63729 0.37548 0.25316
0.75537 0.3638 0.25906
0.88278 0.35462 0.26438
0.99754 0.35707 0.26312
0 0.52964 0.26928
0.11727 0.51031 0.26991
0.24271 0.49611 0.26457
0.37957 0.49439 0.26132
0.51021 0.49749 0.25183
0.62858 0.49534 0.24822
0.74775 0.49215 0.25048
0.88206 0.48994 0.25403
1 0.49361 0.25441
0 0.64556 0.2717
0.09933 0.62814 0.27563
0.23743 0.61649 0.27183
0.38244 0.62027 0.26594
0.50917 0.6235 0.26063
0.62783 0.62085 0.2562
0.75208 0.62514 0.25746
0.88079 0.62968 0.25805
1 0.62765 0.2575
0 0.77467 0.27729
0.080022 0.76194 0.28978
0.23693 0.75062 0.28579
0.38909 0.75489 0.27166
0.50876 0.75756 0.26627
0.63079 0.7607 0.26268
0.75657 0.7642 0.26639
0.88094 0.76675 0.26947
1 0.76309 0.26794
0 0.91084 0.27131
0.06298 0.90469 0.29599
0.2301 0.89238 0.301
0.39165 0.88788 0.27859
0.51028 0.88827 0.26967
0.63448 0.88931 0.26844
0.76346 0.89737 0.27164
0.88353 0.90358 0.27224
0.99569 0.90341 0.27026
0 1 0.2534
0.057576 1 0.28198
0.21947 1 0.30087
0.38758 1 0.28098
0.50967 1 0.27078
0.6382 1 0.27028
0.77115 1 0.27386
0.8844 1 0.27054
0.99457 1 0.26944
0.0051912 0.0031247 0.42299
0.13986 0 0.41718
0.26242 0 0.41851
0.38062 0 0.41924
0.50481 0 0.42299
0.6559 0 0.42848
0.77998 0 0.42563
0.88987 0 0.41587
1 0 0.42001
0 0.1212 0.41158
0.12922 0.11917 0.40254
0.25201 0.11155 0.40403
0.37443 0.10772 0.40697
0.51369 0.10945 0.41182
0.66094 0.10936 0.41436
0.78187 0.10374 0.41418
0.8876 0.10006 0.40752
0.99851 0.095728 0.4121
0 0.251 0.40555
0.1279 0.25348 0.38876
0.24798 0.25216 0.38617
0.37335 0.251 0.38685
0.51565 0.2451 0.39531
0.65106 0.23992 0.39863
0.77471 0.22798 0.39813
0.88517 0.22129 0.39147
0.99034 0.21966 0.39188
0 0.39441 0.40975
0.12642 0.38818 0.38933
0.24382 0.38276 0.38392
0.37228 0.37974 0.38109
0.50915 0.37632 0.37981
0.63985 0.36477 0.38033
0.76075 0.34668 0.38326
0.88388 0.34005 0.37855
0.99419 0.3463 0.37753
0 0.5292 0.40557
0.11456 0.51422 0.39128
0.23899 0.50148 0.39075
0.37354 0.50109 0.3862
0.50413 0.50686 0.3813
0.62627 0.5004 0.37971
0.74758 0.49345 0.37885
0.88353 0.4895 0.37235
1 0.48945 0.3739
0 0.64858 0.40259
0.10027 0.63687 0.39701
0.23142 0.62589 0.39527
0.37825 0.62543 0.39221
0.50448 0.62762 0.38849
0.62404 0.62663 0.38486
0.75005 0.63389 0.38287
0.88158 0.63818 0.37861
1 0.63661 0.37947
0 0.77893 0.40199
0.087989 0.77539 0.4071
0.22546 0.76622 0.40565
0.37849 0.76202 0.39767
0.50522 0.76075 0.38998
0.6265 0.76392 0.38526
0.75695 0.76685 0.38379
0.88425 0.76867 0.38314
1 0.76992 0.38467
0 0.90321 0.4002
0.081443 0.90357 0.41084
0.21825 0.90092 0.41483
0.37377 0.89434 0.40269
0.506 0.88973 0.39086
0.6324 0.89286 0.38701
0.7609 0.90104 0.38551
0.88337 0.90155 0.38169
0.99573 0.89912 0.38238
0 1 0.39436
0.082739 1 0.40762
0.21435 1 0.41775
0.36799 1 0.40476
0.50387 1 0.39069
0.63978 1 0.38812
0.76596 1 0.38711
0.88184 1 0.38221
0.9963 1 0.3823
0.0021297 0 0.5654
0.13199 0 0.55617
0.26178 0 0.54949
0.38481 0 0.55104
0.51705 0 0.56333
0.65415 0 0.57168
0.76932 0 0.56447
0.87977 0 0.5524
1 0 0.54297
0 0.1113 0.55463
0.1207 0.10403 0.5434
0.25123 0.10001 0.53666
0.38149 0.096742 0.54093
0.52245 0.097254 0.55348
0.66052 0.093698 0.56173
0.77309 0.090296 0.55609
0.87963 0.089619 0.54552
0.99868 0.086223 0.53775
0 0.25182 0.55119
0.11465 0.24798 0.53543
0.24522 0.24165 0.52443
0.38043 0.23439 0.52647
0.52194 0.2283 0.53435
0.65045 0.22208 0.53687
0.76959 0.21041 0.53351
0.87586 0.20256 0.52572
0.99087 0.19685 0.52085
0 0.39149 0.551
0.10801 0.38966 0.53302
0.23766 0.3839 0.51836
0.37104 0.37901 0.51379
0.51065 0.36633 0.51655
0.64031 0.35059 0.51711
0.7572 0.33624 0.51318
0.87588 0.33079 0.50593
0.99146 0.33604 0.49921
0 0.51944 0.54202
0.10033 0.51295 0.52916
0.23639 0.50326 0.51854
0.36952 0.50784 0.51311
0.50273 0.511 0.51286
0.62512 0.50301 0.50977
0.74541 0.49696 0.50938
0.87634 0.49202 0.50457
0.99774 0.49499 0.4983
0 0.64147 0.53006
0.091413 0.64063 0.52452
0.22767 0.62976 0.51799
0.37599 0.62875 0.51455
0.50052 0.62781 0.51242
0.62284 0.62886 0.50908
0.74986 0.6334 0.51076
0.87659 0.64222 0.50726
0.99983 0.64468 0.5041
0 0.77591 0.52088
0.086827 0.77697 0.52103
0.22053 0.77284 0.51813
0.37435 0.76501 0.51461
0.49857 0.76197 0.51292
0.62305 0.76184 0.50792
0.75905 0.76278 0.50853
0.88233 0.77182 0.50867
1 0.77236 0.50948
0 0.90215 0.51812
0.084806 0.90405 0.51833
0.21575 0.90366 0.51739
0.36616 0.8948 0.51386
0.4977 0.88798 0.51173
0.62811 0.8935 0.50465
0.76266 0.89999 0.50245
0.88366 0.89895 0.50653
0.99893 0.89613 0.51094
0 1 0.51693
0.089249 1 0.51922
0.21406 1 0.5207
0.35586 1 0.51552
0.49568 1 0.51094
0.63516 1 0.50464
0.76545 1 0.49975
0.88254 1 0.50424
0.99961 1 0.50951
0 0 0.70866
0.11993 0 0.70025
0.25353 0 0.69423
0.38877 0 0.68734
0.52981 0 0.68379
0.65537 0 0.68688
0.75938 0 0.68569
0.86585 0 0.67314
1 0 0.66429
0 0.10149 0.69774
0.10695 0.094008 0.68572
0.24751 0.090243 0.6801
0.38896 0.085707 0.67816
0.53678 0.083941 0.68172
0.66304 0.080808 0.68822
0.7614 0.081846 0.68662
0.86417 0.081646 0.67382
0.99467 0.079016 0.66176
0 0.24954 0.69009
0.10114 0.24624 0.68281
0.23855 0.23522 0.67393
0.3813 0.22185 0.66687
0.52769 0.21036 0.66364
0.65248 0.19833 0.66887
0.76054 0.18554 0.66848
0.86357 0.17847 0.65806
0.99026 0.17872 0.64919
0 0.38781 0.68682
0.095234 0.38528 0.6804
0.22349 0.38005 0.66776
0.36691 0.36868 0.65498
0.51231 0.35481 0.64866
0.63626 0.33837 0.64755
0.75014 0.32327 0.6428
0.86584 0.32097 0.63429
0.99397 0.32239 0.63232
0 0.50739 0.67849
0.090494 0.50303 0.6753
0.22025 0.50088 0.66205
0.36343 0.50542 0.64484
0.50064 0.50694 0.63539
0.62466 0.4978 0.63757
0.74192 0.49423 0.63488
0.87094 0.49494 0.63113
0.99458 0.49891 0.62853
0 0.62969 0.67023
0.084305 0.63202 0.665
0.21821 0.6273 0.65546
0.37007 0.6283 0.64223
0.4991 0.63048 0.63508
0.62293 0.63135 0.63798
0.74788 0.63725 0.63385
0.87303 0.64341 0.63215
0.99789 0.64825 0.62972
0 0.76899 0.66403
0.08218 0.7728 0.65906
0.21465 0.76951 0.65103
0.36761 0.76583 0.64297
0.49859 0.76153 0.63419
0.62316 0.75883 0.63897
0.7572 0.75973 0.6378
0.88076 0.77076 0.63227
1 0.7769 0.63038
0 0.90031 0.65764
0.082154 0.90189 0.65613
0.21353 0.90517 0.65319
0.35966 0.89802 0.64805
0.49607 0.8889 0.63575
0.6236 0.8895 0.6356
0.76035 0.89396 0.63189
0.88699 0.89457 0.627
1 0.89319 0.6329
0 1 0.65464
0.088034 1 0.65286
0.21491 1 0.65421
0.35024 1 0.65362
0.49138 1 0.64258
0.62712 1 0.63546
0.76225 1 0.62863
0.88696 1 0.62365
1 1 0.63112
0 0 0.85503
0.11329 0 0.85077
0.24197 0 0.8425
0.37639 0 0.82931
0.50962 0 0.80848
0.65141 0 0.78454
0.75673 0 0.77723
0.86023 0 0.77859
1 0 0.78511
0 0.092205 0.83811
0.09786 0.08729 0.83656
0.24386 0.082512 0.83463
0.38044 0.074909 0.82684
0.52414 0.075111 0.80637
0.65703 0.078314 0.78517
0.75829 0.080094 0.77807
0.85418 0.077911 0.77609
0.99758 0.072129 0.78088
0 0.24268 0.83102
0.094991 0.24359 0.83125
0.23045 0.23092 0.82927
0.3669 0.21161 0.81803
0.51622 0.19545 0.79898
0.65131 0.17932 0.78225
0.75448 0.16669 0.77456
0.85129 0.16217 0.76852
0.99798 0.16865 0.77102
0 0.37941 0.82363
0.089147 0.38017 0.82333
0.21376 0.37085 0.82076
0.34984 0.35638 0.81116
0.49826 0.34462 0.79167
0.62894 0.32607 0.77374
0.74275 0.30873 0.76513
0.86222 0.30705 0.76188
1 0.31383 0.77039
0 0.49679 0.81371
0.088046 0.4973 0.81808
0.20645 0.49751 0.81686
0.34268 0.49964 0.80595
0.4902 0.49894 0.78404
0.61835 0.49681 0.76722
0.73809 0.49413 0.76008
0.86897 0.49543 0.7585
1 0.49295 0.76529
0 0.62879 0.81
0.084728 0.63022 0.81609
0.20728 0.62709 0.82079
0.34909 0.62844 0.80913
0.49095 0.63362 0.78391
0.61863 0.63747 0.77059
0.74462 0.6416 0.76458
0.87021 0.64739 0.76199
0.99835 0.64986 0.76032
0 0.76575 0.8134
0.087171 0.77346 0.82161
0.20575 0.77601 0.82808
0.34758 0.77389 0.81375
0.48745 0.76494 0.7893
0.62294 0.75638 0.77745
0.75213 0.76243 0.77071
0.87456 0.77163 0.76725
1 0.77724 0.76281
0 0.8915 0.81004
0.094396 0.89541 0.82285
0.21187 0.90658 0.83457
0.34104 0.9085 0.82496
0.47595 0.89994 0.79926
0.61705 0.89072 0.77915
0.75554 0.88899 0.7711
0.88371 0.88806 0.77121
1 0.89628 0.76779
0 1 0.80017
0.10215 1 0.817
0.21915 1 0.83225
0.3399 1 0.82966
0.46992 1 0.81035
0.61216 1 0.78674
0.75635 1 0.77258
0.88454 1 0.77206
1 1 0.77105
0 0 0.96908
0.10556 0 0.96591
0.23121 0 0.95975
0.35976 0 0.95251
0.48092 0 0.93829
0.62152 0 0.91659
0.75029 0 0.89157
0.87646 0 0.89428
1 0 0.91586
0 0.077411 0.95816
0.10298 0.080327 0.9732
0.23601 0.082963 0.97116
0.36152 0.07929 0.95864
0.48677 0.07777 0.94022
0.62368 0.078158 0.91075
0.74928 0.077493 0.88067
0.8669 0.068309 0.88046
1 0.060109 0.91104
0 0.23525 0.94582
0.10207 0.23262 0.96379
0.22716 0.22021 0.96908
0.35109 0.20507 0.96274
0.48565 0.19257 0.94809
0.61559 0.18476 0.91811
0.73989 0.16938 0.88313
0.85553 0.16009 0.87318
1 0.16509 0.89964
0 0.36898 0.93582
0.094597 0.36837 0.95013
0.21504 0.3621 0.95861
0.33792 0.35358 0.96062
0.47387 0.3409 0.95066
0.60294 0.3231 0.92927
0.72889 0.30655 0.89991
0.86915 0.31279 0.89109
1 0.32116 0.90735
0 0.48819 0.92916
0.094943 0.49519 0.9413
0.2122 0.49832 0.95336
0.33441 0.49973 0.9621
0.46252 0.49823 0.95412
0.59618 0.49251 0.93061
0.7277 0.49384 0.90416
0.87465 0.49142 0.89338
1 0.48147 0.91005
0 0.62943 0.92556
0.098473 0.62991 0.9406
0.21558 0.62615 0.9546
0.33717 0.63143 0.96208
0.46289 0.6351 0.95588
0.59748 0.63943 0.93019
0.73448 0.64536 0.90281
0.87144 0.65136 0.88931
1 0.64473 0.89929
0 0.76984 0.92755
0.099877 0.77521 0.93715
0.21307 0.7781 0.95034
0.33541 0.77397 0.95749
0.46589 0.7655 0.95478
0.59969 0.7671 0.93322
0.74106 0.77006 0.90621
0.87603 0.77909 0.89438
1 0.78338 0.89693
0 0.88765 0.93041
0.1087 0.89512 0.93545
0.21897 0.90735 0.94399
0.33067 0.91344 0.95064
0.45629 0.90849 0.94946
0.59478 0.89855 0.93853
0.74695 0.89218 0.91735
0.88408 0.89613 0.90574
1 0.91032 0.9102
0 1 0.93489
0.11769 1 0.93684
0.22688 1 0.94175
0.33384 1 0.94702
0.45423 1 0.94512
0.5909 1 0.93996
0.74325 1 0.92474
0.89163 1 0.91675
0.97017 0.95765 0.91398
0.0053248 0 0.98445
0.10805 0 0.99835
0.2326 0 1
0.352 0 1
0.47118 0 1
0.60551 0 1
0.7391 0 1
0.88047 0 1
1 0 0.99178
0 0.070635 0.99998
0.12146 0.081984 1
0.23786 0.090032 1
0.35191 0.089739 1
0.47132 0.086909 1
0.60038 0.079006 1
0.73486 0.068083 1
0.87774 0.055563 1
1 0.056394 0.99754
0 0.22737 1
0.12026 0.22315 1
0.23204 0.21312 1
0.34836 0.20311 1
0.47109 0.19911 1
0.58921 0.19706 1
0.719 0.1816 1
0.86728 0.16842 1
1 0.16981 1
0 0.36257 1
0.1097 0.35984 1
0.22342 0.35619 1
0.34048 0.35293 1
0.4665 0.34217 1
0.58576 0.32925 1
0.71029 0.3222 1
0.87185 0.32561 1
1 0.32796 1
0 0.48848 1
0.10874 0.49144 1
0.22559 0.49593 1
0.34091 0.50166 1
0.45679 0.50129 1
0.58016 0.49482 1
0.70921 0.49202 1
0.87297 0.48419 1
1 0.47758 1
0 0.62858 1
0.11268 0.62614 1
0.22677 0.62733 1
0.34513 0.62925 1
0.45941 0.63348 1
0.58067 0.63926 1
0.71463 0.64395 1
0.86209 0.64866 1
1 0.63372 1
0 0.77221 1
0.10913 0.77319 1
0.2245 0.77057 1
0.34477 0.76364 1
0.46354 0.76286 1
0.58643 0.7676 1
0.72288 0.775 1
0.86376 0.78685 1
1 0.7875 1
0 0.89209 1
0.11263 0.89435 1
0.22759 0.90109 1
0.33836 0.90292 1
0.46134 0.89765 1
0.59041 0.89579 1
0.73066 0.89911 1
0.87629 0.90807 1
1 0.92431 1
0 1 1
0.11829 1 1
0.23264 1 1
0.33879 1 1
0.45841 1 1
0.5904 1 1
0.73227 1 1
0.88671 1 1
0.94558 0.93168 1
