a - Ai/luts/2xken-lightgrain-v1-evA-01.cube
LUT_3D_SIZE 5
0 0.00055742 0.00084634
0.2484 0.014532 0.021158
0.51501 0.00082881 0.0060101
0.76322 0.0019661 0
1 0 8.3e-005
0.016141 0.2523 0.017708
0.2493 0.26113 0.023602
0.50853 0.2708 0
0.76271 0.26463 0.00046266
1 0.25674 0.0022649
0 0.53227 0
0.24929 0.50062 0.0069291
0.51435 0.49768 0
0.74587 0.49288 0
1 0.49849 0
0 0.78436 0
0.22581 0.75313 0
0.50862 0.74906 0
0.75681 0.75 0
1 0.75567 0
0 1 0.0053948
0.19911 1 0
0.50008 1 0.00038787
0.76369 1 0.00050645
1 1 0.00068156
0.0094944 0.012792 0.27801
0.25984 0 0.2873
0.50662 0 0.28681
0.78202 0 0.30383
0.99987 0 0.30749
0.012566 0.25069 0.26528
0.24787 0.257 0.25465
0.50926 0.26108 0.25886
0.77295 0.24191 0.28
0.99399 0.23625 0.27611
0 0.52964 0.26928
0.24271 0.49611 0.26457
0.51021 0.49749 0.25183
0.74775 0.49215 0.25048
1 0.49361 0.25441
0 0.77467 0.27729
0.23693 0.75062 0.28579
0.50876 0.75756 0.26627
0.75657 0.7642 0.26639
1 0.76309 0.26794
0 1 0.2534
0.21947 1 0.30087
0.50967 1 0.27078
0.77115 1 0.27386
0.99457 1 0.26944
0.0021297 0 0.5654
0.26178 0 0.54949
0.51705 0 0.56333
0.76932 0 0.56447
1 0 0.54297
0 0.25182 0.55119
0.24522 0.24165 0.52443
0.52194 0.2283 0.53435
0.76959 0.21041 0.53351
0.99087 0.19685 0.52085
0 0.51944 0.54202
0.23639 0.50326 0.51854
0.50273 0.511 0.51286
0.74541 0.49696 0.50938
0.99774 0.49499 0.4983
0 0.77591 0.52088
0.22053 0.77284 0.51813
0.49857 0.76197 0.51292
0.75905 0.76278 0.50853
1 0.77236 0.50948
0 1 0.51693
0.21406 1 0.5207
0.49568 1 0.51094
0.76545 1 0.49975
0.99961 1 0.50951
0 0 0.85503
0.24197 0 0.8425
0.50962 0 0.80848
0.75673 0 0.77723
1 0 0.78511
0 0.24268 0.83102
0.23045 0.23092 0.82927
0.51622 0.19545 0.79898
0.75448 0.16669 0.77456
0.99798 0.16865 0.77102
0 0.49679 0.81371
0.20645 0.49751 0.81686
0.4902 0.49894 0.78404
0.73809 0.49413 0.76008
1 0.49295 0.76529
0 0.76575 0.8134
0.20575 0.77601 0.82808
0.48745 0.76494 0.7893
0.75213 0.76243 0.77071
1 0.77724 0.76281
0 1 0.80017
0.21915 1 0.83225
0.46992 1 0.81035
0.75635 1 0.77258
1 1 0.77105
0.0053248 0 0.98445
0.2326 0 1
0.47118 0 1
0.7391 0 1
1 0 0.99178
0 0.22737 1
0.23204 0.21312 1
0.47109 0.19911 1
0.719 0.1816 1
1 0.16981 1
0 0.48848 1
0.22559 0.49593 1
0.45679 0.50129 1
0.70921 0.49202 1
1 0.47758 1
0 0.77221 1
0.2245 0.77057 1
0.46354 0.76286 1
0.72288 0.775 1
1 0.7875 1
0 1 1
0.23264 1 1
0.45841 1 1
0.73227 1 1
0.94558 0.93168 1
