a - Ai/luts/2xken-lightgrain-v1-evA-01.cube
LUT_3D_SIZE 33
0 0.00055742 0.00084634
0.030582 0.0040284 0.0048926
0.064144 0.0079437 0.010116
0.096707 0.010568 0.013825
0.12773 0.012043 0.016189
0.15659 0.012868 0.01825
0.18581 0.013619 0.019998
0.21649 0.014089 0.020927
0.2484 0.014532 0.021158
0.28123 0.014771 0.020456
0.3149 0.014556 0.018602
0.34972 0.01252 0.016952
0.38454 0.010132 0.015122
0.41918 0.0076109 0.012946
0.45304 0.0051086 0.010661
0.48511 0.0027559 0.0083101
0.51501 0.00082881 0.0060101
0.54344 0 0.0037818
0.57434 0 0.0018871
0.60447 0 0.00058732
0.63507 0 0
0.6663 0 0
0.69817 0.00010653 0
0.7304 0.0011717 0
0.76322 0.0019661 0
0.79562 0.002213 0
0.82746 0.0018705 0
0.8592 0.0011009 0
0.8909 0.00019206 0
0.92225 0 0.00015814
0.95245 0 0.00047008
0.98035 0 0.00019704
1 0 8.3e-005
0.0025974 0.039316 0.0076186
0.033785 0.043207 0.011678
0.066104 0.045808 0.0159
0.097371 0.047216 0.018632
0.12771 0.047744 0.020274
0.15657 0.047723 0.021644
0.18585 0.047567 0.022799
0.21657 0.047381 0.023034
0.24843 0.04706 0.02266
0.28086 0.046449 0.021406
0.31447 0.045929 0.019183
0.34832 0.045214 0.016327
0.38206 0.044165 0.013191
0.41654 0.041335 0.010777
0.45057 0.038384 0.0085527
0.48319 0.035685 0.0065278
0.51366 0.033323 0.0046757
0.5422 0.031544 0.002926
0.57207 0.029291 0.0014115
0.60315 0.027258 8.596e-005
0.63454 0.026277 0
0.66635 0.026019 0
0.69876 0.026453 0
0.73171 0.027829 0
0.76453 0.029415 0
0.79649 0.030578 0
0.82775 0.031154 0
0.85903 0.031188 0
0.89062 0.031011 0
0.92232 0.030859 0
0.95284 0.031021 1.8325e-005
0.98089 0.031623 0
1 0.032118 0
0.0061693 0.075187 0.013182
0.036591 0.077795 0.017055
0.067476 0.079505 0.020436
0.097753 0.080397 0.022484
0.1275 0.080848 0.023541
0.15613 0.080849 0.024326
0.18523 0.080444 0.024943
0.21609 0.079819 0.024534
0.24771 0.079131 0.023503
0.28019 0.07855 0.02174
0.31371 0.078027 0.019112
0.347 0.07687 0.016013
0.38054 0.075472 0.012701
0.41412 0.074047 0.0091766
0.44751 0.072663 0.0059405
0.48046 0.069714 0.0042008
0.51166 0.067066 0.0029432
0.54121 0.065208 0.0018632
0.56968 0.064428 0.00085452
0.60186 0.062572 0.00018251
0.63413 0.061735 0
0.6665 0.061822 0
0.6997 0.062803 0
0.73292 0.064098 0
0.76546 0.06529 0
0.79671 0.06607 0
0.82723 0.06637 0
0.85805 0.066004 0
0.8896 0.065244 0
0.92188 0.065058 0.00030069
0.95273 0.064867 0.00043393
0.9811 0.064885 0
1 0.065288 0
0.0088179 0.10708 0.017084
0.038871 0.10866 0.020723
0.068848 0.10991 0.023607
0.098469 0.1109 0.025147
0.12764 0.11159 0.025784
0.15595 0.11186 0.026128
0.18458 0.11181 0.026273
0.21528 0.11147 0.025432
0.24702 0.11117 0.023951
0.2794 0.1108 0.021602
0.31243 0.11014 0.018451
0.34524 0.10889 0.0151
0.37858 0.10751 0.011662
0.41229 0.10616 0.0081977
0.44579 0.10489 0.0051971
0.47826 0.10361 0.0028112
0.50942 0.10269 0.00095848
0.54002 0.10114 0.00042182
0.56969 0.1004 0.00025445
0.60045 0.09982 7.4363e-005
0.63368 0.098953 0
0.667 0.099148 0
0.70059 0.099803 0
0.73386 0.10064 0
0.76602 0.10145 0
0.79658 0.10182 0
0.82649 0.10172 0
0.85696 0.10141 0
0.88866 0.1009 0.00054469
0.92084 0.099959 0.0010609
0.95206 0.099206 0.00096022
0.98098 0.098819 0.00023581
1 0.099061 0
0.010741 0.13645 0.019215
0.040626 0.13761 0.02257
0.070227 0.13864 0.025238
0.099571 0.13959 0.026605
0.12827 0.14046 0.02713
0.15625 0.14109 0.027269
0.18469 0.14176 0.02713
0.21496 0.14222 0.026043
0.2466 0.14238 0.024137
0.27877 0.14231 0.02123
0.31109 0.14192 0.017551
0.34364 0.14113 0.013967
0.37693 0.1402 0.010474
0.41061 0.13918 0.0070938
0.44421 0.1381 0.0043234
0.47698 0.13713 0.0022532
0.50881 0.1365 0.00085763
0.53967 0.1365 1.1406e-005
0.5696 0.13721 0
0.59926 0.13759 0
0.63297 0.13655 0
0.66706 0.13596 0
0.7011 0.13607 0
0.73438 0.13626 0
0.76616 0.13629 0
0.79635 0.13633 0
0.82619 0.13656 0.00037006
0.85621 0.13627 0.00094102
0.88735 0.13544 0.00145
0.91953 0.13433 0.0015782
0.951 0.13325 0.0013517
0.98059 0.13257 0.00071793
1 0.13252 0
0.012382 0.16499 0.019982
0.042123 0.16586 0.023192
0.071592 0.16683 0.025805
0.10087 0.16795 0.027121
0.12923 0.16911 0.027648
0.15709 0.17012 0.027803
0.18542 0.17107 0.027621
0.21538 0.17188 0.02648
0.2465 0.17242 0.024237
0.27864 0.17283 0.02091
0.31062 0.17309 0.017009
0.34289 0.17314 0.013167
0.37602 0.173 0.0094735
0.40949 0.17262 0.0061107
0.44312 0.17206 0.0034591
0.47617 0.17151 0.0015593
0.5084 0.17123 0.00042206
0.53972 0.17113 0
0.57033 0.17132 0
0.60034 0.17217 0
0.63166 0.17314 0
0.66629 0.17218 0
0.70073 0.17101 0
0.73399 0.16997 0
0.76604 0.16976 0
0.79644 0.16958 0.00059686
0.82592 0.16927 0.0012637
0.85553 0.16878 0.0017734
0.88637 0.16813 0.0020783
0.91826 0.16719 0.0020294
0.94989 0.16616 0.0017478
0.98006 0.16542 0.0012204
1 0.16523 0.00051291
0.013692 0.19355 0.019785
0.043365 0.19435 0.022984
0.07294 0.19525 0.02564
0.10244 0.19654 0.027112
0.13055 0.19776 0.027734
0.15829 0.19898 0.027949
0.18655 0.20026 0.027785
0.21618 0.20134 0.026628
0.24702 0.20215 0.024209
0.27904 0.20296 0.020752
0.31093 0.20338 0.016798
0.34324 0.20397 0.012793
0.37621 0.20465 0.0088943
0.40943 0.20524 0.0053905
0.44291 0.20559 0.002741
0.47588 0.20578 0.00090721
0.50811 0.20568 0
0.5395 0.20558 0
0.57052 0.2056 0
0.60107 0.20573 0
0.6317 0.20619 0
0.66545 0.20523 0
0.69967 0.20463 0
0.7331 0.20385 0
0.76537 0.20248 0
0.79596 0.20134 0.00083877
0.8253 0.20047 0.0016182
0.85488 0.19969 0.0020587
0.88561 0.19895 0.0022604
0.91729 0.19821 0.00221
0.94893 0.19739 0.002061
0.97953 0.19672 0.0017233
1 0.19654 0.0012363
0.014988 0.22252 0.018916
0.044462 0.22343 0.022268
0.074261 0.22437 0.025059
0.10396 0.22546 0.026671
0.13206 0.22676 0.027541
0.1599 0.2282 0.0279
0.18804 0.22957 0.027756
0.21733 0.23079 0.026605
0.2481 0.23189 0.024056
0.27964 0.23272 0.020488
0.31153 0.23333 0.016505
0.34414 0.23416 0.012396
0.37726 0.2353 0.0084423
0.41055 0.23659 0.0049148
0.44372 0.23776 0.0022973
0.47617 0.23853 0.00044807
0.50814 0.23895 0
0.53944 0.23904 0
0.57027 0.23886 0
0.60097 0.23854 0
0.63198 0.23832 0
0.66423 0.23814 0
0.699 0.23654 0
0.73238 0.23531 0
0.76397 0.23433 0
0.7944 0.23306 0.00033685
0.8241 0.23135 0.0012618
0.85394 0.23003 0.0017817
0.88476 0.22906 0.0020551
0.9164 0.22829 0.0021889
0.94812 0.22751 0.0022808
0.97913 0.22694 0.002125
1 0.22681 0.001854
0.016141 0.2523 0.017708
0.04564 0.25318 0.021174
0.075436 0.25409 0.024168
0.10544 0.25528 0.026057
0.13371 0.25646 0.02719
0.16156 0.25768 0.027639
0.18959 0.25889 0.027477
0.21868 0.26006 0.026305
0.2493 0.26113 0.023602
0.28039 0.26195 0.020001
0.31236 0.26273 0.016013
0.34543 0.26384 0.011861
0.37891 0.26542 0.0079074
0.41227 0.26709 0.0045422
0.44512 0.26869 0.0019261
0.47709 0.27004 0
0.50853 0.2708 0
0.53938 0.271 0
0.56988 0.27078 0
0.60083 0.2709 0
0.63209 0.27086 0
0.66315 0.27078 0
0.69727 0.26891 0
0.7308 0.26667 0
0.76271 0.26463 0.00046266
0.79323 0.263 0.0008921
0.8226 0.26195 0.00085504
0.8524 0.26086 0.00085567
0.88359 0.25943 0.0013532
0.91543 0.25837 0.0017961
0.94732 0.25755 0.0021591
0.97867 0.257 0.0022696
1 0.25674 0.0022649
0.014965 0.28786 0.014426
0.045472 0.2865 0.018762
0.076351 0.28532 0.022912
0.10664 0.28538 0.025169
0.13499 0.28592 0.026473
0.16294 0.28664 0.026999
0.19103 0.28761 0.026866
0.21994 0.28854 0.025593
0.25043 0.28954 0.022767
0.28134 0.29045 0.019211
0.31359 0.29171 0.015296
0.347 0.29328 0.011241
0.38081 0.29504 0.0075187
0.41421 0.29703 0.0042245
0.44692 0.29892 0.0015136
0.47849 0.30053 0
0.50919 0.30164 0
0.53966 0.30245 0
0.57015 0.3031 0
0.60071 0.30321 0
0.63178 0.30283 0
0.66286 0.30228 0
0.69459 0.30086 0
0.72818 0.2977 0
0.76045 0.29482 0.00058929
0.79153 0.29244 0.0011297
0.82158 0.29085 0.0012899
0.85166 0.28992 0.0011507
0.88252 0.28965 0.00085341
0.91421 0.28927 0.0009346
0.94639 0.2883 0.0015366
0.97812 0.28753 0.0019183
1 0.28697 0.0021428
0.013249 0.3245 0.010827
0.043793 0.3228 0.015151
0.0747 0.32089 0.019219
0.10528 0.31878 0.022309
0.1348 0.31657 0.02461
0.16386 0.3151 0.025969
0.19208 0.3156 0.025897
0.22109 0.31634 0.024547
0.25144 0.3173 0.021692
0.2827 0.31863 0.018229
0.3153 0.32042 0.014547
0.34896 0.32254 0.010782
0.38285 0.32473 0.0071633
0.41634 0.3268 0.0038577
0.44872 0.32873 0.0010486
0.47985 0.3302 0
0.51054 0.332 0
0.54058 0.33337 0
0.57046 0.334 0
0.60058 0.33405 0
0.63126 0.33366 0
0.66202 0.33284 0
0.69204 0.33152 0
0.7248 0.32806 0
0.75741 0.32456 0.00013528
0.78913 0.32173 0.00077675
0.82008 0.3197 0.0011025
0.85094 0.31864 0.0012471
0.88241 0.31834 0.0012985
0.9142 0.31845 0.0012941
0.94579 0.31878 0.00098807
0.9771 0.31869 0.00083241
1 0.31763 0.001319
0.011285 0.36147 0.0073475
0.041283 0.35922 0.011421
0.072003 0.35649 0.015201
0.10246 0.35355 0.018394
0.13217 0.35059 0.020962
0.16188 0.34792 0.022735
0.19151 0.34581 0.023624
0.22184 0.34446 0.023116
0.25271 0.34501 0.02053
0.28442 0.34657 0.017409
0.31749 0.34883 0.013896
0.35131 0.35137 0.010221
0.38513 0.35391 0.0066362
0.4183 0.35603 0.0033614
0.45046 0.35791 0.00064545
0.48166 0.36001 0
0.512 0.3617 0
0.54151 0.36289 0
0.57074 0.3635 0
0.60047 0.3634 0
0.63075 0.36292 0
0.66085 0.36166 0
0.69066 0.36013 0
0.72103 0.35775 0
0.75391 0.35401 0
0.78634 0.35079 0
0.81848 0.34856 0.0005273
0.85011 0.34756 0.00087139
0.88223 0.34729 0.0011227
0.9143 0.34729 0.0012627
0.94603 0.34747 0.0010752
0.97697 0.34736 0.00071924
1 0.34735 0.00044909
0.0086724 0.39853 0.0042132
0.038058 0.39555 0.0078577
0.068447 0.39219 0.01127
0.098807 0.38842 0.014262
0.12857 0.38467 0.016947
0.15881 0.38115 0.018974
0.18939 0.37844 0.020117
0.2205 0.37662 0.019987
0.25258 0.37556 0.018324
0.286 0.37548 0.016155
0.32005 0.37691 0.013214
0.35397 0.37972 0.0096265
0.38752 0.38242 0.0061016
0.42033 0.3849 0.0029659
0.4525 0.38703 0.00050667
0.48328 0.38889 0
0.51327 0.39032 0
0.54234 0.39127 0
0.57103 0.39177 0
0.60026 0.39165 0
0.6299 0.39065 0
0.65962 0.38929 0
0.68909 0.38761 0
0.71808 0.38596 0
0.75057 0.38271 0
0.78353 0.37983 0
0.81658 0.37777 0
0.84926 0.37669 2.8107e-005
0.8819 0.37628 0.00040872
0.91421 0.37617 0.00059884
0.94581 0.37611 0.00050242
0.9768 0.37603 0.00034119
1 0.3759 0.00035587
0.0053381 0.4346 0.0014962
0.03416 0.43108 0.0045582
0.064107 0.42705 0.0073584
0.094241 0.4227 0.010103
0.12436 0.4183 0.012791
0.15502 0.41433 0.01517
0.1866 0.41096 0.01655
0.21863 0.40863 0.016723
0.252 0.40751 0.015458
0.28634 0.40754 0.01356
0.32124 0.40817 0.01107
0.35609 0.40909 0.0083082
0.39017 0.41061 0.0056271
0.4225 0.41322 0.0027249
0.45416 0.41511 0.00047136
0.48478 0.41659 0
0.51429 0.41776 0
0.543 0.41845 0
0.57129 0.41876 0
0.59984 0.41834 0
0.62905 0.41735 0
0.65829 0.41595 0
0.68756 0.41427 0
0.71676 0.4127 0
0.74765 0.41082 0
0.78125 0.40833 0
0.81498 0.40668 0
0.84848 0.40589 0
0.88138 0.40541 0
0.91398 0.40532 0
0.94572 0.40543 0
0.97669 0.40545 0
1 0.40515 0
0.0018024 0.46895 0
0.029628 0.46513 0.0015238
0.059166 0.46074 0.0037558
0.089146 0.45594 0.0062189
0.1194 0.45115 0.0088636
0.1508 0.44677 0.01123
0.18333 0.44314 0.012857
0.21648 0.44041 0.01344
0.25135 0.43906 0.012561
0.28667 0.43891 0.010827
0.32226 0.43971 0.0084602
0.35743 0.44101 0.0059953
0.39115 0.44187 0.0036822
0.42373 0.44224 0.0017423
0.45566 0.442 0.00050011
0.48598 0.44309 0
0.51515 0.44392 0
0.54352 0.44442 0
0.5713 0.44434 0
0.59951 0.44381 0
0.62819 0.44294 0
0.65711 0.44176 0
0.68622 0.44039 0
0.7157 0.43924 0
0.74543 0.43865 0
0.77946 0.43663 0
0.81381 0.43531 0
0.84782 0.43456 0
0.88124 0.43456 0
0.91417 0.43503 0
0.94588 0.43544 0
0.97652 0.43555 0
1 0.4354 0
0 0.50136 0
0.024841 0.49745 0
0.053743 0.4929 0.0006852
0.083562 0.48796 0.0027375
0.11411 0.48298 0.0050508
0.14618 0.47848 0.0073919
0.1797 0.47474 0.0092516
0.21391 0.47169 0.010265
0.25026 0.46983 0.0096742
0.28722 0.46988 0.0081084
0.32339 0.47074 0.006037
0.35833 0.47142 0.0037774
0.39169 0.47186 0.0016814
0.42387 0.47198 2.0413e-005
0.45522 0.47162 0
0.48591 0.47071 0
0.51577 0.46932 0
0.5438 0.46922 0
0.57123 0.46897 0
0.59914 0.46842 0
0.62758 0.4677 0
0.6563 0.46694 0
0.68542 0.46619 0
0.7152 0.46577 0
0.74542 0.46575 0
0.77804 0.4651 0
0.81289 0.46397 0
0.84763 0.46374 0
0.88169 0.46421 0
0.91474 0.46485 0
0.94641 0.46573 0
0.97683 0.46648 0
1 0.46681 0
0 0.53227 0
0.020028 0.52827 0
0.048248 0.52375 0
0.077786 0.51875 0
0.10852 0.51366 0.0014704
0.14137 0.50902 0.003834
0.17562 0.50512 0.0058659
0.21099 0.50201 0.007299
0.24929 0.50062 0.0069291
0.28736 0.50018 0.0056229
0.32392 0.50028 0.0038004
0.35873 0.50048 0.001792
0.39192 0.50055 0
0.42386 0.50041 0
0.45477 0.5 0
0.48496 0.49914 0
0.51435 0.49768 0
0.54285 0.49573 0
0.57082 0.49365 0
0.59888 0.49258 0
0.62726 0.49216 0
0.65605 0.49193 0
0.68535 0.49206 0
0.71533 0.49235 0
0.74587 0.49288 0
0.77706 0.49379 0
0.81258 0.49345 0
0.84789 0.49362 0
0.88235 0.49425 0
0.91574 0.49539 0
0.94749 0.49667 0
0.97762 0.49779 0
1 0.49849 0
0 0.56246 0
0.015266 0.55839 0
0.042825 0.5538 0
0.071973 0.54882 0
0.10279 0.54371 0
0.13621 0.53889 0.00049888
0.17152 0.53501 0.0027424
0.20846 0.53232 0.0043857
0.24767 0.53047 0.0043404
0.28669 0.52941 0.0032243
0.32372 0.52882 0.0016737
0.35866 0.52852 0
0.39187 0.52827 0
0.4237 0.52798 0
0.45438 0.5276 0
0.4841 0.52688 0
0.51284 0.52548 0
0.54102 0.52362 0
0.56888 0.52156 0
0.59749 0.51957 0
0.62695 0.5178 0
0.65645 0.51729 0
0.68602 0.51809 0
0.71602 0.519 0
0.74697 0.52039 0
0.77838 0.52242 0
0.81281 0.52318 0
0.84857 0.52384 0
0.88348 0.52501 0
0.91708 0.52651 0
0.94879 0.52805 0
0.97863 0.5294 0
1 0.53033 0
0 0.59218 0
0.010642 0.5881 0
0.037355 0.58354 0
0.066142 0.57854 0
0.097208 0.57368 0
0.13133 0.56907 0
0.16738 0.56499 0
0.2055 0.56186 0.001577
0.24537 0.55985 0.0020022
0.28527 0.55836 0.0010796
0.32288 0.55731 0
0.35824 0.55662 0
0.39156 0.55622 0
0.42344 0.55589 0
0.45406 0.55558 0
0.48315 0.55475 0
0.51149 0.5536 0
0.53924 0.55201 0
0.56715 0.5502 0
0.59595 0.54873 0
0.62571 0.54761 0
0.6559 0.54669 0
0.68647 0.5459 0
0.71756 0.54624 0
0.74879 0.54842 0
0.78047 0.55082 0
0.81359 0.55322 0
0.84985 0.55448 0
0.88497 0.55613 0
0.91866 0.55794 0
0.95024 0.55971 0
0.97971 0.56118 0
1 0.56219 0
0 0.62181 0
0.0061598 0.61784 0
0.032332 0.61378 0
0.060936 0.60929 0
0.091721 0.60436 0
0.12621 0.59951 0
0.16269 0.59478 0
0.20202 0.59121 0
0.24289 0.58893 0
0.2834 0.58728 0
0.32164 0.58606 0
0.35756 0.5853 0
0.39123 0.58494 0
0.42323 0.58479 0
0.45351 0.58433 0
0.48231 0.58372 0
0.51028 0.58274 0
0.53782 0.58156 0
0.56577 0.58039 0
0.59502 0.57928 0
0.62489 0.5785 0
0.65519 0.57794 0
0.68618 0.57769 0
0.71792 0.57764 0
0.75039 0.5783 0
0.78319 0.57962 0
0.81544 0.58321 0
0.85151 0.58521 0
0.88675 0.58724 0
0.92039 0.58926 0
0.9518 0.59114 0
0.98087 0.59275 0
1 0.59398 0
0 0.6525 0
0.0024402 0.64909 0
0.027769 0.6452 0
0.055698 0.64066 0
0.086209 0.63565 0
0.12028 0.63036 0
0.15734 0.62512 0
0.19792 0.62096 0
0.24003 0.61818 0
0.28124 0.6165 0
0.32039 0.61539 0
0.35698 0.61494 0
0.39112 0.61495 0
0.42294 0.61488 0
0.45309 0.61473 0
0.48164 0.61425 0
0.50942 0.61359 0
0.53694 0.61293 0
0.56489 0.6122 0
0.59409 0.6113 0
0.62437 0.61066 0
0.65482 0.6101 0
0.68602 0.60998 0
0.71831 0.61032 0
0.7515 0.61126 0
0.78485 0.61281 0
0.81827 0.61472 0
0.8535 0.61581 0
0.88872 0.61806 0
0.92223 0.62027 0
0.95341 0.62229 0
0.98211 0.62395 0
1 0.62523 0
0 0.68407 0
0 0.68122 0
0.023431 0.67765 0
0.050542 0.6732 0
0.080341 0.66796 0
0.11381 0.66218 0
0.15136 0.65641 0
0.19314 0.65166 0
0.23663 0.64838 0
0.2794 0.64654 0
0.31944 0.64593 0
0.35687 0.64597 0
0.39109 0.64619 0
0.42301 0.64653 0
0.45287 0.64658 0
0.4813 0.64648 0
0.50897 0.64623 0
0.53637 0.64571 0
0.56426 0.64524 0
0.59337 0.64454 0
0.6236 0.64374 0
0.65456 0.64326 0
0.68618 0.64331 0
0.71897 0.64379 0
0.75282 0.6448 0
0.78676 0.64638 0
0.82058 0.64849 0
0.85376 0.65094 0
0.88986 0.65127 0
0.92401 0.65135 0
0.95502 0.65298 0
0.98336 0.65468 0
1 0.65596 0
0 0.71629 0
0 0.71403 0
0.019591 0.71097 0
0.045344 0.70683 0
0.074245 0.70156 0
0.10696 0.69545 0
0.14475 0.68928 0
0.18778 0.68405 0
0.23294 0.68044 0
0.27774 0.67856 0
0.31903 0.67836 0
0.35681 0.67855 0
0.3914 0.67899 0
0.42331 0.67941 0
0.45304 0.6798 0
0.4813 0.67995 0
0.50869 0.67984 0
0.53596 0.67943 0
0.56372 0.67902 0
0.59277 0.67862 0
0.623 0.67809 0
0.65429 0.67763 0
0.68647 0.67757 0
0.71979 0.67815 0
0.75415 0.67917 0
0.78874 0.68065 0
0.82309 0.68269 0
0.85657 0.68501 0
0.89021 0.68634 0
0.92405 0.68636 0
0.95554 0.68617 0
0.98431 0.68577 0
1 0.68637 0
0 0.74967 0
0 0.74803 0
0.016117 0.74546 0
0.040534 0.74162 0
0.068125 0.73661 0
0.099961 0.73061 0
0.13778 0.72438 0
0.18204 0.71893 0
0.22927 0.71516 0
0.27626 0.71339 0
0.31881 0.71289 0
0.35703 0.71321 0
0.39173 0.7136 0
0.42371 0.71399 0
0.45331 0.71404 0
0.48134 0.71395 0
0.50854 0.71392 0
0.53575 0.71384 0
0.56349 0.71371 0
0.59241 0.71348 0
0.6226 0.71319 0
0.65402 0.71292 0
0.6868 0.71285 0
0.72074 0.71339 0
0.75552 0.71436 0
0.7906 0.71571 0
0.82544 0.71741 0
0.85913 0.71945 0
0.89061 0.72158 0
0.92406 0.72162 0
0.95546 0.7213 0
0.98404 0.72093 0
1 0.72048 0
0 0.78436 0
0 0.78365 0
0.013279 0.78181 0
0.036094 0.77861 0
0.062115 0.77388 0
0.09315 0.76804 0
0.13095 0.76195 0
0.17631 0.75678 0
0.22581 0.75313 0
0.27446 0.75097 0
0.31845 0.7502 0
0.35713 0.75022 0
0.39185 0.75007 0
0.42354 0.74956 0
0.45318 0.74916 0
0.48136 0.74902 0
0.50862 0.74906 0
0.53571 0.74907 0
0.56339 0.74899 0
0.59226 0.74888 0
0.62248 0.74876 0
0.65402 0.74871 0
0.68708 0.74885 0
0.72161 0.74913 0
0.75681 0.75 0
0.79233 0.75136 0
0.82757 0.75294 0
0.86139 0.75463 0
0.89299 0.75629 0
0.92386 0.75708 0
0.95515 0.75664 0
0.9839 0.75616 0
1 0.75567 0
0 0.81941 0
0 0.82027 0
0.011402 0.81961 0
0.032517 0.81745 0
0.056806 0.8136 0
0.08675 0.80844 0
0.12441 0.80267 0
0.17089 0.79756 0
0.222 0.79366 0
0.27228 0.79137 0
0.31745 0.78994 0
0.35644 0.78841 0
0.39105 0.78733 0
0.42295 0.7864 0
0.45278 0.78575 0.00038034
0.48119 0.78523 0.0010877
0.50856 0.78495 0.0011924
0.53565 0.7848 0.00085119
0.56329 0.78471 0.00044327
0.59225 0.78456 0
0.62247 0.78447 0
0.65418 0.78452 0
0.68754 0.78498 0
0.72236 0.78557 0
0.75817 0.78635 0
0.79397 0.78756 0
0.82927 0.78886 0
0.86317 0.79007 0
0.89488 0.79128 0
0.9241 0.7926 0
0.95479 0.79231 0
0.9836 0.79167 0
1 0.79104 0
0 0.85424 0
0 0.85666 0
0.010861 0.85739 0
0.03012 0.85654 0
0.052812 0.85411 0
0.081318 0.85011 0
0.11837 0.84523 0
0.165 0.83998 0
0.2177 0.83574 0
0.26915 0.83236 0
0.31487 0.82946 0
0.35474 0.82738 0
0.3899 0.82572 0
0.42189 0.82429 0
0.45195 0.82301 0.00081872
0.48048 0.822 0.0018563
0.5081 0.82116 0.002179
0.53535 0.82057 0.0019625
0.56302 0.82015 0.0016278
0.59214 0.82 0.00086462
0.62264 0.82002 0
0.65467 0.8203 0
0.68823 0.82079 0
0.7232 0.82147 0
0.75916 0.8223 0
0.79543 0.82324 0
0.83069 0.82443 0
0.86453 0.82553 0
0.89639 0.8266 0
0.92582 0.82776 0
0.9542 0.82852 0
0.98314 0.82762 0
1 0.82658 0
0 0.88758 0
0 0.89124 0
0.011535 0.89321 0
0.029102 0.89365 0
0.050261 0.89262 0
0.077229 0.8902 0
0.11283 0.88623 0
0.159 0.88143 0
0.21201 0.87633 0
