a - Ai/luts/4x_OLDIES_290000_G_FINAL_interp_03.cube
LUT_3D_SIZE 33
0 0 0
0.0038752 0 0
0.031822 0 0
0.059293 0 0
0.086265 0 0
0.11297 0 0
0.13961 0 0
0.16636 0 0
0.19339 0 0
0.22093 0 0
0.24906 0 0
0.27771 0 0
0.30687 0 0
0.33657 0 0
0.36679 0 0
0.3975 0 0
0.42866 0 0
0.46022 0 0
0.49213 0 0
0.52436 0 0
0.55689 0 0
0.58975 0 0
0.62298 0 0
0.65658 0 0
0.69061 0 0
0.72508 0 0
0.76005 0 0
0.79544 0 0
0.83112 0 0
0.86743 0 0
0.90557 0 0
0.94555 0 0
0.98623 0 0
0 0.0017097 0
0.0022197 9.8173e-005 0
0.029974 0 0
0.057029 0 0
0.083626 0 0
0.11012 0 0
0.13666 0 0
0.16345 0 0
0.19069 0 0
0.21849 0 0
0.24678 0 0
0.27559 0 0
0.30496 0 0
0.33488 0 0
0.36532 0 0
0.39625 0 0
0.42761 0 0
0.45936 0 0
0.49142 0 0
0.52374 0 0
0.55629 0 0
0.58908 0 0
0.62216 0 0
0.65555 0 0
0.68931 0 0
0.72346 0 0
0.75812 0 0
0.79322 0 0
0.82862 0 0
0.86471 0 0
0.9026 0 0
0.94255 0 0
0.98359 0 0
0 0.035188 0
9.5258e-005 0.033148 0
0.027437 0.030651 0
0.054102 0.027794 0
0.080494 0.024772 0
0.1069 0.02169 0
0.1335 0.018687 0
0.16051 0.015903 0
0.18804 0.0134 0
0.21602 0.011074 0
0.24449 0.0089416 0
0.27353 0.0070295 0
0.30313 0.0053539 0
0.3333 0.0039234 0
0.36398 0.0027399 0
0.39514 0.0017955 0
0.42672 0.0010712 0
0.45864 0.00053749 0
0.49084 0.000157 0
0.52328 0 0
0.5559 0 0
0.58868 0 0
0.62165 0 0
0.65486 0 0
0.68833 0 0
0.72213 0 0
0.75641 0 0
0.79116 0 0
0.8263 0 0
0.86217 0 0
0.89991 0 0
0.93995 0 0
0.98127 0 0
0 0.068828 0
0 0.066103 0
0.024197 0.062999 0
0.05068 0.059725 0
0.077012 0.056436 0
0.1035 0.053249 0
0.13034 0.050292 0
0.15766 0.047639 0
0.18539 0.045185 0
0.21357 0.04293 0
0.24228 0.0409 0
0.27156 0.039112 0
0.30143 0.037579 0
0.33186 0.03631 0
0.36281 0.035303 0
0.39421 0.034542 0
0.426 0.034001 0
0.4581 0.033645 0
0.49043 0.033431 0
0.52295 0.033312 0
0.55561 0.033244 0
0.5884 0.033185 0
0.62132 0.033084 0
0.65439 0.032903 0
0.68766 0.032571 0
0.72117 0.032019 0
0.75507 0.031158 0
0.78943 0.029895 0
0.82424 0.028216 0
0.85991 0.026197 0
0.89744 0.024049 0
0.9377 0.02196 0
0.9794 0.020351 0
0 0.10206 0
0 0.09876 0
0.020538 0.095252 0
0.046997 0.091702 0
0.073424 0.088281 0
0.10016 0.085096 0
0.12732 0.082233 0
0.15486 0.079594 0
0.18281 0.077163 0
0.21123 0.074961 0
0.2402 0.073013 0
0.26975 0.071336 0
0.29989 0.06994 0
0.33061 0.068827 0
0.36182 0.067982 0
0.39347 0.067383 0
0.42546 0.066997 0
0.45772 0.066786 0
0.49018 0.066704 0
0.52277 0.066706 0
0.55545 0.066747 0
0.58822 0.066781 0
0.62106 0.066765 0
0.65402 0.066645 0
0.68713 0.066356 0
0.72045 0.065861 0
0.75409 0.065168 0
0.78815 0.064208 0
0.82268 0.062949 0
0.85811 0.061457 0
0.89543 0.059816 0
0.93582 0.058167 0
0.97804 0.056986 0
0 0.13548 0
0 0.13179 0
0.016593 0.128 0
0.043185 0.12431 0
0.069832 0.12085 0
0.096889 0.11772 0
0.12429 0.11482 0
0.15206 0.11215 0
0.18025 0.10973 0
0.20894 0.10756 0
0.2382 0.10567 0
0.26805 0.10408 0
0.2985 0.10278 0
0.3295 0.10178 0
0.36098 0.10105 0
0.39286 0.10055 0
0.42505 0.10026 0
0.45746 0.10014 0
0.49002 0.10013 0
0.52267 0.1002 0
0.55537 0.1003 0
0.5881 0.10038 0
0.62088 0.10041 0
0.65372 0.10034 0
0.68667 0.10012 0
0.7198 0.099703 0
0.75326 0.099072 0
0.78713 0.098226 0
0.82149 0.097194 0
0.85681 0.096048 0
0.89403 0.094891 0
0.93448 0.09382 0
0.97717 0.093184 0
0 0.16923 0
0 0.16531 0
0.012514 0.1614 0
0.039358 0.15768 0
0.066305 0.15427 0
0.09359 0.15109 0
0.12122 0.14815 0
0.14924 0.14545 0
0.17771 0.14301 0
0.20669 0.14086 0
0.23626 0.13901 0
0.26643 0.13746 0
0.29718 0.13622 0
0.32847 0.13527 0
0.36021 0.13459 0
0.39232 0.13413 0
0.42469 0.13387 0
0.45724 0.13376 0
0.4899 0.13376 0
0.5226 0.13382 0
0.55531 0.13392 0
0.58802 0.134 0
0.62073 0.13403 0
0.65347 0.13396 0
0.68627 0.13377 0
0.71924 0.13341 0
0.75253 0.13287 0
0.78624 0.13217 0
0.8205 0.13131 0
0.85582 0.13039 0
0.89309 0.12952 0
0.93371 0.12883 0
0.97678 0.12861 0
0 0.20322 0
0 0.19929 0
0.0084705 0.19542 0
0.035637 0.19181 0
0.062788 0.18842 0
0.090266 0.18522 0
0.11813 0.18225 0
0.14641 0.17954 0
0.17518 0.1771 0
0.20447 0.17496 0
0.23435 0.17311 0
0.26483 0.17157 0
0.29589 0.17033 0
0.32746 0.16937 0
0.35945 0.16865 0
0.39177 0.16816 0
0.42431 0.16784 0
0.45699 0.16766 0
0.48974 0.16759 0
0.5225 0.16759 0
0.55522 0.16761 0
0.58791 0.16763 0
0.62056 0.16761 0
0.65321 0.16752 0
0.68591 0.16732 0
0.71874 0.167 0
0.75191 0.16653 0
0.78552 0.16595 0
0.81972 0.16527 0
0.85507 0.1646 0
0.89244 0.16405 0
0.93327 0.16368 0
0.97668 0.16371 0
0 0.23731 0
0 0.23355 0
0.0046427 0.22993 0
0.032019 0.22644 0
0.059341 0.22312 0
0.086986 0.21999 0
0.11507 0.21706 0
0.14361 0.21437 0
0.17266 0.21195 0
0.20225 0.20981 0
0.23243 0.20796 0
0.26322 0.2064 0
0.29455 0.20511 0
0.32638 0.20407 0
0.3586 0.20326 0
0.39111 0.20264 0
0.42382 0.20219 0
0.45663 0.20187 0
0.48947 0.20165 0
0.52229 0.2015 0
0.55503 0.2014 0
0.58771 0.20131 0
0.62034 0.2012 0
0.65293 0.20105 0
0.68555 0.20082 0
0.71829 0.20049 0
0.75137 0.20008 0
0.78493 0.19959 0
0.81913 0.19907 0
0.85457 0.19861 0
0.89211 0.19834 0
0.93317 0.19831 0
0.97684 0.19862 0
0 0.2713 0
0 0.2679 0
0.0010615 0.26455 0
0.028599 0.26128 0
0.056063 0.25813 0
0.083846 0.25514 0
0.11212 0.25233 0
0.14089 0.24973 0
0.17019 0.24737 0
0.20005 0.24526 0
0.23051 0.24341 0
0.26155 0.24181 0
0.29314 0.24044 0
0.32519 0.23929 0
0.35761 0.23833 0
0.39029 0.23753 0
0.42313 0.23688 0
0.45607 0.23634 0
0.48901 0.23591 0
0.5219 0.23557 0
0.55469 0.23529 0
0.58739 0.23505 0
0.62001 0.23482 0
0.65258 0.23457 0
0.68515 0.23429 0
0.71784 0.23395 0
0.75089 0.23356 0
0.78445 0.23314 0
0.81869 0.23274 0
0.85428 0.23245 0
0.89204 0.23239 0
0.93337 0.23263 0
0.9773 0.2332 0
0 0.30509 0
0 0.30202 0
0 0.29898 0
0.02548 0.29601 0
0.053049 0.29313 0
0.080942 0.29037 0
0.10937 0.28776 0
0.13832 0.28532 0
0.16782 0.28307 0
0.1979 0.28103 0
0.22858 0.27919 0
0.25984 0.27756 0
0.29162 0.27612 0
0.32384 0.27484 0
0.35641 0.27371 0
0.38923 0.2727 0
0.4222 0.27182 0
0.45525 0.27103 0
0.4883 0.27036 0
0.52129 0.26978 0
0.55415 0.26929 0
0.5869 0.26886 0
0.61955 0.26848 0
0.65213 0.26812 0
0.6847 0.26776 0
0.71738 0.26738 0
0.75042 0.26699 0
0.78403 0.26661 0
0.81837 0.26629 0
0.85414 0.26613 0
0.89216 0.26622 0
0.9338 0.26664 0
0.978 0.26739 0
0 0.3385 0
0 0.33575 0
0 0.33306 0
0.022719 0.33042 0
0.050368 0.32784 0
0.078344 0.32536 0
0.10688 0.32301 0
0.13595 0.32078 0
0.1656 0.31869 0
0.19584 0.31676 0
0.22669 0.31498 0
0.25809 0.31335 0
0.29001 0.31185 0
0.32234 0.31046 0
0.35502 0.30917 0
0.38794 0.30797 0
0.42101 0.30685 0
0.45417 0.30583 0
0.48733 0.30489 0
0.52042 0.30406 0
0.55338 0.30334 0
0.58621 0.30271 0
0.61892 0.30215 0
0.65155 0.30165 0
0.68416 0.30118 0
0.71687 0.30074 0
0.74995 0.30033 0
0.78363 0.29996 0
0.81813 0.29968 0
0.85407 0.2996 0
0.8924 0.29978 0
0.93435 0.3003 0
0.97886 0.30116 0
0 0.3715 0
0 0.36905 0
0 0.36666 0
0.020324 0.36434 0
0.048045 0.36207 0
0.076079 0.35989 0
0.10468 0.3578 0
0.13384 0.35581 0
0.16357 0.35391 0
0.19391 0.35211 0
0.22485 0.35041 0
0.25635 0.34882 0
0.28834 0.3473 0
0.32073 0.34585 0
0.35346 0.34445 0
0.38644 0.34309 0
0.41958 0.34179 0
0.45282 0.34055 0
0.48608 0.33938 0
0.51928 0.33832 0
0.55236 0.33737 0
0.58529 0.33652 0
0.61809 0.33578 0
0.6508 0.33511 0
0.68348 0.3345 0
0.71626 0.33396 0
0.74942 0.33348 0
0.78321 0.3331 0
0.81789 0.33283 0
0.85405 0.33277 0
0.89268 0.33301 0
0.93496 0.33357 0
0.9798 0.33447 0
0 0.40414 0
0 0.40193 0
0 0.3998 0
0.018259 0.39773 0
0.046048 0.39573 0
0.074125 0.39381 0
0.10276 0.39197 0
0.13196 0.3902 0
0.16174 0.3885 0
0.19212 0.38685 0
0.2231 0.38526 0
0.25464 0.38372 0
0.28665 0.38222 0
0.31906 0.38075 0
0.3518 0.3793 0
0.38479 0.37785 0
0.41796 0.37642 0
0.45126 0.37503 0
0.4846 0.37368 0
0.51791 0.37242 0
0.5511 0.37127 0
0.58415 0.37022 0
0.61706 0.36928 0
0.64986 0.36843 0
0.68264 0.36767 0
0.71552 0.36699 0
0.7488 0.36642 0
0.78275 0.36597 0
0.81762 0.36568 0
0.85401 0.36561 0
0.89296 0.36585 0
0.93557 0.36641 0
0.98075 0.36731 0
0 0.43647 0
0 0.43444 0
0 0.43248 0
0.016456 0.43061 0
0.044314 0.42882 0
0.07243 0.42711 0
0.10109 0.42547 0
0.13031 0.42389 0
0.1601 0.42236 0
0.19048 0.42087 0
0.22146 0.41939 0
0.25299 0.41794 0
0.28499 0.41649 0
0.31738 0.41504 0
0.35009 0.41358 0
0.38306 0.41211 0
0.41623 0.41063 0
0.44955 0.40914 0
0.48294 0.40769 0
0.51633 0.40628 0
0.54963 0.40496 0
0.58278 0.40374 0
0.6158 0.40261 0
0.64872 0.40159 0
0.68161 0.40066 0
0.71462 0.39984 0
0.74805 0.39915 0
0.78218 0.3986 0
0.81727 0.39823 0
0.85394 0.3981 0
0.8932 0.39831 0
0.93612 0.39884 0
0.98164 0.39971 0
0 0.46859 0
0 0.46664 0
0 0.46479 0
0.014824 0.46304 0
0.042767 0.46139 0
0.070927 0.45981 0
0.099606 0.45832 0
0.12885 0.4569 0
0.15863 0.45551 0
0.18899 0.45415 0
0.21994 0.4528 0
0.25143 0.45145 0
0.28339 0.45008 0
0.31573 0.44868 0
0.34839 0.44726 0
0.38131 0.44581 0
0.41445 0.44433 0
0.44775 0.44283 0
0.48116 0.44133 0
0.5146 0.43985 0
0.54797 0.43842 0
0.58122 0.43705 0
0.61434 0.43578 0
0.64738 0.43459 0
0.68039 0.43351 0
0.71354 0.43254 0
0.74715 0.43171 0
0.78148 0.43104 0
0.8168 0.43056 0
0.85378 0.43034 0
0.89334 0.43048 0
0.93659 0.43094 0
0.98245 0.43178 0
0 0.50065 0
0 0.49869 0
0 0.49685 0
0.013274 0.49514 0
0.041331 0.49354 0
0.069543 0.49204 0
0.098251 0.49063 0
0.12752 0.4893 0
0.15729 0.48802 0
0.18764 0.48677 0
0.21854 0.48553 0
0.24998 0.48428 0
0.28187 0.48301 0
0.31415 0.4817 0
0.34674 0.48035 0
0.3796 0.47897 0
0.41268 0.47754 0
0.44595 0.47608 0
0.47934 0.47459 0
0.51278 0.4731 0
0.54619 0.47162 0
0.57951 0.47018 0
0.61272 0.46879 0
0.64585 0.46748 0
0.67899 0.46626 0
0.7123 0.46514 0
0.74608 0.46417 0
0.78061 0.46337 0
0.81619 0.46275 0
0.85351 0.46243 0
0.89339 0.46247 0
0.93698 0.46287 0
0.98315 0.46363 0
0 0.53278 0
0 0.53073 0
0 0.52884 0
0.011701 0.52708 0
0.039919 0.52545 0
0.068203 0.52395 0
0.096956 0.52257 0
0.12626 0.52128 0
0.15605 0.52006 0
0.18638 0.51888 0
0.21725 0.51773 0
0.24863 0.51658 0
0.28046 0.51541 0
0.31266 0.51421 0
0.34518 0.51297 0
0.37796 0.51168 0
0.41098 0.51034 0
0.44418 0.50896 0
0.47753 0.50754 0
0.51095 0.50608 0
0.54435 0.50461 0
0.57769 0.50314 0
0.61096 0.50169 0
0.64418 0.50029 0
0.67743 0.49895 0
0.71088 0.49771 0
0.74484 0.49661 0
0.77958 0.49567 0
0.81543 0.49494 0
0.85311 0.49451 0
0.89332 0.49445 0
0.93726 0.49476 0
0.98371 0.49544 0
0 0.56512 0
0 0.56293 0
0 0.56092 0
0.010026 0.55906 0
0.038429 0.55735 0
0.066823 0.55578 0
0.095652 0.55435 0
0.12502 0.55305 0
0.15485 0.55184 0
0.18519 0.55071 0
0.21605 0.54962 0
0.24739 0.54856 0
0.27916 0.54749 0
0.31129 0.54639 0
0.34373 0.54527 0
0.37644 0.54409 0
0.40937 0.54287 0
0.4425 0.54158 0
0.47577 0.54025 0
0.50913 0.53886 0
0.5425 0.53744 0
0.57582 0.53598 0
0.6091 0.53452 0
0.64238 0.53306 0
0.67572 0.53165 0
0.70931 0.53032 0
0.74344 0.52912 0
0.7784 0.52807 0
0.81455 0.52724 0
0.85258 0.52672 0
0.89314 0.52655 0
0.93742 0.52678 0
0.98417 0.52738 0
0 0.5978 0
0 0.59546 0
0 0.59329 0
0.0082098 0.59129 0
0.036812 0.58946 0
0.065338 0.58778 0
0.094262 0.58625 0
0.12374 0.58488 0
0.15365 0.58364 0
0.18403 0.58251 0
0.2149 0.58146 0
0.24623 0.58045 0
0.27796 0.57946 0
0.31004 0.57846 0
0.34241 0.57744 0
0.37502 0.57637 0
0.40786 0.57525 0
0.4409 0.57407 0
0.47409 0.57283 0
0.50737 0.57153 0
0.54067 0.57018 0
0.57394 0.56877 0
0.6072 0.56733 0
0.6405 0.56587 0
0.67392 0.56443 0
0.70762 0.56304 0
0.74192 0.56178 0
0.7771 0.56067 0
0.81357 0.55977 0
0.85193 0.55917 0
0.89285 0.55893 0
0.93747 0.5591 0
0.9846 0.55962 0
0 0.63112 0
0 0.62856 0
0 0.62617 0
0.0062384 0.62401 0
0.035058 0.62203 0
0.063728 0.62022 0
0.092755 0.61857 0
0.12235 0.61709 0
0.15238 0.61576 0
0.18287 0.61457 0
0.21379 0.61351 0
0.24513 0.61252 0
0.27684 0.61157 0
0.30887 0.61063 0
0.34117 0.60968 0
0.37371 0.60869 0
0.40645 0.60766 0
0.43939 0.60657 0
0.47249 0.60542 0
0.50568 0.60421 0
0.53889 0.60294 0
0.57209 0.6016 0
0.6053 0.60021 0
0.63859 0.59878 0
0.67204 0.59733 0
0.70585 0.59593 0
0.74032 0.59464 0
0.77574 0.59351 0
0.8125 0.59259 0
0.8512 0.59195 0
0.8925 0.59168 0
0.93743 0.5918 0
0.98503 0.5923 0
0 0.66529 0
0 0.66252 0
0 0.65989 0
0.004087 0.65747 0
0.033172 0.65531 0
0.062014 0.65337 0
0.091144 0.65159 0
0.12086 0.64999 0
0.15102 0.64855 0
0.18162 0.64726 0
0.21264 0.6461 0
0.24403 0.64506 0
0.27574 0.6441 0
0.30774 0.64316 0
0.33999 0.64223 0
0.37245 0.64127 0
0.40511 0.64029 0
0.43796 0.63926 0
0.47097 0.63819 0
0.50406 0.63705 0
0.53717 0.63585 0
0.57029 0.63458 0
0.60343 0.63324 0
0.63667 0.63185 0
0.67014 0.63044 0
0.70405 0.62906 0
0.73868 0.62779 0
0.77437 0.62668 0
0.81141 0.62576 0
0.85046 0.62514 0
0.89215 0.62489 0
0.93736 0.62498 0
0.98541 0.62548 0
0 0.70062 0
0 0.6976 0
0 0.69472 0
0.0016473 0.69203 0
0.031085 0.68959 0
0.060195 0.68743 0
0.089445 0.68553 0
0.11927 0.6838 0
0.14955 0.68223 0
0.18027 0.68083 0
0.21138 0.67956 0
0.24284 0.67841 0
0.2746 0.67735 0
0.30659 0.67634 0
0.3388 0.67537 0
0.37122 0.6744 0
0.40381 0.67341 0
0.43658 0.67239 0
0.4695 0.67134 0
0.50249 0.67024 0
0.53551 0.66909 0
0.56853 0.66787 0
0.60159 0.66658 0
0.63478 0.66525 0
0.66827 0.66389 0
0.70227 0.66257 0
0.73707 0.66135 0
0.77301 0.66028 0
0.81033 0.65942 0
0.84976 0.65885 0
0.8918 0.65863 0
0.93736 0.65875 0
0.98574 0.65927 0
0 0.73758 0
0 0.73404 0
0 0.73092 0
0 0.72796 0
0.028683 0.72521 0
0.058155 0.72275 0
0.08763 0.7206 0
0.11759 0.71869 0
0.14801 0.717 0
0.17883 0.71547 0
0.21004 0.71409 0
0.24156 0.71282 0
0.27335 0.71163 0
0.30536 0.7105 0
0.33757 0.70941 0
0.36994 0.70835 0
0.40248 0.70729 0
0.43519 0.70622 0
0.46804 0.70513 0
0.50095 0.70402 0
0.53388 0.70287 0
0.56681 0.70168 0
0.59979 0.70044 0
0.63295 0.69916 0
0.66645 0.69787 0
0.70053 0.69662 0
0.73552 0.69547 0
0.77171 0.69448 0
0.80935 0.69369 0
0.84912 0.6932 0
0.89148 0.69303 0
0.93743 0.69322 0
0.98599 0.69375 0
0 0.77634 0
0 0.77273 0
0 0.76896 0
0 0.76548 0
0.025941 0.76246 0
0.0558 0.75967 0
0.08558 0.75721 0
0.11575 0.75503 0
0.14635 0.7531 0
0.17732 0.75139 0
0.2086 0.74987 0
0.24018 0.74846 0
0.27199 0.74714 0
0.30401 0.74587 0
0.3362 0.74464 0
0.36856 0.74343 0
0.40107 0.74223 0
0.43374 0.74105 0
0.46653 0.73987 0
0.49939 0.73868 0
0.53225 0.73749 0
0.56512 0.73627 0
0.59805 0.73505 0
0.63119 0.73381 0
0.66471 0.73259 0
0.69888 0.73142 0
0.73409 0.73036 0
0.7705 0.72945 0
0.80847 0.72875 0
0.84856 0.72831 0
0.89123 0.7282 0
0.93763 0.72852 0
0.98641 0.72917 0
0 0.81457 0
0 0.81172 0
0 0.80888 0
0 0.80547 0
0.022808 0.80191 0
0.053096 0.79853 0
0.083249 0.7957 0
0.11366 0.79322 0
0.14447 0.791 0
0.17562 0.789 0
0.20705 0.78721 0
0.2387 0.7856 0
0.27054 0.7841 0
0.30255 0.78267 0
0.33471 0.78128 0
0.36704 0.7799 0
0.39953 0.77854 0
0.43218 0.77719 0
0.46494 0.77587 0
0.49776 0.77457 0
0.53059 0.77328 0
0.56343 0.772 0
0.59636 0.77074 0
0.6295 0.7695 0
0.66306 0.76831 0
0.69735 0.7672 0
0.73276 0.76622 0
0.7694 0.76537 0
0.80769 0.76471 0
0.84814 0.76437 0
0.89127 0.76442 0
0.93803 0.76476 0
0.98657 0.76508 0
0 0.85408 0
0 0.85116 0
0 0.8483 0
0 0.84564 0
0.019583 0.84312 0
0.049882 0.84008 0
0.080428 0.83671 0
0.11126 0.83354 0
0.14233 0.83094 0
0.17366 0.82866 0
0.20524 0.82658 0
0.23702 0.82467 0
0.26893 0.82291 0
0.30095 0.82125 0
0.3331 0.81965 0
0.3654 0.81808 0
0.39786 0.81653 0
0.43049 0.81501 0
0.46323 0.8135 0
0.49604 0.81202 0
0.52887 0.81059 0
0.56171 0.8092 0
0.59466 0.80786 0
0.62785 0.80657 0
0.66147 0.80535 0
0.69595 0.80427 0
0.73154 0.80332 0
0.76845 0.80255 0
0.80712 0.80201 0
0.8479 0.80164 0
0.89116 0.80142 0
0.93793 0.80141 0
0.9863 0.80152 0
0 0.89447 0
0 0.89171 0
0 0.889 0
0 0.88641 0
0.01714 0.88391 0
0.047357 0.88155 0
0.077557 0.87939 0
0.10834 0.87671 0
0.13972 0.87366 0
