a - Ai/luts/4x_OLDIES_ALTERNATIVE_FINAL.cube
LUT_3D_SIZE 5
0 0 0
0.19753 0 0
0.466 0 0
0.75645 0 0
1 0 0
0 0.26113 0
0.19424 0.24451 0
0.46684 0.23722 0
0.74736 0.23261 0
1 0.22358 0
0 0.56429 0
0.18165 0.54563 0
0.46368 0.53288 0
0.74656 0.52627 0
1 0.52972 0
0 0.847 0
0.16997 0.83511 0
0.4529 0.82562 0
0.74076 0.81873 0
1 0.81744 0
0 1 0
0.15786 1 0
0.45134 1 0
0.7428 1 0
1 1 0
0 0 0.24623
0.19377 0 0.23788
0.46496 0 0.24181
0.73816 0 0.24311
0.98907 0 0.23308
0 0.22812 0.23199
0.19947 0.2228 0.23321
0.46595 0.22575 0.23864
0.74308 0.22709 0.23719
1 0.23247 0.23494
0 0.52747 0.20251
0.1922 0.51764 0.21387
0.46614 0.50779 0.22294
0.74646 0.50471 0.22198
1 0.51036 0.21791
0 0.8321 0.17961
0.18139 0.81141 0.1912
0.45873 0.80322 0.19825
0.73985 0.79569 0.19941
1 0.78468 0.19724
0 1 0.17252
0.17413 1 0.18292
0.45417 1 0.18904
0.73309 1 0.18765
1 1 0.18049
0 0 0.55594
0.19071 0 0.53761
0.4689 0 0.53614
0.73286 0 0.53595
0.98018 0 0.53219
0 0.20297 0.54059
0.19767 0.20935 0.53413
0.46927 0.21281 0.53302
0.73807 0.21821 0.53242
0.99966 0.22303 0.52813
0 0.50199 0.52174
0.1984 0.49616 0.51721
0.47395 0.49139 0.51823
0.73905 0.49116 0.52412
1 0.49142 0.51647
0 0.81189 0.5014
0.18978 0.79474 0.49776
0.46449 0.78394 0.50472
0.73701 0.77214 0.51061
1 0.76622 0.50324
0 1 0.48059
0.18175 1 0.48767
0.45758 1 0.49346
0.7288 1 0.49606
0.99593 1 0.48946
0 0 0.90024
0.17971 0 0.86402
0.4672 0 0.85139
0.73078 0 0.851
0.98697 0 0.86144
0 0.17295 0.8728
0.19158 0.19309 0.85387
0.4675 0.20058 0.84601
0.73373 0.20297 0.84455
0.99438 0.21283 0.83546
0 0.47747 0.8321
0.19676 0.46904 0.82279
0.4714 0.46797 0.82288
0.74095 0.47396 0.81781
1 0.47767 0.81488
0 0.79119 0.80757
0.18489 0.77355 0.79541
0.4665 0.75809 0.79465
0.74532 0.75384 0.79042
1 0.74951 0.7995
0 1 0.79351
0.17526 1 0.78435
0.45931 1 0.77409
0.7319 1 0.7783
0.99956 1 0.78922
0 0 1
0.15624 0 1
0.46409 0 1
0.73966 0 1
0.99733 0 1
0 0.14652 1
0.18533 0.16819 1
0.468 0.17644 1
0.73898 0.17627 1
0.99787 0.17717 1
0 0.43762 1
0.19565 0.4384 1
0.47295 0.44009 1
0.74074 0.44354 1
0.99878 0.44734 1
0 0.7689 1
0.17682 0.75235 1
0.46648 0.73478 1
0.74534 0.72162 1
1 0.72877 1
0 1 1
0.16645 1 1
0.4524 1 1
0.74415 1 1
0.98888 1 1
