a - Ai/luts/4x_OLDIES_ALTERNATIVE_FINAL.cube
LUT_3D_SIZE 9
0 0 0
0.076998 0 0
0.19753 0 0
0.32578 0 0
0.466 0 0
0.61287 0 0
0.75645 0 0
0.88805 0 0
1 0 0
0 0.088004 0
0.071953 0.076279 0
0.19819 0.069165 0
0.32762 0.069551 0
0.46654 0.070963 0
0.61075 0.068998 0
0.75309 0.065124 0
0.88923 0.062083 0
1 0.064915 0
0 0.26113 0
0.063666 0.25437 0
0.19424 0.24451 0
0.32852 0.2383 0
0.46684 0.23722 0
0.60669 0.23648 0
0.74736 0.23261 0
0.88678 0.22683 0
1 0.22358 0
0 0.414 0
0.057463 0.40528 0
0.18727 0.39687 0
0.32529 0.39053 0
0.46679 0.38758 0
0.60727 0.38705 0
0.74595 0.38836 0
0.88325 0.38895 0
1 0.38672 0
0 0.56429 0
0.050963 0.55439 0
0.18165 0.54563 0
0.32095 0.53874 0
0.46368 0.53288 0
0.6057 0.52853 0
0.74656 0.52627 0
0.88489 0.52738 0
1 0.52972 0
0 0.71101 0
0.042546 0.70212 0
0.17626 0.69413 0
0.31542 0.68831 0
0.45817 0.68233 0
0.60161 0.67752 0
0.74424 0.67408 0
0.88513 0.67227 0
1 0.67377 0
0 0.847 0
0.034724 0.84203 0
0.16997 0.83511 0
0.31 0.82981 0
0.4529 0.82562 0
0.59713 0.82169 0
0.74076 0.81873 0
0.88466 0.81736 0
1 0.81744 0
0 0.96904 0
0.028195 0.96373 0
0.16366 0.95958 0
0.30618 0.95713 0
0.44991 0.95694 0
0.59446 0.95766 0
0.74033 0.95902 0
0.88448 0.96042 0
1 0.95765 0
0 1 0
0.02188 1 0
0.15786 1 0
0.30557 1 0
0.45134 1 0
0.59762 1 0
0.7428 1 0
0.88442 1 0
1 1 0
0 0 0.08716
0.073634 0 0.081943
0.19479 0 0.079283
0.3222 0 0.081314
0.46089 0 0.084052
0.60216 0 0.083172
0.74269 0 0.077479
0.87622 0 0.067273
1 0 0.053864
0 0.087324 0.08723
0.072981 0.077373 0.086156
0.19696 0.073952 0.08656
0.3251 0.075569 0.088642
0.46289 0.077708 0.091348
0.60251 0.078552 0.092918
0.7419 0.079217 0.092244
0.87713 0.080908 0.088425
1 0.086202 0.078595
0 0.2478 0.077353
0.064449 0.24177 0.076677
0.19561 0.23422 0.08069
0.32816 0.23255 0.083744
0.4644 0.23472 0.085683
0.60248 0.23618 0.088008
0.74178 0.23589 0.090456
0.87967 0.23522 0.09058
1 0.23715 0.086235
0 0.39503 0.062266
0.058202 0.38777 0.062926
0.19064 0.38119 0.06764
0.32754 0.37644 0.072462
0.46707 0.37447 0.075386
0.60546 0.37636 0.077475
0.74281 0.38077 0.078741
0.88013 0.38427 0.079029
1 0.38594 0.07861
0 0.54263 0.049679
0.053041 0.535 0.052128
0.18607 0.52876 0.057141
0.32408 0.52373 0.062156
0.46438 0.51973 0.064514
0.60549 0.51581 0.066482
0.74685 0.51445 0.068125
0.88434 0.51846 0.068542
1 0.52265 0.068802
0 0.69217 0.034226
0.046775 0.68227 0.038895
0.18162 0.67548 0.045152
0.32019 0.67053 0.050591
0.46048 0.66626 0.054059
0.60194 0.66283 0.055838
0.74408 0.65963 0.056669
0.88482 0.65581 0.057763
1 0.65527 0.059037
0 0.84106 0.019499
0.037619 0.83108 0.022315
0.17618 0.82296 0.028954
0.31625 0.81824 0.03496
0.45661 0.81431 0.03983
0.59813 0.81039 0.04274
0.73935 0.80618 0.044401
0.87979 0.80107 0.044384
1 0.79904 0.042921
0 0.96897 0.014328
0.028579 0.96529 0.012988
0.17119 0.96071 0.020769
0.31318 0.95882 0.027685
0.45302 0.95701 0.03326
0.59399 0.95493 0.036419
0.73464 0.95237 0.037617
0.87466 0.9498 0.034664
1 0.94995 0.027263
0 1 0.01407
0.021142 1 0.012899
0.16574 1 0.0192
0.3121 1 0.026884
0.45199 1 0.031846
0.59316 1 0.033048
0.73461 1 0.031582
0.87695 1 0.025603
1 1 0.021602
0 0 0.24623
0.069629 0 0.24077
0.19377 0 0.23788
0.32749 0 0.2385
0.46496 0 0.24181
0.60177 0 0.24385
0.73816 0 0.24311
0.86759 0 0.23947
0.98907 0 0.23308
0 0.079085 0.24489
0.069312 0.07279 0.24137
0.19624 0.072441 0.23843
0.32879 0.074539 0.23983
0.46564 0.075521 0.24281
0.60298 0.076339 0.24336
0.74082 0.077911 0.24173
0.87481 0.082414 0.23941
0.99965 0.093031 0.23722
0 0.22812 0.23199
0.064719 0.22384 0.23131
0.19947 0.2228 0.23321
0.33047 0.22504 0.23638
0.46595 0.22575 0.23864
0.60432 0.22589 0.23876
0.74308 0.22709 0.23719
0.88011 0.22837 0.23553
1 0.23247 0.23494
0 0.37874 0.21698
0.061395 0.37476 0.21851
0.19751 0.36964 0.22438
0.33141 0.3657 0.23061
0.46781 0.36533 0.23262
0.60601 0.36799 0.23099
0.74397 0.36968 0.22976
0.88111 0.37042 0.2293
1 0.37224 0.22907
0 0.52747 0.20251
0.057489 0.52305 0.20639
0.1922 0.51764 0.21387
0.32751 0.51244 0.22027
0.46614 0.50779 0.22294
0.60769 0.50425 0.22308
0.74646 0.50471 0.22198
0.88285 0.50825 0.21955
1 0.51036 0.21791
0 0.67869 0.18875
0.052438 0.67003 0.1945
0.18702 0.66346 0.20243
0.32311 0.65804 0.20827
0.46211 0.65401 0.21057
0.60348 0.65044 0.21129
0.74488 0.64595 0.21174
0.88524 0.64255 0.21048
1 0.64395 0.2079
0 0.8321 0.17961
0.042763 0.81957 0.18474
0.18139 0.81141 0.1912
0.31907 0.80676 0.19607
0.45873 0.80322 0.19825
0.5997 0.79956 0.1995
0.73985 0.79569 0.19941
0.87996 0.78972 0.19804
1 0.78468 0.19724
0 0.96517 0.17542
0.03459 0.96085 0.17856
0.17762 0.95752 0.18466
0.31674 0.95564 0.18899
0.45587 0.95373 0.19109
0.59569 0.95076 0.19207
0.73474 0.94725 0.19198
0.87195 0.94285 0.19062
1 0.93817 0.18808
0 1 0.17252
0.025526 1 0.17519
0.17413 1 0.18292
0.31572 1 0.18737
0.45417 1 0.18904
0.59279 1 0.18864
0.73309 1 0.18765
0.87112 1 0.18585
1 1 0.18049
0 0 0.40209
0.064728 0 0.39379
0.1937 0 0.38974
0.33057 0 0.39129
0.46699 0 0.39348
0.60236 0 0.39415
0.73518 0 0.39367
0.86195 0 0.39058
0.98265 0 0.38633
0 0.070863 0.39629
0.064547 0.067492 0.39052
0.19616 0.068437 0.38774
0.33164 0.071399 0.38935
0.46728 0.072675 0.39095
0.60252 0.073227 0.39167
0.73761 0.073445 0.39147
0.87031 0.077278 0.3885
0.99538 0.08868 0.38405
0 0.21339 0.38747
0.063742 0.2125 0.38556
0.20038 0.21574 0.38386
0.3332 0.21874 0.38492
0.46844 0.21915 0.38721
0.60369 0.21964 0.38969
0.73935 0.22134 0.38889
0.87586 0.22337 0.38521
1 0.22781 0.38043
0 0.36498 0.37693
0.062446 0.36277 0.37661
0.20223 0.35916 0.37677
0.3359 0.35863 0.37925
0.46927 0.36059 0.38246
0.6042 0.36104 0.38495
0.74116 0.36125 0.38382
0.87836 0.36285 0.38083
1 0.36537 0.37692
0 0.51285 0.36593
0.05966 0.51048 0.36653
0.198 0.50659 0.36761
0.33409 0.50141 0.37262
0.46933 0.49675 0.3792
0.60538 0.49578 0.38081
0.74256 0.49783 0.37741
0.87928 0.49918 0.37437
1 0.49921 0.37128
0 0.66488 0.35267
0.056903 0.65819 0.35509
0.19392 0.65324 0.35819
0.32849 0.64776 0.36472
0.46368 0.64223 0.371
0.6036 0.63714 0.37278
0.74401 0.63359 0.3715
0.88076 0.63392 0.36864
1 0.63581 0.364
0 0.82388 0.34041
0.048509 0.81187 0.34522
0.18772 0.80298 0.35044
0.32313 0.79661 0.35738
0.45959 0.79224 0.36209
0.59922 0.7888 0.36209
0.73864 0.78429 0.36069
0.87817 0.77721 0.35988
1 0.7735 0.35724
0 0.96384 0.3334
0.040062 0.95759 0.33975
0.18212 0.95273 0.34512
0.3202 0.94968 0.35016
0.45705 0.94735 0.35417
0.5956 0.94393 0.35507
0.73323 0.9401 0.35366
0.86911 0.93495 0.35139
1 0.92747 0.34775
0 1 0.33133
0.031611 1 0.33673
0.17911 1 0.34138
0.31902 1 0.34533
0.45487 1 0.34876
0.59181 1 0.34973
0.73094 1 0.34883
0.86629 1 0.34572
1 1 0.33992
0 0 0.55594
0.056751 0 0.54395
0.19071 0 0.53761
0.33219 0 0.53518
0.4689 0 0.53614
0.60203 0 0.5374
0.73286 0 0.53595
0.85852 0 0.53335
0.98018 0 0.53219
0 0.062836 0.54831
0.059933 0.063784 0.54121
0.19402 0.066611 0.5375
0.33289 0.069302 0.53522
0.46785 0.069778 0.53566
0.60191 0.069807 0.53547
0.73657 0.070916 0.53384
0.86693 0.074768 0.53315
0.99085 0.084715 0.53109
0 0.20297 0.54059
0.061292 0.20541 0.53697
0.19767 0.20935 0.53413
0.33432 0.2119 0.53247
0.46927 0.21281 0.53302
0.60443 0.21561 0.53236
0.73807 0.21821 0.53242
0.87139 0.21942 0.53197
0.99966 0.22303 0.52813
0 0.35437 0.53078
0.060831 0.35226 0.52814
0.20115 0.35036 0.52646
0.33634 0.35201 0.52562
0.47138 0.35407 0.52559
0.60674 0.35502 0.52705
0.73935 0.35494 0.52929
0.87371 0.35638 0.52776
1 0.35971 0.52268
0 0.50199 0.52174
0.057238 0.49986 0.51844
0.1984 0.49616 0.51721
0.3373 0.49173 0.51764
0.47395 0.49139 0.51823
0.60622 0.49201 0.52179
0.73905 0.49116 0.52412
0.87533 0.49087 0.5212
1 0.49142 0.51647
0 0.65187 0.51208
0.055073 0.647 0.50876
0.19436 0.64345 0.50712
0.33337 0.63902 0.50708
0.47112 0.63333 0.51186
0.60509 0.6278 0.51888
0.73964 0.62658 0.51909
0.87546 0.62835 0.51373
1 0.62868 0.50905
0 0.81189 0.5014
0.048444 0.8025 0.49945
0.18978 0.79474 0.49776
0.32933 0.78922 0.4984
0.46449 0.78394 0.50472
0.59876 0.77833 0.51049
0.73701 0.77214 0.51061
0.87628 0.76642 0.50777
1 0.76622 0.50324
0 0.95704 0.4899
0.042311 0.95253 0.49194
0.18469 0.94827 0.4912
0.32518 0.94369 0.49338
0.46069 0.93958 0.49909
0.59525 0.93659 0.50248
0.73085 0.93342 0.50102
0.86689 0.92674 0.49844
1 0.91653 0.49585
0 1 0.48059
0.037704 1 0.48567
0.18175 1 0.48767
0.32234 1 0.49023
0.45758 1 0.49346
0.59279 1 0.49629
0.7288 1 0.49606
0.8617 1 0.49323
0.99593 1 0.48946
0 0 0.72031
0.045674 0 0.69807
0.18656 0 0.69054
0.3304 0 0.68754
0.46955 0 0.6854
0.60219 0 0.68525
0.73046 0 0.68522
0.85433 0 0.68374
0.98156 0 0.68272
0 0.052366 0.70783
0.055179 0.060872 0.6936
0.19082 0.065872 0.68985
0.33061 0.068227 0.68684
0.46795 0.068425 0.6848
0.60109 0.067112 0.68472
0.73378 0.067529 0.68385
0.86388 0.073527 0.68023
0.98964 0.083878 0.67783
0 0.19114 0.69598
0.059199 0.19755 0.68856
0.19453 0.20223 0.68611
0.33282 0.20638 0.68335
0.46866 0.20834 0.68191
0.60204 0.21044 0.68074
0.73698 0.21391 0.67834
0.87068 0.21689 0.67649
0.99673 0.21971 0.67619
0 0.34128 0.68314
0.059772 0.33992 0.67851
0.19913 0.33975 0.67728
0.33592 0.34326 0.67621
0.47012 0.34484 0.67612
0.60555 0.34691 0.67378
0.74064 0.34988 0.67132
0.87248 0.35134 0.67255
0.99888 0.353 0.67254
0 0.49085 0.67198
0.054675 0.48852 0.66741
0.19806 0.48434 0.66618
0.33679 0.48122 0.66665
0.47191 0.48134 0.66598
0.60886 0.48372 0.66358
0.74192 0.485 0.66526
0.87258 0.48391 0.66848
1 0.48406 0.66684
0 0.64033 0.66152
0.051637 0.63608 0.65736
0.19308 0.63248 0.6557
0.33251 0.62617 0.65638
0.47358 0.62245 0.65451
0.61047 0.6225 0.65412
0.74044 0.62197 0.65926
0.87069 0.62057 0.66196
1 0.61979 0.6592
0 0.80156 0.65242
0.045084 0.79301 0.64857
0.18725 0.78507 0.64685
0.32739 0.77892 0.64484
0.46994 0.77447 0.64215
0.60644 0.76773 0.64746
0.73797 0.76125 0.65536
0.8708 0.75906 0.65517
1 0.7602 0.65017
0 0.94635 0.64553
0.039867 0.9445 0.64268
0.18155 0.94077 0.64074
0.32495 0.93703 0.63712
0.46586 0.9331 0.63572
0.599 0.92824 0.64104
0.73034 0.92297 0.6467
0.86495 0.91522 0.64748
1 0.90637 0.64428
0 1 0.63605
0.038778 1 0.63595
0.1804 1 0.63466
0.32279 1 0.63183
0.46052 1 0.63189
0.59504 1 0.63513
0.7277 1 0.63765
0.85939 1 0.63803
0.99446 1 0.63818
0 0 0.90024
0.02092 0 0.88235
0.17971 0 0.86402
0.32596 0 0.85662
0.4672 0 0.85139
0.6028 0 0.84946
0.73078 0 0.851
0.8539 0 0.85411
0.98697 0 0.86144
0 0.036477 0.89008
0.042791 0.053595 0.8695
0.18708 0.06392 0.86026
0.32719 0.066456 0.85587
0.46663 0.066991 0.85175
0.60169 0.065661 0.85057
0.73187 0.065105 0.85085
0.8576 0.068994 0.84941
0.98753 0.076123 0.84792
0 0.17295 0.8728
0.054643 0.18627 0.85756
0.19158 0.19309 0.85387
0.32933 0.19788 0.85009
0.4675 0.20058 0.84601
0.60126 0.20166 0.84511
0.73373 0.20297 0.84455
0.86535 0.20685 0.84092
0.99438 0.21283 0.83546
0 0.32157 0.8504
0.058275 0.32343 0.84125
0.19717 0.32491 0.83968
0.33437 0.33098 0.83669
0.46955 0.33545 0.83439
0.60226 0.33688 0.83366
0.7367 0.33859 0.8312
0.87132 0.34225 0.82679
0.99855 0.34586 0.82321
0 0.47747 0.8321
0.051737 0.47531 0.82486
0.19676 0.46904 0.82279
0.33781 0.46738 0.82163
0.4714 0.46797 0.82288
0.6046 0.46975 0.8223
0.74095 0.47396 0.81781
0.87492 0.47699 0.81514
1 0.47767 0.81488
0 0.62643 0.81913
0.046706 0.62293 0.81254
0.19111 0.61888 0.80825
0.33395 0.61298 0.80727
0.47041 0.60828 0.80881
0.60783 0.60875 0.80612
0.74509 0.6113 0.80309
0.87482 0.61173 0.806
1 0.61064 0.80874
0 0.79119 0.80757
0.039472 0.78161 0.80057
0.18489 0.77355 0.79541
0.32596 0.76544 0.79504
0.4665 0.75809 0.79465
0.60994 0.75473 0.78971
0.74532 0.75384 0.79042
0.87179 0.75147 0.79684
1 0.74951 0.7995
0 0.94044 0.80016
0.033401 0.93903 0.79262
0.17795 0.93468 0.78758
0.31983 0.92833 0.78585
0.463 0.92432 0.78167
0.60513 0.92022 0.77837
0.73877 0.91242 0.78468
0.86592 0.90347 0.79205
0.99803 0.89798 0.7923
0 1 0.79351
0.034239 1 0.78859
0.17526 1 0.78435
0.31653 1 0.7799
0.45931 1 0.77409
0.59929 1 0.7731
0.7319 1 0.7783
0.86125 1 0.78376
0.99956 1 0.78922
0 0 1
0.0076962 0 1
0.16556 0 1
0.3208 0 1
0.46455 0 1
0.60451 0 1
0.73598 0 1
0.86238 0 1
0.99453 0 1
0 0.026651 1
0.021919 0.039097 1
0.18129 0.057978 1
0.32528 0.065047 1
0.46458 0.066244 1
0.6027 0.064788 1
0.73305 0.062512 1
0.85876 0.061051 1
0.994 0.058285 1
0 0.15628 1
0.043708 0.17068 1
0.19108 0.18262 0.99992
0.32745 0.18726 1
0.46515 0.18883 1
0.60177 0.18948 1
0.73313 0.18965 1
0.86081 0.19205 1
0.99338 0.19489 1
0 0.29811 1
0.055185 0.30649 0.99146
0.19694 0.31031 0.9883
0.33138 0.31628 0.98838
0.46793 0.32199 0.98735
0.60229 0.32416 0.98827
0.73468 0.32447 0.99059
0.86551 0.32671 0.99063
0.99508 0.32983 0.98969
0 0.45867 0.98434
0.052162 0.45812 0.97513
0.19702 0.45089 0.97551
0.33689 0.45059 0.97464
0.47237 0.45466 0.97365
0.60372 0.45771 0.97554
0.73665 0.45985 0.97736
0.8699 0.46293 0.97613
0.99705 0.46587 0.97296
0 0.61396 0.96617
0.044185 0.61109 0.95926
0.18867 0.60391 0.9584
0.33456 0.5965 0.95743
0.47277 0.59187 0.95824
0.60554 0.59044 0.96121
0.741 0.59328 0.9616
0.87468 0.59743 0.95993
1 0.60063 0.9586
0 0.78165 0.95472
0.034625 0.77101 0.94914
0.18061 0.76128 0.94562
0.3262 0.75372 0.94295
0.46544 0.74526 0.94304
0.60435 0.7387 0.94339
0.74477 0.73814 0.94137
0.87745 0.73832 0.94186
1 0.73861 0.94639
0 0.9323 0.94434
0.026454 0.92995 0.93905
0.17319 0.92532 0.93443
0.31846 0.91812 0.93228
0.45782 0.91084 0.93199
0.60052 0.90625 0.92829
0.74356 0.90188 0.92453
0.87326 0.89558 0.92853
1 0.8917 0.93856
0 1 0.93177
0.027379 1 0.92769
0.17046 1 0.92296
0.31234 1 0.92147
0.45346 1 0.92007
0.59797 1 0.91619
0.73867 1 0.9166
0.87124 1 0.927
1 1 0.93379
0 0 1
0.0045567 0 1
0.15624 0 1
0.31577 0 1
0.46409 0 1
0.60565 0 1
0.73966 0 1
0.86521 0 1
0.99733 0 1
0 0.015634 1
0.015277 0.025864 1
0.17035 0.038731 1
0.32373 0.049893 1
0.46714 0.053485 1
0.60756 0.053313 1
0.74002 0.052108 1
0.866 0.051327 1
0.99756 0.051585 1
0 0.14652 1
0.026052 0.15444 1
0.18533 0.16819 1
0.32901 0.17515 1
0.468 0.17644 1
0.60716 0.17647 1
0.73898 0.17627 1
0.86644 0.17635 1
0.99787 0.17717 1
0 0.28503 1
0.038774 0.29052 1
0.19438 0.29868 1
0.33228 0.30328 1
0.46963 0.30688 1
0.60745 0.3083 1
0.73984 0.30846 1
0.86754 0.30922 1
0.99826 0.30989 1
0 0.43762 1
0.04487 0.44111 1
0.19565 0.4384 1
0.33564 0.43735 1
0.47295 0.44009 1
0.60839 0.44253 1
0.74074 0.44354 1
0.8691 0.44547 1
0.99878 0.44734 1
0 0.59894 1
0.03981 0.59844 1
0.18765 0.58889 1
0.33304 0.5804 1
0.47375 0.57639 1
0.60963 0.57502 1
0.74307 0.57645 1
0.87445 0.58032 1
1 0.58635 1
0 0.7689 1
0.030838 0.76194 1
0.17682 0.75235 1
0.32338 0.74454 1
0.46648 0.73478 1
0.6066 0.72534 1
0.74534 0.72162 1
0.88055 0.72289 1
1 0.72877 1
0 0.9178 1
0.022329 0.91701 1
0.16844 0.91155 1
0.31617 0.90514 1
0.45678 0.89848 1
0.59827 0.89185 1
0.74336 0.88662 1
0.88269 0.88448 1
1 0.88637 1
0 1 1
0.023388 1 1
0.16645 1 1
0.31114 1 1
0.4524 1 1
0.59684 1 1
0.74415 1 1
0.8787 1 1
0.98888 1 1
