a - Ai/luts/4x_OLDIES_290000_G_FINAL_interp_03.cube
LUT_3D_SIZE 9
0 0 0
0.086265 0 0
0.19339 0 0
0.30687 0 0
0.42866 0 0
0.55689 0 0
0.69061 0 0
0.83112 0 0
0.98623 0 0
0 0.10206 0
0.073424 0.088281 0
0.18281 0.077163 0
0.29989 0.06994 0
0.42546 0.066997 0
0.55545 0.066747 0
0.68713 0.066356 0
0.82268 0.062949 0
0.97804 0.056986 0
0 0.23731 0
0.059341 0.22312 0
0.17266 0.21195 0
0.29455 0.20511 0
0.42382 0.20219 0
0.55503 0.2014 0
0.68555 0.20082 0
0.81913 0.19907 0
0.97684 0.19862 0
0 0.3715 0
0.048045 0.36207 0
0.16357 0.35391 0
0.28834 0.3473 0
0.41958 0.34179 0
0.55236 0.33737 0
0.68348 0.3345 0
0.81789 0.33283 0
0.9798 0.33447 0
0 0.50065 0
0.041331 0.49354 0
0.15729 0.48802 0
0.28187 0.48301 0
0.41268 0.47754 0
0.54619 0.47162 0
0.67899 0.46626 0
0.81619 0.46275 0
0.98315 0.46363 0
0 0.63112 0
0.035058 0.62203 0
0.15238 0.61576 0
0.27684 0.61157 0
0.40645 0.60766 0
0.53889 0.60294 0
0.67204 0.59733 0
0.8125 0.59259 0
0.98503 0.5923 0
0 0.77634 0
0.025941 0.76246 0
0.14635 0.7531 0
0.27199 0.74714 0
0.40107 0.74223 0
0.53225 0.73749 0
0.66471 0.73259 0
0.80847 0.72875 0
0.98641 0.72917 0
0 0.93511 0
0.014812 0.92559 0
0.13722 0.91766 0
0.26498 0.90737 0
0.39406 0.89888 0
0.52507 0.8911 0
0.65849 0.88478 0
0.80519 0.8797 0
0.98568 0.87822 0
0 1 0
0.0086231 1 0
0.13265 1 0
0.25849 1 0
0.38539 1 0
0.51551 1 0
0.6493 1 0
0.79974 1 0
0.9828 1 0
0 0 0.10336
0.076551 0 0.093788
0.18457 0 0.085795
0.29897 0 0.079562
0.42142 0 0.074636
0.55017 0 0.070421
0.68416 0 0.066396
0.82339 0 0.062179
0.98547 0 0.05853
0 0.079428 0.088884
0.065565 0.068386 0.079673
0.17594 0.06053 0.073113
0.29305 0.055726 0.067518
0.41899 0.054004 0.062642
0.54991 0.054494 0.058313
0.68236 0.055074 0.054563
0.81609 0.052158 0.050736
0.97536 0.045711 0.047186
0 0.20898 0.069525
0.055165 0.19699 0.063998
0.17041 0.18989 0.06129
0.29167 0.18831 0.058882
0.4196 0.18941 0.055131
0.55108 0.19085 0.050448
0.68209 0.19166 0.046289
0.81241 0.19023 0.041976
0.97041 0.18842 0.03729
0 0.34756 0.045669
0.044492 0.33729 0.041904
0.16492 0.32959 0.0431
0.29073 0.32554 0.045926
0.41997 0.3239 0.046149
0.55175 0.3233 0.043419
0.68219 0.32347 0.039865
0.81095 0.32319 0.034835
0.96976 0.32389 0.027989
0 0.48298 0.024199
0.036433 0.47554 0.019597
0.15768 0.46885 0.02043
0.28522 0.46241 0.025052
0.41603 0.45659 0.028941
0.54928 0.45191 0.030219
0.68094 0.44872 0.029778
0.81052 0.44722 0.026112
0.97169 0.44917 0.018533
0 0.61294 0.0050776
0.029912 0.60511 0.00047548
0.15106 0.5993 0
0.27822 0.59415 0.0027589
0.40922 0.58867 0.006362
0.54296 0.58279 0.00942
0.67576 0.57678 0.012029
0.80815 0.572 0.011369
0.97421 0.57192 0.0052524
0 0.75141 0
0.021723 0.73925 0
0.14505 0.73137 0
0.27283 0.72656 0
0.40331 0.72258 0
0.53606 0.71805 0
0.66837 0.71257 0
0.80331 0.70728 0
0.97484 0.70558 0
0 0.91422 0
0.0095144 0.90174 0
0.13695 0.88894 0
0.2676 0.88039 0
0.39846 0.87416 0
0.53022 0.86831 0
0.66181 0.86232 0
0.7988 0.85728 0
0.97563 0.85609 0
0 1 0
0.0028355 1 0
0.12974 1 0
0.25963 1 0
0.39122 1 0
0.52203 1 0
0.65363 1 0
0.79461 1 0
0.97611 1 0
0 0 0.25019
0.065947 0 0.23941
0.17794 0 0.23229
0.29387 0 0.22815
0.41655 0 0.22479
0.54461 0 0.22119
0.67835 0 0.21698
0.81844 0 0.21318
0.98128 0 0.21135
0 0.063615 0.23506
0.056495 0.055278 0.22498
0.17 0.049012 0.21822
0.28803 0.04479 0.21422
0.41407 0.042542 0.2106
0.54491 0.042179 0.20683
0.67787 0.042653 0.20312
0.81197 0.040195 0.2004
0.97116 0.033872 0.2
0 0.19088 0.22231
0.049707 0.18264 0.21478
0.1672 0.17968 0.21002
0.28748 0.18087 0.20653
0.41397 0.18255 0.20208
0.5453 0.18302 0.19705
0.67744 0.18273 0.19246
0.80776 0.18023 0.18931
0.96513 0.17704 0.18913
0 0.32765 0.20718
0.042861 0.31844 0.20287
0.1666 0.31371 0.20172
0.2902 0.31376 0.20046
0.41575 0.31554 0.19657
0.54583 0.3166 0.19082
0.67651 0.31681 0.18483
0.80414 0.31495 0.17972
0.96147 0.31297 0.17803
0 0.46716 0.19076
0.034769 0.45916 0.18732
0.16134 0.45151 0.18837
0.28849 0.44537 0.19019
0.41548 0.4417 0.18921
0.54585 0.4398 0.18508
0.67609 0.43885 0.17915
0.80241 0.43819 0.17246
0.96045 0.43925 0.1685
0 0.59874 0.17561
0.027257 0.59224 0.17235
0.1531 0.58562 0.17327
0.28131 0.57844 0.17588
0.41028 0.57147 0.17696
0.54226 0.56572 0.17526
0.67383 0.56126 0.17135
0.80167 0.55858 0.16568
0.96264 0.55974 0.16128
0 0.73129 0.15907
0.019905 0.72247 0.1576
0.14611 0.7163 0.15881
0.27425 0.71133 0.1609
0.40359 0.70621 0.1619
0.53636 0.70104 0.16128
0.6688 0.69571 0.15948
0.79875 0.6906 0.15598
0.96395 0.68825 0.15243
0 0.88867 0.13709
0.0093997 0.87431 0.13833
0.13945 0.86421 0.14151
0.26962 0.85807 0.14445
0.39942 0.85368 0.14565
0.53177 0.84938 0.14573
0.66336 0.84394 0.14529
0.79368 0.83774 0.14263
0.96226 0.83374 0.13806
0 1 0.11576
0 1 0.11428
0.13056 1 0.11692
0.26373 1 0.1217
0.39487 1 0.12476
0.52596 1 0.12681
0.65589 1 0.12762
0.78822 1 0.12471
0.96403 1 0.11792
0 0 0.39484
0.05618 0 0.38689
0.17243 0 0.38089
0.29087 0 0.3781
0.41231 0 0.37626
0.53867 0 0.37272
0.67159 0 0.36758
0.81319 0 0.36217
0.97753 0 0.35879
0 0.049681 0.38016
0.047262 0.0423 0.37228
0.16494 0.036411 0.36653
0.2849 0.031806 0.36389
0.40942 0.028445 0.36138
0.5394 0.026996 0.35691
0.67261 0.027183 0.35191
0.80806 0.025304 0.3476
0.96849 0.019681 0.34569
0 0.17906 0.36974
0.042082 0.17365 0.36292
0.1624 0.17213 0.35727
0.28316 0.17281 0.35363
0.40798 0.1731 0.34949
0.53911 0.17222 0.34372
0.67229 0.17084 0.3383
0.80398 0.16755 0.33433
0.96261 0.16398 0.33343
0 0.31274 0.35958
0.038269 0.30592 0.35511
0.16349 0.30394 0.35056
0.28583 0.30607 0.34636
0.40915 0.30902 0.34113
0.53842 0.30995 0.33468
0.66975 0.30846 0.32821
0.79872 0.30388 0.32285
0.95808 0.29988 0.32166
0 0.45138 0.34566
0.031826 0.44325 0.34249
0.16125 0.43657 0.33986
0.28721 0.43311 0.33784
0.41107 0.43289 0.33452
0.53867 0.43344 0.32906
0.66751 0.43279 0.32157
0.79407 0.43017 0.31349
0.9547 0.4284 0.31038
0 0.58518 0.33031
0.024115 0.57885 0.32684
0.15386 0.57144 0.32478
0.28257 0.56396 0.32484
0.40901 0.55839 0.32463
0.53751 0.55509 0.32208
0.66607 0.55288 0.31601
0.79232 0.55116 0.30706
0.95481 0.55161 0.302
0 0.71664 0.31589
0.017579 0.71032 0.31274
0.14625 0.70458 0.31043
0.27517 0.69845 0.31037
0.40321 0.6924 0.31123
0.53375 0.68759 0.31088
0.66338 0.68373 0.30737
0.79077 0.68011 0.30004
0.95619 0.6782 0.29507
0 0.86698 0.30086
0.01004 0.85616 0.29983
0.14036 0.84857 0.29849
0.26978 0.84323 0.29792
0.39844 0.83877 0.29803
0.53004 0.83469 0.29787
0.65961 0.82992 0.29568
0.7866 0.82393 0.28978
0.95403 0.81873 0.28514
0 1 0.28254
0 1 0.28389
0.13337 1 0.28477
0.26523 1 0.28508
0.39487 1 0.28526
0.52559 1 0.28522
0.65325 0.99727 0.28347
0.78093 0.98885 0.27806
0.95334 0.98712 0.27328
0 0 0.53126
0.04851 0 0.52583
0.16733 0 0.52133
0.28873 0 0.51883
0.40981 0 0.51799
0.53319 0 0.51627
0.66385 0 0.51147
0.806 0 0.50374
0.97455 0 0.4984
0 0.035168 0.51592
0.039831 0.027805 0.51005
0.16059 0.021753 0.50588
0.28327 0.016904 0.5042
0.40631 0.012558 0.50345
0.53346 0.0097746 0.50062
0.66571 0.0093818 0.49498
0.80184 0.0081209 0.48766
0.96563 0.0030241 0.48293
0 0.17002 0.5057
0.034648 0.16581 0.49969
0.15722 0.16363 0.49456
0.28001 0.16235 0.4918
0.40309 0.16047 0.48954
0.53229 0.15826 0.48498
0.66614 0.15638 0.47887
0.79892 0.15337 0.47283
0.96009 0.15031 0.4697
0 0.30198 0.4987
0.032077 0.29776 0.49402
0.15746 0.29698 0.48822
0.28061 0.29881 0.48335
0.40285 0.30093 0.47883
0.53108 0.30148 0.47319
0.66321 0.29907 0.46702
0.79341 0.2928 0.46137
0.95554 0.28763 0.45897
0 0.43625 0.48815
0.027605 0.42902 0.48561
0.15713 0.42414 0.48128
0.28309 0.42335 0.47691
0.40556 0.42574 0.47209
0.53141 0.42814 0.46639
0.65933 0.42745 0.45989
0.78635 0.42234 0.453
0.95073 0.41756 0.44963
0 0.57052 0.47416
0.020002 0.56349 0.47212
0.15145 0.55573 0.46897
0.28144 0.54935 0.46683
0.40669 0.54659 0.46455
0.53261 0.54667 0.46104
0.65796 0.54705 0.45549
0.78235 0.54548 0.44743
0.94836 0.54368 0.4418
0 0.70324 0.46068
0.013002 0.69753 0.45819
0.14318 0.69112 0.45449
0.27472 0.68375 0.45263
0.40319 0.67763 0.45223
0.53177 0.6743 0.45161
0.65749 0.67274 0.44873
0.78113 0.67105 0.4417
0.94912 0.66953 0.43501
0 0.85031 0.4477
0.0067461 0.84178 0.44586
0.13654 0.83527 0.44165
0.26792 0.82927 0.43841
0.39812 0.82375 0.43757
0.52906 0.81938 0.43789
0.6552 0.81534 0.43647
0.77818 0.81049 0.43069
0.94847 0.80578 0.4246
0 1 0.43279
0 1 0.43245
0.13053 1 0.4292
0.26296 1 0.42546
0.39406 0.99646 0.42377
0.52488 0.99021 0.42375
0.64956 0.98248 0.4224
0.77326 0.97512 0.41708
0.94844 0.97406 0.41217
0 0 0.66916
0.042304 0 0.66322
0.16239 0 0.65905
0.28604 0 0.65618
0.40849 0 0.65502
0.52978 0 0.65451
0.65593 0 0.65123
0.79677 0 0.64276
0.97439 0 0.63681
0 0.018073 0.65192
0.033364 0.010503 0.6454
0.15644 0.0041251 0.64111
0.28189 0 0.63893
0.40549 0 0.63867
0.52976 0 0.63843
0.65736 0 0.63469
0.7921 0 0.62534
0.96381 0 0.61782
0 0.16012 0.63924
0.027548 0.15618 0.63262
0.1523 0.15276 0.62758
0.27806 0.14974 0.62483
0.40103 0.14591 0.62407
0.52745 0.14204 0.62296
0.65818 0.13969 0.61874
0.79027 0.13757 0.60957
0.95781 0.13566 0.60219
0 0.29368 0.63146
0.024899 0.29176 0.62556
0.15075 0.291 0.61959
0.27623 0.29105 0.61523
0.39847 0.29072 0.61258
0.52523 0.28975 0.60982
0.65621 0.28722 0.60525
0.78626 0.28154 0.59721
0.95355 0.2768 0.5911
0 0.42333 0.62308
0.022683 0.41866 0.61955
0.15109 0.41626 0.6144
0.27758 0.41697 0.60928
0.39952 0.41937 0.60456
0.5249 0.4214 0.59994
0.65249 0.42056 0.59502
0.7792 0.41477 0.5881
0.94808 0.40875 0.58296
0 0.55589 0.61096
0.016605 0.54897 0.60928
0.14793 0.54222 0.60634
0.27802 0.53815 0.60309
0.40193 0.53809 0.59878
0.52695 0.54063 0.59381
0.65114 0.54268 0.58863
0.77375 0.54089 0.58166
0.94372 0.53661 0.57592
0 0.69032 0.59823
0.0090315 0.68425 0.59649
0.13984 0.6771 0.59393
0.27297 0.66931 0.59215
0.40114 0.66424 0.58988
0.529 0.66324 0.58704
0.65256 0.66439 0.58346
0.77232 0.66456 0.57696
0.94271 0.66239 0.56965
0 0.83602 0.58681
0.0025114 0.82818 0.58462
0.13157 0.82142 0.58105
0.26506 0.81415 0.57835
0.39681 0.8079 0.57655
0.52803 0.8041 0.57533
0.65194 0.80123 0.57358
0.77076 0.79767 0.56857
0.94403 0.79402 0.5615
0 1 0.57507
0 1 0.573
0.12503 0.99469 0.56894
0.2588 0.98735 0.56494
0.3925 0.98096 0.56264
0.52442 0.97512 0.56188
0.64677 0.96801 0.56044
0.76668 0.96181 0.5558
0.94778 0.9631 0.55055
0 0 0.81868
0.03439 0 0.8116
0.15615 0 0.80528
0.28121 0 0.80035
0.40603 0 0.79703
0.52717 0 0.79549
0.64924 0 0.79307
0.78868 0 0.78793
0.97452 0 0.78467
0 0 0.79964
0.025008 0 0.791
0.15039 0 0.7845
0.27869 0 0.77985
0.40519 0 0.77782
0.52838 0 0.77768
0.65019 0 0.77546
0.7816 0 0.76904
0.96411 0 0.76498
0 0.14522 0.7823
0.019685 0.14244 0.77415
0.14646 0.13916 0.76818
0.27545 0.13574 0.76388
0.40134 0.13124 0.7628
0.52656 0.12667 0.76382
0.65116 0.12421 0.76219
0.77853 0.12209 0.75483
0.95508 0.11972 0.7468
0 0.2837 0.77033
0.017321 0.28355 0.76332
0.14423 0.28264 0.7577
0.27264 0.28148 0.75335
0.39711 0.27926 0.75198
0.52329 0.27639 0.75255
0.65 0.27358 0.75105
0.77547 0.26924 0.7438
0.95007 0.26581 0.73442
0 0.41218 0.76145
0.016473 0.41075 0.7561
0.14403 0.41025 0.75061
0.27224 0.41094 0.74539
0.39549 0.41139 0.74241
0.52138 0.41109 0.74113
0.64739 0.40971 0.73928
0.77036 0.40527 0.73328
0.94474 0.40051 0.72489
0 0.54164 0.75091
0.013018 0.53631 0.7481
0.14311 0.53222 0.74455
0.273 0.53095 0.7399
0.39632 0.53199 0.73558
0.52184 0.53423 0.73196
0.64599 0.53587 0.72884
0.76577 0.5341 0.72346
0.94014 0.52918 0.71627
0 0.67701 0.73815
0.0057761 0.67033 0.73609
0.13703 0.6632 0.7343
0.2703 0.65682 0.73208
0.39698 0.65379 0.72894
0.52465 0.65485 0.7251
0.64771 0.65773 0.72122
0.76427 0.65893 0.71539
0.93786 0.65562 0.70781
0 0.82351 0.72673
0 0.81496 0.72343
0.12777 0.80725 0.72073
0.26261 0.79913 0.71919
0.39394 0.79292 0.71738
0.52553 0.79026 0.71498
0.64878 0.78906 0.71221
0.76416 0.78752 0.70721
0.94042 0.78539 0.69991
0 1 0.71842
0 0.99022 0.71387
0.12002 0.98163 0.70973
0.25534 0.97371 0.70737
0.39008 0.96727 0.70563
0.52276 0.96221 0.7037
0.64407 0.95593 0.70116
0.76149 0.95116 0.69732
0.95001 0.95595 0.69318
0 0 0.97585
0.026256 0 0.96742
0.14867 0 0.96198
0.27365 0 0.95717
0.40022 0 0.95172
0.52268 0 0.94741
0.64395 0 0.94407
0.78555 0 0.94319
0.97528 0 0.94936
0 0 0.959
0.015224 0 0.95067
0.14127 0 0.94343
0.27181 0 0.93638
0.40161 0 0.93114
0.52535 0 0.92762
0.64475 0 0.92487
0.77837 0 0.92461
0.96994 0 0.93182
0 0.12366 0.9415
0.010223 0.12309 0.93128
0.1389 0.1214 0.92378
0.27065 0.11932 0.91796
0.40083 0.11638 0.91481
0.52593 0.11346 0.91358
0.64568 0.11174 0.91112
0.77148 0.10883 0.90801
0.95725 0.10256 0.91148
0 0.2689 0.92423
0.0096129 0.27045 0.91589
0.13776 0.27032 0.90954
0.2686 0.26934 0.90461
0.39758 0.26704 0.90286
0.52398 0.26409 0.9037
0.64542 0.2618 0.90243
0.76715 0.25858 0.89853
0.94699 0.2546 0.89711
0 0.401 0.91245
0.0096027 0.402 0.90526
0.13695 0.40214 0.89929
0.26718 0.40193 0.8939
0.3947 0.40075 0.89162
0.52174 0.39887 0.89259
0.64433 0.39753 0.89226
0.7633 0.3952 0.88936
0.94009 0.3922 0.88669
0 0.52876 0.90232
0.0083733 0.52622 0.89737
0.13648 0.5248 0.89242
0.26672 0.52485 0.88634
0.39297 0.52499 0.88232
0.5202 0.52491 0.88153
0.6435 0.52502 0.88084
0.76056 0.52377 0.87901
0.93613 0.52029 0.87682
0 0.6631 0.89006
0.0029655 0.65658 0.8872
0.13305 0.65086 0.88472
0.26551 0.64715 0.88011
0.39279 0.64585 0.87562
0.521 0.64695 0.87274
0.64416 0.64905 0.87013
0.75913 0.64956 0.86764
0.93482 0.64577 0.86531
0 0.81205 0.87807
0 0.80197 0.87429
0.12452 0.79307 0.87244
0.25964 0.78529 0.87004
0.39067 0.77997 0.86701
0.52218 0.7783 0.86405
0.64531 0.77826 0.86048
0.75917 0.77798 0.85706
0.93953 0.77732 0.85452
0 0.99344 0.87205
0 0.98219 0.86668
0.11583 0.97251 0.86322
0.25262 0.96399 0.86102
0.38714 0.95741 0.85861
0.51984 0.95267 0.85567
0.64116 0.94732 0.85236
0.75842 0.94474 0.85019
0.95615 0.95495 0.85102
0 0 1
0.017973 0 1
0.14244 0 1
0.26786 0 1
0.39366 0 1
0.51608 0 1
0.64204 0 1
0.79363 0 1
0.97644 0 1
0 0 1
0.0072492 0 1
0.13399 0 1
0.26397 0 1
0.39388 0 1
0.5189 0 1
0.64279 0 1
0.78606 0 1
0.97349 0 1
0 0.10569 1
0.00019368 0.10223 1
0.12984 0.099476 1
0.26356 0.098826 1
0.39599 0.098285 1
0.52113 0.097891 1
0.64157 0.09686 1
0.77583 0.091769 1
0.96965 0.080377 1
0 0.25099 1
0.00052187 0.25397 1
0.12979 0.25483 1
0.26268 0.25406 1
0.39536 0.25234 1
0.52181 0.25088 1
0.64141 0.24993 1
0.76786 0.24715 1
0.95562 0.24088 1
0 0.3876 1
0.0020964 0.39027 1
0.12928 0.39097 1
0.26082 0.39027 1
0.39296 0.38838 1
0.52105 0.38654 1
0.64141 0.38607 1
0.76353 0.38541 1
0.9451 0.3829 1
0 0.51699 1
0.0023199 0.51706 1
0.12873 0.51712 1
0.2592 0.51705 1
0.39012 0.51582 1
0.51947 0.51415 1
0.64166 0.51375 1
0.76175 0.51359 1
0.94 0.51152 1
0 0.65014 1
0 0.64567 1
0.12705 0.64231 1
0.25798 0.64057 1
0.38827 0.6395 1
0.51833 0.63891 1
0.6418 0.63904 1
0.76065 0.63849 1
0.93961 0.63525 1
0 0.80089 1
0 0.79088 1
0.12129 0.78263 1
0.2543 0.77672 1
0.38623 0.77291 1
0.51793 0.77138 1
0.64146 0.77076 1
0.75995 0.76982 1
0.94748 0.77042 1
0 0.98612 1
0 0.97597 1
0.11356 0.96666 1
0.24905 0.9589 1
0.38316 0.95253 1
0.51534 0.94798 1
0.63753 0.94421 1
0.7606 0.94469 1
0.96985 0.95977 1
