a - Ai/luts/4x_OLDIES_290000_G_FINAL_interp_03.cube
LUT_3D_SIZE 5
0 0 0
0.19339 0 0
0.42866 0 0
0.69061 0 0
0.98623 0 0
0 0.23731 0
0.17266 0.21195 0
0.42382 0.20219 0
0.68555 0.20082 0
0.97684 0.19862 0
0 0.50065 0
0.15729 0.48802 0
0.41268 0.47754 0
0.67899 0.46626 0
0.98315 0.46363 0
0 0.77634 0
0.14635 0.7531 0
0.40107 0.74223 0
0.66471 0.73259 0
0.98641 0.72917 0
0 1 0
0.13265 1 0
0.38539 1 0
0.6493 1 0
0.9828 1 0
0 0 0.25019
0.17794 0 0.23229
0.41655 0 0.22479
0.67835 0 0.21698
0.98128 0 0.21135
0 0.19088 0.22231
0.1672 0.17968 0.21002
0.41397 0.18255 0.20208
0.67744 0.18273 0.19246
0.96513 0.17704 0.18913
0 0.46716 0.19076
0.16134 0.45151 0.18837
0.41548 0.4417 0.18921
0.67609 0.43885 0.17915
0.96045 0.43925 0.1685
0 0.73129 0.15907
0.14611 0.7163 0.15881
0.40359 0.70621 0.1619
0.6688 0.69571 0.15948
0.96395 0.68825 0.15243
0 1 0.11576
0.13056 1 0.11692
0.39487 1 0.12476
0.65589 1 0.12762
0.96403 1 0.11792
0 0 0.53126
0.16733 0 0.52133
0.40981 0 0.51799
0.66385 0 0.51147
0.97455 0 0.4984
0 0.17002 0.5057
0.15722 0.16363 0.49456
0.40309 0.16047 0.48954
0.66614 0.15638 0.47887
0.96009 0.15031 0.4697
0 0.43625 0.48815
0.15713 0.42414 0.48128
0.40556 0.42574 0.47209
0.65933 0.42745 0.45989
0.95073 0.41756 0.44963
0 0.70324 0.46068
0.14318 0.69112 0.45449
0.40319 0.67763 0.45223
0.65749 0.67274 0.44873
0.94912 0.66953 0.43501
0 1 0.43279
0.13053 1 0.4292
0.39406 0.99646 0.42377
0.64956 0.98248 0.4224
0.94844 0.97406 0.41217
0 0 0.81868
0.15615 0 0.80528
0.40603 0 0.79703
0.64924 0 0.79307
0.97452 0 0.78467
0 0.14522 0.7823
0.14646 0.13916 0.76818
0.40134 0.13124 0.7628
0.65116 0.12421 0.76219
0.95508 0.11972 0.7468
0 0.41218 0.76145
0.14403 0.41025 0.75061
0.39549 0.41139 0.74241
0.64739 0.40971 0.73928
0.94474 0.40051 0.72489
0 0.67701 0.73815
0.13703 0.6632 0.7343
0.39698 0.65379 0.72894
0.64771 0.65773 0.72122
0.93786 0.65562 0.70781
0 1 0.71842
0.12002 0.98163 0.70973
0.39008 0.96727 0.70563
0.64407 0.95593 0.70116
0.95001 0.95595 0.69318
0 0 1
0.14244 0 1
0.39366 0 1
0.64204 0 1
0.97644 0 1
0 0.10569 1
0.12984 0.099476 1
0.39599 0.098285 1
0.64157 0.09686 1
0.96965 0.080377 1
0 0.3876 1
0.12928 0.39097 1
0.39296 0.38838 1
0.64141 0.38607 1
0.9451 0.3829 1
0 0.65014 1
0.12705 0.64231 1
0.38827 0.6395 1
0.6418 0.63904 1
0.93961 0.63525 1
0 0.98612 1
0.11356 0.96666 1
0.38316 0.95253 1
0.63753 0.94421 1
0.96985 0.95977 1
