a - Ai/luts/4x_OLDIES_ALTERNATIVE_FINAL.cube
LUT_3D_SIZE 33
0 0 0
0 0 0
0.016531 0 0
0.04707 0 0
0.076998 0 0
0.10695 0 0
0.13697 0 0
0.16708 0 0
0.19753 0 0
0.22851 0 0
0.26018 0 0
0.2926 0 0
0.32578 0 0
0.35972 0 0
0.39444 0 0
0.42991 0 0
0.466 0 0
0.5025 0 0
0.53924 0 0
0.57607 0 0
0.61287 0 0
0.6495 0 0
0.68576 0 0
0.72144 0 0
0.75645 0 0
0.79071 0 0
0.82405 0 0
0.85644 0 0
0.88805 0 0
0.91918 0 0
0.95002 0 0
0.98131 0 0
1 0 0
0 0 0
0 0 0
0.015001 0 0
0.045756 0 0
0.076215 0 0
0.1065 0 0
0.13665 0 0
0.16689 0 0
0.19742 0 0
0.22844 0 0
0.26011 0 0
0.29254 0 0
0.32574 0 0
0.35969 0 0
0.39442 0 0
0.4299 0 0
0.466 0 0
0.50247 0 0
0.53911 0 0
0.57577 0 0
0.61238 0 0
0.64887 0 0
0.6851 0 0
0.72084 0 0
0.75597 0 0
0.7904 0 0
0.82402 0 0
0.85673 0 0
0.88863 0 0
0.92003 0 0
0.95114 0 0
0.98263 0 0
1 0 0
0 0.011435 0
0 0.00871 0
0.012966 0.006056 0
0.044268 0.003709 0
0.07528 0.0018529 0
0.10594 0.00037285 0
0.13643 0 0
0.16694 0 0
0.19762 0 0
0.22872 0 0
0.26043 0 0
0.29286 0 0
0.32605 0 0
0.36 0 0
0.39471 0 0
0.43014 0 0
0.46614 0 0
0.5025 0 0
0.53899 0 0
0.57549 0 0
0.61192 0 0
0.64821 0 0
0.68426 0 0
0.71992 0 0
0.75512 0 0
0.78975 0 0
0.82365 0 0
0.85678 0 0
0.88916 0 0
0.92096 0 0
0.95243 0 0
0.98416 0 0
1 0 0
0 0.048696 0
0 0.045524 0
0.010387 0.04229 0
0.042391 0.039545 0
0.073877 0.037112 0
0.10503 0.035052 0
0.13604 0.033518 0
0.16695 0.032498 0
0.19794 0.031937 0
0.22924 0.031766 0
0.26107 0.031884 0
0.29355 0.032192 0
0.32673 0.032607 0
0.36063 0.033052 0
0.39522 0.033446 0
0.4305 0.033713 0
0.46635 0.033802 0
0.50254 0.033696 0
0.53886 0.033404 0
0.57516 0.032965 0
0.61139 0.032391 0
0.64748 0.031673 0
0.68337 0.030809 0
0.71894 0.029833 0
0.75413 0.028818 0
0.78888 0.0278 0
0.82306 0.026912 0
0.85652 0.026316 0
0.88936 0.026099 0
0.92174 0.026349 0
0.95375 0.027148 0
0.98601 0.028499 0
1 0.030293 0
0 0.088004 0
0 0.084922 0
0.0079408 0.082022 0
0.040234 0.079195 0
0.071953 0.076279 0
0.10363 0.073655 0
0.13526 0.071564 0
0.16673 0.070069 0
0.19819 0.069165 0
0.22984 0.06878 0
0.26188 0.068802 0
0.29444 0.069102 0
0.32762 0.069551 0
0.36144 0.070047 0
0.3959 0.0705 0
0.43096 0.070829 0
0.46654 0.070963 0
0.50246 0.070846 0
0.53854 0.070453 0
0.57466 0.069815 0
0.61075 0.068998 0
0.64671 0.068096 0
0.68245 0.067156 0
0.71792 0.066162 0
0.75309 0.065124 0
0.7879 0.064116 0
0.82222 0.063221 0
0.85599 0.062501 0
0.88923 0.062083 0
0.92214 0.062027 0
0.95479 0.062453 0
0.98768 0.06345 0
1 0.064915 0
0 0.13013 0
0 0.1279 0
0.0058565 0.12548 0
0.037879 0.12257 0
0.06964 0.11944 0
0.10175 0.11644 0
0.13397 0.1138 0
0.1661 0.11171 0
0.19813 0.11026 0
0.23022 0.10939 0
0.26255 0.10904 0
0.29526 0.10907 0
0.32847 0.10935 0
0.36221 0.10976 0
0.3965 0.11016 0
0.43133 0.11047 0
0.46663 0.11058 0
0.50223 0.11041 0
0.538 0.10993 0
0.57384 0.10917 0
0.60972 0.10814 0
0.64558 0.10688 0
0.68131 0.10552 0
0.7168 0.1042 0
0.752 0.10295 0
0.78688 0.10183 0
0.82137 0.10084 0
0.8554 0.10005 0
0.88899 0.099536 0
0.92237 0.09939 0
0.95558 0.099689 0
0.98908 0.10044 0
1 0.10164 0
0 0.17447 0
0 0.17295 0
0.0040844 0.17089 0
0.035722 0.16831 0
0.067345 0.16542 0
0.099579 0.16242 0
0.13219 0.15953 0
0.16486 0.15698 0
0.19746 0.15493 0
0.23003 0.15344 0
0.26272 0.15248 0
0.29567 0.15196 0
0.329 0.15178 0
0.36276 0.15183 0
0.39697 0.15198 0
0.43163 0.15214 0
0.46667 0.15218 0
0.50196 0.152 0
0.5374 0.15154 0
0.57294 0.15077 0
0.60854 0.14973 0
0.64417 0.14844 0
0.67979 0.147 0
0.71529 0.14548 0
0.75055 0.14396 0
0.78557 0.14249 0
0.82029 0.14115 0
0.85463 0.14005 0
0.88861 0.13929 0
0.92247 0.13892 0
0.9562 0.139 0
0.99015 0.13946 0
1 0.14021 0
0 0.21875 0
0 0.21755 0
0.0028024 0.21588 0
0.03403 0.21376 0
0.065356 0.21131 0
0.097426 0.20863 0
0.1301 0.20584 0
0.16307 0.20314 0
0.19608 0.20074 0
0.22909 0.19877 0
0.26216 0.19727 0
0.29543 0.19622 0
0.329 0.19556 0
0.36292 0.19521 0
0.3972 0.19506 0
0.43183 0.19504 0
0.46673 0.19502 0
0.50178 0.19491 0
0.53692 0.19459 0
0.57213 0.19401 0
0.60742 0.19315 0
0.6428 0.19204 0
0.67825 0.19072 0
0.71366 0.18925 0
0.7489 0.18772 0
0.78398 0.18615 0
0.81885 0.18458 0
0.8535 0.18311 0
0.88792 0.18192 0
0.92227 0.18114 0
0.95649 0.18079 0
0.99075 0.18079 0
1 0.181 0
0 0.26113 0
0 0.25993 0
0.0017584 0.25839 0
0.032665 0.25651 0
0.063666 0.25437 0
0.095443 0.252 0
0.12798 0.24948 0
0.161 0.24692 0
0.19424 0.24451 0
0.22757 0.24237 0
0.261 0.24061 0
0.29463 0.23925 0
0.32852 0.2383 0
0.36271 0.23769 0
0.39719 0.23736 0
0.43194 0.23724 0
0.46684 0.23722 0
0.5018 0.23721 0
0.53675 0.23714 0
0.57169 0.23691 0
0.60669 0.23648 0
0.64178 0.23583 0
0.67698 0.23495 0
0.71222 0.23385 0
0.74736 0.23261 0
0.78238 0.23125 0
0.81728 0.22979 0
0.85204 0.22828 0
0.88678 0.22683 0
0.92157 0.22561 0
0.95619 0.2247 0
0.99067 0.22405 0
1 0.22358 0
0 0.30124 0
0 0.29978 0
0.00063406 0.29814 0
0.031342 0.29626 0
0.062107 0.29422 0
0.093629 0.29203 0
0.12598 0.28973 0
0.15897 0.28738 0
0.19231 0.2851 0
0.22585 0.283 0
0.25958 0.28119 0
0.29355 0.27973 0
0.32779 0.27864 0
0.36229 0.27791 0
0.39704 0.27749 0
0.43198 0.27731 0
0.46699 0.27729 0
0.50197 0.27736 0
0.53687 0.27746 0
0.57169 0.27753 0
0.6065 0.27753 0
0.64137 0.27739 0
0.67632 0.2771 0
0.71132 0.2766 0
0.74626 0.2759 0
0.78112 0.27502 0
0.8159 0.27396 0
0.85063 0.27275 0
0.88545 0.27146 0
0.92043 0.27017 0
0.95526 0.26891 0
0.98986 0.26773 0
1 0.26665 0
0 0.33963 0
0 0.33784 0
0 0.33599 0
0.029924 0.33399 0
0.060566 0.33193 0
0.091931 0.3298 0
0.12414 0.32763 0
0.15707 0.32543 0
0.19048 0.32328 0
0.22418 0.32128 0
0.25815 0.31952 0
0.29242 0.31805 0
0.32698 0.31691 0
0.36178 0.31609 0
0.3968 0.31557 0
0.43194 0.31529 0
0.46708 0.3152 0
0.50215 0.31523 0
0.5371 0.31536 0
0.57192 0.31556 0
0.60668 0.31579 0
0.64145 0.316 0
0.67623 0.31613 0
0.71101 0.31614 0
0.74573 0.31598 0
0.78039 0.31563 0
0.81498 0.31508 0
0.84957 0.31434 0
0.88432 0.31344 0
0.91923 0.3124 0
0.95402 0.31121 0
0.98859 0.3099 0
1 0.30858 0
0 0.377 0
0 0.37499 0
0 0.37291 0
0.028407 0.3708 0
0.059016 0.36867 0
0.090305 0.36654 0
0.12244 0.36441 0
0.15535 0.36229 0
0.18881 0.36024 0
0.22264 0.35832 0
0.25681 0.3566 0
0.29133 0.35513 0
0.32615 0.35394 0
0.36121 0.35305 0
0.39645 0.35241 0
0.43176 0.35196 0
0.46704 0.35169 0
0.50222 0.35156 0
0.53727 0.35157 0
0.57219 0.35171 0
0.607 0.35197 0
0.64177 0.35231 0
0.67649 0.35265 0
0.71114 0.35295 0
0.74569 0.35315 0
0.78016 0.3532 0
0.81455 0.35309 0
0.84898 0.35281 0
0.88357 0.35236 0
0.91829 0.35172 0
0.9529 0.35083 0
0.98733 0.34975 0
1 0.34858 0
0 0.414 0
0 0.41192 0
0 0.40969 0
0.026836 0.40747 0
0.057463 0.40528 0
0.088732 0.40311 0
0.12084 0.40097 0
0.15375 0.39888 0
0.18727 0.39687 0
0.22121 0.39498 0
0.25553 0.39327 0
0.29025 0.39178 0
0.32529 0.39053 0
0.36056 0.38952 0
0.39596 0.38873 0
0.4314 0.38809 0
0.46679 0.38758 0
0.50209 0.38721 0
0.53727 0.387 0
0.57232 0.38694 0
0.60727 0.38705 0
0.64212 0.38729 0
0.67686 0.38763 0
0.71148 0.388 0
0.74595 0.38836 0
0.78029 0.38867 0
0.81454 0.38889 0
0.84882 0.38899 0
0.88325 0.38895 0
0.91775 0.38873 0
0.95211 0.38824 0
0.98637 0.38754 0
1 0.38672 0
0 0.45107 0
0 0.44903 0
0 0.44672 0
0.025248 0.44439 0
0.055916 0.44215 0
0.087189 0.43994 0
0.1193 0.43777 0
0.15225 0.43566 0
0.18582 0.43365 0
0.21985 0.43176 0
0.2543 0.43004 0
0.28915 0.4285 0
0.32435 0.42715 0
0.35978 0.426 0
0.39532 0.42502 0
0.43084 0.42418 0
0.46631 0.42345 0
0.50172 0.42282 0
0.53702 0.42234 0
0.57222 0.42201 0
0.60732 0.42185 0
0.6423 0.42185 0
0.67713 0.42197 0
0.71182 0.42222 0
0.74632 0.42256 0
0.78064 0.42297 0
0.81483 0.4234 0
0.84903 0.4238 0
0.88333 0.42413 0
0.91762 0.42428 0
0.95172 0.42419 0
0.98581 0.42388 0
1 0.42344 0
0 0.4885 0
0 0.48651 0
0 0.48413 0
0.023601 0.48168 0
0.054365 0.47935 0
0.085654 0.4771 0
0.11779 0.4749 0
0.15077 0.47276 0
0.18441 0.47073 0
0.21853 0.46883 0
0.25307 0.46707 0
0.28802 0.46548 0
0.32331 0.46403 0
0.35885 0.46272 0
0.39449 0.46155 0
0.43009 0.4605 0
0.46562 0.45956 0
0.5011 0.45871 0
0.53651 0.45796 0
0.57184 0.45734 0
0.60707 0.45688 0
0.64218 0.45656 0
0.67715 0.45639 0
0.71197 0.45638 0
0.74661 0.45656 0
0.78104 0.4569 0
0.8153 0.45739 0
0.8495 0.45798 0
0.88372 0.45857 0
0.91784 0.45905 0
0.95172 0.45932 0
0.98563 0.45937 0
1 0.45926 0
0 0.52632 0
0 0.52433 0
0 0.52186 0
0.021827 0.51929 0
0.052747 0.51681 0
0.084092 0.51449 0
0.11627 0.51227 0
0.1493 0.51013 0
0.18302 0.5081 0
0.21722 0.5062 0
0.25183 0.50443 0
0.28684 0.50277 0
0.32218 0.50123 0
0.35776 0.49977 0
0.39347 0.49841 0
0.42915 0.49716 0
0.46474 0.49603 0
0.50026 0.49499 0
0.53574 0.49401 0
0.57116 0.49314 0
0.60651 0.49238 0
0.64175 0.49177 0
0.67686 0.49132 0
0.71187 0.49105 0
0.7467 0.491 0
0.78133 0.49117 0
0.81576 0.49156 0
0.85009 0.49215 0
0.88431 0.49283 0
0.91833 0.49349 0
0.95203 0.49403 0
0.98578 0.4944 0
1 0.49459 0
0 0.56429 0
0 0.56218 0
0 0.5597 0
0.019869 0.55702 0
0.050963 0.55439 0
0.082452 0.55196 0
0.11472 0.54972 0
0.14783 0.54761 0
0.18165 0.54563 0
0.21593 0.54378 0
0.25058 0.54204 0
0.28561 0.54036 0
0.32095 0.53874 0
0.35653 0.53716 0
0.39226 0.53563 0
0.42802 0.53419 0
0.46368 0.53288 0
0.49924 0.53167 0
0.53476 0.53053 0
0.57026 0.52948 0
0.6057 0.52853 0
0.64106 0.5277 0
0.67633 0.52702 0
0.71151 0.52654 0
0.74656 0.52627 0
0.78141 0.52622 0
0.81607 0.52641 0
0.85058 0.52682 0
0.88489 0.52738 0
0.91892 0.52803 0
0.95254 0.52868 0
0.9862 0.52926 0
1 0.52972 0
0 0.60201 0
0 0.59979 0
0 0.59731 0
0.017715 0.5946 0
0.048989 0.59189 0
0.080693 0.58936 0
0.11312 0.58711 0
0.14637 0.58504 0
0.1803 0.58315 0
0.21467 0.58139 0
0.24934 0.57973 0
0.28433 0.57809 0
0.31962 0.57644 0
0.35516 0.57478 0
0.39089 0.57313 0
0.42671 0.57153 0
0.46246 0.57005 0
0.49809 0.56871 0
0.53366 0.56748 0
0.56921 0.56635 0
0.60473 0.5653 0
0.64019 0.56435 0
0.6756 0.56354 0
0.71096 0.56291 0
0.7462 0.56247 0
0.78125 0.56222 0
0.81612 0.56215 0
0.85082 0.56229 0
0.88528 0.5626 0
0.91942 0.56307 0
0.95311 0.56365 0
0.9868 0.5643 0
1 0.56494 0
0 0.63912 0
0 0.63688 0
0 0.63438 0
0.015413 0.63178 0
0.046869 0.6291 0
0.078798 0.62656 0
0.11147 0.62431 0
0.14489 0.62231 0
0.17896 0.62051 0
0.21343 0.61885 0
0.24812 0.61728 0
0.28304 0.61571 0
0.31824 0.61409 0
0.3537 0.61243 0
0.38939 0.61073 0
0.42524 0.60906 0
0.46109 0.60747 0
0.49684 0.60603 0
0.53251 0.60476 0
0.56812 0.60361 0
0.6037 0.60255 0
0.63924 0.60158 0
0.67477 0.60071 0
0.71028 0.59999 0
0.74567 0.59941 0
0.78087 0.59898 0
0.8159 0.5987 0
0.85076 0.59857 0
0.88542 0.59861 0
0.91974 0.59885 0
0.95359 0.59928 0
0.98743 0.59988 0
1 0.60058 0
0 0.6754 0
0 0.67325 0
0 0.67084 0
0.013082 0.6684 0
0.044691 0.66588 0
0.076816 0.66342 0
0.10977 0.66119 0
0.1434 0.65927 0
0.17762 0.65755 0
0.21219 0.65597 0
0.24689 0.65448 0
0.28174 0.65298 0
0.31683 0.65143 0
0.35221 0.64983 0
0.38785 0.64819 0
0.4237 0.64656 0
0.45963 0.64497 0
0.49553 0.64351 0
0.53133 0.64223 0
0.56703 0.64109 0
0.60266 0.64005 0
0.63827 0.63909 0
0.67388 0.63821 0
0.70949 0.63743 0
0.74501 0.63675 0
0.78033 0.63619 0
0.81549 0.63575 0
0.85049 0.63544 0
0.88533 0.6353 0
0.91986 0.63536 0
0.95396 0.63565 0
0.98802 0.63617 0
1 0.63691 0
0 0.71101 0
0 0.70891 0
0 0.70667 0
0.010861 0.7044 0
0.042546 0.70212 0
0.074811 0.69982 0
0.108 0.69766 0
0.14189 0.69578 0
0.17626 0.69413 0
0.21091 0.69262 0
0.24563 0.69119 0
0.28042 0.68977 0
0.31542 0.68831 0
0.35074 0.68681 0
0.38635 0.68531 0
0.42218 0.68381 0
0.45817 0.68233 0
0.49419 0.68094 0
0.53013 0.67968 0
0.56592 0.67855 0
0.60161 0.67752 0
0.63727 0.67655 0
0.67295 0.67565 0
0.70863 0.67482 0
0.74424 0.67408 0
0.77967 0.67343 0
0.81494 0.6729 0
0.85009 0.6725 0
0.88513 0.67227 0
0.91989 0.67226 0
0.95427 0.67251 0
0.98855 0.67299 0
1 0.67377 0
0 0.74602 0
0 0.74415 0
0 0.74201 0
0.0087414 0.73992 0
0.040501 0.73784 0
0.07282 0.73573 0
0.10617 0.73367 0
0.14031 0.73179 0
0.17485 0.73015 0
0.20959 0.72867 0
0.24435 0.72729 0
0.27911 0.72596 0
0.31404 0.72461 0
0.3493 0.72325 0
0.3849 0.72188 0
0.42074 0.72055 0
0.45675 0.71923 0
0.49285 0.71796 0
0.5289 0.71676 0
0.56478 0.71564 0
0.60053 0.71461 0
0.63623 0.71363 0
0.67195 0.7127 0
0.70769 0.71182 0
0.74338 0.71102 0
0.77893 0.71032 0
0.81432 0.70973 0
0.84964 0.70928 0
0.88492 0.70905 0
0.91995 0.70909 0
0.95462 0.70938 0
0.98919 0.70995 0
1 0.71059 0
0 0.78035 0
0 0.77907 0
0 0.77707 0
0.0067118 0.77509 0
0.03856 0.77312 0
0.070873 0.77118 0
0.1043 0.76923 0
0.1386 0.76736 0
0.17335 0.76569 0
0.2082 0.7642 0
0.24303 0.76282 0
0.27779 0.76152 0
0.31268 0.76026 0
0.34792 0.75901 0
0.38352 0.75777 0
0.41938 0.75656 0
0.4554 0.75539 0
0.49154 0.75424 0
0.52764 0.75311 0
0.5636 0.75202 0
0.59941 0.75099 0
0.63516 0.75003 0
0.6709 0.7491 0
0.70668 0.74821 0
0.74247 0.74739 0
0.77812 0.74665 0
0.81365 0.74602 0
0.84918 0.74557 0
0.88476 0.74538 0
0.92009 0.74549 0
0.95504 0.74587 0
0.9898 0.74649 0
1 0.74681 0
0 0.81398 0
0 0.81334 0
0 0.8118 0
0.0047625 0.80983 0
0.036629 0.80797 0
0.068978 0.8061 0
0.10239 0.80426 0
0.13679 0.80244 0
0.17173 0.80073 0
0.20672 0.79921 0
0.24163 0.79782 0
0.27644 0.79653 0
0.31134 0.79531 0
0.34656 0.79412 0
0.38218 0.79296 0
0.41807 0.79184 0
0.45412 0.79078 0
0.49025 0.78973 0
0.52637 0.78866 0
0.56238 0.78759 0
0.59827 0.78658 0
0.63408 0.78564 0
0.66987 0.78477 0
0.70569 0.78396 0
0.74155 0.7832 0
0.7773 0.7825 0
0.81298 0.78191 0
0.84878 0.7815 0
0.88468 0.78136 0
0.92033 0.78152 0
0.95555 0.78192 0
0.99016 0.78239 0
1 0.78228 0
0 0.847 0
0 0.84646 0
0 0.8456 0
0.0026777 0.84391 0
0.034724 0.84203 0
0.06709 0.84026 0
0.10047 0.83853 0
0.1349 0.83679 0
0.16997 0.83511 0
0.20516 0.83358 0
0.24016 0.83222 0
0.27506 0.83097 0
0.31 0.82981 0
0.34523 0.8287 0
0.38086 0.82762 0
0.41681 0.82659 0
0.4529 0.82562 0
0.48902 0.82467 0
0.52512 0.82369 0
0.56116 0.82267 0
0.59713 0.82169 0
0.63305 0.82079 0
0.66893 0.82 0
0.70484 0.81932 0
0.74076 0.81873 0
0.77659 0.81818 0
0.81242 0.81773 0
0.84849 0.81744 0
0.88466 0.81736 0
0.92052 0.81746 0
0.95594 0.81779 0
0.99011 0.81791 0
1 0.81744 0
0 0.87898 0
0 0.87845 0
0 0.87782 0
0.00072417 0.87669 0
0.032747 0.87494 0
0.065237 0.87322 0
0.098635 0.87163 0
0.13301 0.87004 0
0.16817 0.86846 0
0.20354 0.86698 0
0.23872 0.8657 0
0.27372 0.86458 0
0.30873 0.86356 0
0.34398 0.86261 0
0.37963 0.8617 0
0.41563 0.86083 0
0.45179 0.86002 0
0.48792 0.85924 0
0.52399 0.85844 0
0.56002 0.85759 0
0.59606 0.85674 0
0.6321 0.85594 0
0.66814 0.85527 0
0.7042 0.85476 0
0.74022 0.85438 0
0.77612 0.85407 0
0.8121 0.85384 0
0.84832 0.8537 0
0.88465 0.85366 0
0.92065 0.85369 0
0.95597 0.85378 0
0.9896 0.85345 0
1 0.85284 0
0 0.90946 0
0 0.90892 0
0 0.90832 0
0 0.90766 0
0.030727 0.90634 0
0.063458 0.90464 0
0.096926 0.90321 0
0.13127 0.90185 0
0.16643 0.90047 0
0.20195 0.89915 0
0.23737 0.89798 0
0.27252 0.89703 0
0.30763 0.89624 0
0.34294 0.89555 0
0.37861 0.8949 0
0.41465 0.89427 0
0.45087 0.8937 0
0.48704 0.89318 0
0.52309 0.89266 0
0.55911 0.8921 0
0.59518 0.89151 0
0.63133 0.89095 0
0.66756 0.89049 0
0.70381 0.89021 0
0.73996 0.89008 0
0.77596 0.89006 0
0.81201 0.89008 0
0.84828 0.8901 0
0.88454 0.89003 0
0.92063 0.89 0
0.95557 0.88979 0
0.98875 0.88908 0
1 0.88839 0
0 0.93921 0
0 0.93804 0
0 0.93723 0
0 0.93661 0
0.029117 0.93587 0
0.06158 0.93452 0
0.095408 0.93314 0
0.1298 0.93199 0
0.16491 0.93089 0
