a - Ai/luts/black-01.cube
LUT_3D_SIZE 5
0 0 0
0.24044 0 0
0.49571 0 0
0.74873 0.00031873 5.4206e-005
1 0.00038128 0
0 0.24151 0
0.2451 0.24558 0
0.49876 0.24822 0
0.7496 0.24971 0
0.99961 0.24984 0
0 0.49594 0
0.24712 0.49811 0
0.50062 0.50042 0
0.74915 0.49976 0
0.99972 0.49945 0
0 0.7469 0
0.24945 0.74825 0
0.50028 0.74858 0
0.74918 0.749 0
1 0.74969 0.00014474
0.00022436 1 0.00016402
0.25028 1 0
0.4999 0.99981 0
0.74998 0.99977 0
1 0.99989 0.0001736
0 0 0.23956
0.24512 0 0.24307
0.49917 0 0.24656
0.74958 0 0.24941
0.99912 0.00046022 0.25024
0 0.24594 0.24395
0.2464 0.24639 0.24624
0.50011 0.24653 0.24625
0.75098 0.2483 0.24744
1 0.24909 0.24893
0 0.4985 0.24679
0.24617 0.49963 0.24601
0.50146 0.5009 0.24561
0.75103 0.50013 0.24707
1 0.49971 0.24915
0 0.74813 0.24869
0.24809 0.74995 0.24734
0.5012 0.75045 0.24673
0.7506 0.75045 0.24798
1 0.75034 0.24935
0 0.99989 0.2496
0.24885 0.9998 0.24826
0.50082 0.99963 0.24782
0.7509 0.99977 0.24871
0.99999 0.99981 0.24964
0 0 0.49627
0.24707 0 0.49805
0.50052 0 0.49861
0.75152 0 0.49909
0.99989 0 0.49975
0 0.24775 0.49816
0.24616 0.24698 0.49992
0.50035 0.24694 0.50014
0.75239 0.2476 0.49946
1 0.24859 0.50002
0 0.50005 0.49909
0.24607 0.50021 0.50096
0.49956 0.49947 0.49969
0.7527 0.49915 0.49848
1 0.49943 0.49911
0 0.74899 0.49942
0.24721 0.75046 0.50036
0.49977 0.75138 0.49908
0.7518 0.751 0.49728
1 0.75014 0.49805
0 0.99997 0.49947
0.24813 1 0.50015
0.49962 1 0.49897
0.75161 1 0.49756
1 0.99981 0.49798
0 0 0.74667
0.24897 0.001652 0.74941
0.50001 0.00090603 0.75034
0.75058 0 0.74914
1 0 0.74828
0.00051719 0.24866 0.74851
0.24839 0.2485 0.74994
0.49943 0.24849 0.75113
0.75121 0.24872 0.7507
1 0.24897 0.74922
0 0.50005 0.74907
0.24784 0.49935 0.75042
0.49881 0.49888 0.75157
0.7511 0.49797 0.75085
1 0.49824 0.7488
0 0.74946 0.74933
0.24837 0.7505 0.75077
0.49813 0.75047 0.75132
0.75006 0.75006 0.75006
1 0.74928 0.74827
5.8815e-005 1 0.74983
0.24834 0.99978 0.75065
0.4984 0.99983 0.75036
0.75023 1 0.74933
1 1 0.7478
0 0 0.99999
0.25004 0.00026672 1
0.50011 0 0.99982
0.75005 0 1
0.9999 2.862e-005 1
0.00015092 0.25014 1
0.24889 0.24939 0.99949
0.50053 0.24876 0.9995
0.75065 0.24878 0.99988
0.99946 0.24903 0.99923
0 0.49983 0.99986
0.24846 0.49974 0.9994
0.49998 0.50038 1
0.74988 0.49873 1
1 0.49838 0.9998
0 0.7499 1
0.24935 0.75072 0.99977
0.49872 0.75009 1
0.7488 0.74927 1
1 0.74903 1
0.00010447 1 1
0.24892 0.99928 0.9995
0.49878 0.99893 1
0.74891 1 1
1 1 0.99998
