a - Ai/luts/black-01.cube
LUT_3D_SIZE 33
0 0 0
0.023295 0 0
0.052437 0 0
0.082966 0 0
0.11451 0 0
0.14632 0 0
0.17781 0 0
0.20913 0 0
0.24044 0 0
0.27185 0 0
0.30339 0 0
0.33508 0 0
0.36695 0 0
0.39899 0 0
0.43117 0 0
0.46343 0 0
0.49571 0 0
0.52788 0 0.00021717
0.55984 0 0.00038117
0.59163 0 0.00045681
0.62327 0 0.00045069
0.65478 0.00014828 0.0003801
0.68617 0.00025052 0.00027809
0.71746 0.00030506 0.00016452
0.74873 0.00031873 5.4206e-005
0.78001 0.00030974 0
0.81134 0.00029292 0
0.84271 0.00027747 0
0.87413 0.00027603 0
0.9056 0.00028795 0
0.93709 0.0003086 0
0.96857 0.00033987 0
1 0.00038128 0
0 0.023173 0
0.022637 0.022519 0
0.052105 0.022256 0
0.082971 0.022357 0
0.11476 0.022714 0
0.14669 0.023168 0
0.17826 0.023678 0
0.20964 0.024246 0
0.24101 0.024857 0
0.27246 0.025504 0
0.30402 0.026174 0
0.33571 0.026848 0
0.36757 0.027503 0
0.39958 0.028123 0
0.43172 0.028704 0
0.46392 0.029228 0
0.49613 0.029677 0
0.52823 0.030046 1.4022e-005
0.56014 0.030349 0.00019947
0.59188 0.030608 0.00029786
0.62347 0.030818 0.0003138
0.65493 0.030977 0.00026204
0.68626 0.031087 0.00017419
0.71751 0.031156 7.4108e-005
0.74875 0.031191 0
0.78002 0.031206 0
0.81134 0.031214 0
0.84272 0.031229 0
0.87416 0.031252 0
0.90563 0.031274 0
0.93711 0.031293 0
0.9686 0.031312 0
1 0.031326 0
0 0.051898 0
0.022389 0.051605 0
0.052257 0.051773 0
0.083403 0.052266 0
0.1153 0.052888 0
0.14724 0.053504 0
0.17886 0.054119 0
0.21028 0.054771 0
0.24169 0.055465 0
0.27317 0.056191 0
0.30474 0.056932 0
0.33643 0.057669 0
0.36825 0.05838 0
0.40022 0.059047 0
0.4323 0.059655 0
0.46444 0.060188 0
0.49656 0.060641 0
0.52858 0.061013 0
0.56043 0.061322 2.3663e-005
0.59212 0.061576 0.00013922
0.62366 0.061782 0.00017679
0.65507 0.061944 0.00014932
0.68636 0.062064 8.2497e-005
0.71758 0.062155 0
0.74879 0.062219 0
0.78005 0.062269 0
0.81137 0.062317 0
0.84276 0.062364 0
0.87419 0.062403 0
0.90565 0.062428 0
0.93713 0.062437 0
0.9686 0.062431 0
1 0.062412 0
0 0.082053 0
0.022542 0.082151 0
0.05278 0.082659 0
0.084085 0.083376 0
0.11597 0.084092 0
0.14785 0.084715 0
0.17948 0.085297 0
0.21096 0.085919 0
0.24242 0.0866 0
0.27393 0.087331 0
0.3055 0.08808 0
0.33717 0.088826 0
0.36896 0.089548 0
0.40088 0.090219 0
0.43288 0.090818 0
0.46494 0.091335 0
0.49698 0.091771 0
0.52893 0.092135 0
0.56072 0.092441 0
0.59236 0.09269 0
0.62386 0.092898 3.9929e-005
0.65522 0.093071 4.2048e-005
0.68648 0.093212 2.8664e-006
0.71767 0.093325 0
0.74887 0.093422 0
0.78012 0.09351 0
0.81144 0.093591 0
0.84282 0.093661 0
0.87423 0.093709 0
0.90566 0.093731 0
0.93712 0.093721 1.425e-005
0.96857 0.093684 2.7955e-005
0.99998 0.09363 1.0586e-005
0 0.11344 0
0.023025 0.11386 0
0.053512 0.11456 0
0.084834 0.11533 0
0.1166 0.11599 0
0.14839 0.11652 0
0.18004 0.11701 0
0.21158 0.11756 0
0.2431 0.11818 0
0.27465 0.11885 0
0.30624 0.11956 0
0.3379 0.12026 0
0.36966 0.12094 0
0.40151 0.12157 0
0.43344 0.12213 0
0.46542 0.12262 0
0.49739 0.12304 0
0.52927 0.1234 0
0.561 0.1237 0
0.59259 0.12394 0
0.62405 0.12415 0
0.65539 0.12433 0
0.68662 0.12449 0
0.7178 0.12463 0
0.74898 0.12477 0
0.78022 0.12489 0
0.81153 0.125 0
0.84288 0.12507 0
0.87426 0.12511 0
0.90566 0.1251 8.7636e-006
0.93708 0.12506 4.4416e-005
0.96851 0.125 6.2452e-005
0.9999 0.12493 5.1109e-005
0 0.1455 0
0.023691 0.1461 0
0.054276 0.14684 0
0.085512 0.14753 0
0.11713 0.1481 0
0.14884 0.14855 0
0.1805 0.14898 0
0.21213 0.14947 0
0.24372 0.15002 0
0.27531 0.15062 0
0.30691 0.15124 0
0.33857 0.15186 0
0.37028 0.15245 0
0.40208 0.15301 0
0.43395 0.15351 0
0.46587 0.15396 0
0.49777 0.15436 0
0.5296 0.1547 0
0.56128 0.155 0
0.59283 0.15525 0
0.62426 0.15546 0
0.65557 0.15565 0
0.68679 0.15582 0
0.71795 0.15599 0
0.74913 0.15615 0
0.78035 0.1563 0
0.81162 0.15642 0
0.84293 0.15648 0
0.87426 0.1565 0
0.90562 0.15646 0
0.93702 0.1564 3.9392e-005
0.96843 0.15632 6.4407e-005
0.99981 0.15623 6.5759e-005
0 0.17765 0
0.024385 0.17828 0
0.054976 0.17896 0
0.08611 0.17959 0
0.11761 0.18012 0
0.14926 0.18057 0
0.18094 0.18101 0
0.21262 0.18147 0
0.24426 0.18196 0
0.27587 0.18246 0
0.30748 0.18298 0
0.33913 0.18349 0
0.37082 0.18399 0
0.40258 0.18446 0
0.43441 0.1849 0
0.46628 0.1853 0
0.49814 0.18566 0
0.52992 0.18598 0
0.56155 0.18626 0
0.59306 0.1865 0
0.62447 0.18672 0
0.65576 0.18691 0
0.68696 0.18709 0
0.71813 0.18727 0
0.7493 0.18745 0
0.78049 0.1876 0
0.81171 0.1877 0
0.84296 0.18775 0
0.87424 0.18775 0
0.90557 0.18772 0
0.93694 0.18766 0
0.96834 0.18759 1.882e-005
0.99971 0.1875 3.8956e-005
0 0.20964 0
0.025032 0.21023 0
0.055614 0.21086 0
0.086675 0.21146 0
0.11809 0.21201 0
0.14971 0.2125 0
0.18139 0.21297 0
0.21307 0.21341 0
0.24471 0.21384 0
0.27633 0.21426 0
0.30794 0.21467 0
0.33958 0.21507 0
0.37126 0.21548 0
0.40301 0.21588 0
0.43481 0.21626 0
0.46665 0.21662 0
0.49847 0.21694 0
0.5302 0.21722 0
0.56181 0.21747 0
0.59329 0.2177 0
0.62467 0.21791 0
0.65595 0.2181 0
0.68715 0.21828 0
0.71831 0.21846 0
0.74946 0.21862 0
0.78061 0.21875 0
0.81178 0.21883 0
0.84298 0.21887 0
0.87422 0.21887 0
0.90553 0.21884 0
0.93689 0.2188 0
0.96827 0.21876 0
0.99964 0.21871 0
0 0.24151 0
0.025625 0.24207 0
0.056218 0.24267 0
0.087244 0.24327 0
0.11862 0.24383 0
0.15018 0.24434 0
0.18182 0.2448 0
0.21347 0.24521 0
0.2451 0.24558 0
0.2767 0.24593 0
0.30831 0.24626 0
0.33995 0.24659 0
0.37164 0.24692 0
0.40338 0.24727 0
0.43517 0.24761 0
0.46698 0.24793 0
0.49876 0.24822 0
0.53046 0.24848 0
0.56204 0.24872 0
0.59351 0.24892 0
0.62486 0.2491 0
0.65612 0.24927 0
0.68732 0.24943 0
0.71847 0.24957 0
0.7496 0.24971 0
0.78071 0.24981 0
0.81183 0.24987 0
0.84299 0.2499 0
0.87421 0.24991 0
0.9055 0.2499 0
0.93685 0.24989 0
0.96824 0.24987 0
0.99961 0.24984 0
0 0.27335 0
0.026189 0.27388 0
0.056807 0.27447 0
0.087814 0.27506 0
0.11914 0.27561 0
0.15065 0.27611 0
0.18223 0.27653 0
0.21383 0.2769 0
0.24542 0.27721 0
0.27701 0.2775 0
0.30861 0.27778 0
0.34025 0.27807 0
0.37196 0.27836 0
0.40371 0.27866 0
0.4355 0.27897 0
0.46729 0.27927 0
0.49904 0.27955 0
0.53071 0.27981 0
0.56226 0.28003 0
0.59369 0.28022 0
0.62502 0.28038 0
0.65627 0.28051 0
0.68745 0.28062 0
0.71859 0.28071 0
0.74969 0.28078 0
0.78077 0.28084 0
0.81187 0.28088 0
0.84301 0.28091 0
0.87422 0.28093 0
0.9055 0.28094 0
0.93685 0.28094 0
0.96823 0.28095 0
0.9996 0.28095 0
0 0.30519 0
0.026732 0.3057 0
0.057376 0.30626 0
0.088366 0.30682 0
0.11964 0.30735 0
0.15108 0.30781 0
0.1826 0.3082 0
0.21414 0.30853 0
0.2457 0.3088 0
0.27727 0.30905 0
0.30888 0.3093 0
0.34053 0.30955 0
0.37224 0.30982 0
0.40401 0.3101 0
0.4358 0.31039 0
0.46758 0.31069 0
0.49931 0.31097 0
0.53095 0.31122 0
0.56246 0.31144 0
0.59386 0.31162 0
0.62515 0.31175 0
0.65637 0.31184 0
0.68752 0.3119 0
0.71864 0.31194 0
0.74973 0.31195 0
0.7808 0.31195 0
0.81188 0.31195 0
0.84302 0.31195 0
0.87423 0.31196 0
0.90551 0.31197 0
0.93686 0.31199 0
0.96824 0.31201 0
0.99961 0.31203 0
0 0.33703 0
0.027251 0.33752 0
0.057913 0.33805 0
0.088885 0.33857 0
0.12011 0.33906 0
0.15148 0.33948 0
0.18293 0.33983 0
0.21442 0.34012 0
0.24594 0.34038 0
0.27751 0.34061 0
0.30912 0.34084 0
0.34078 0.34107 0
0.37251 0.34133 0
0.4043 0.34161 0
0.43611 0.34191 0
0.46788 0.34222 0
0.49959 0.34251 0
0.53118 0.34276 0
0.56265 0.34296 0
0.594 0.34311 0
0.62524 0.3432 0
0.65642 0.34325 0
0.68755 0.34326 0
0.71864 0.34325 0
0.74971 0.34322 0
0.78077 0.34317 0
0.81186 0.34313 0
0.843 0.34309 0
0.87422 0.34307 0
0.90552 0.34306 0
0.93687 0.34307 0
0.96826 0.34308 0
0.99963 0.3431 0
0 0.36887 0
0.027736 0.36932 0
0.058411 0.36981 0
0.089363 0.37029 0
0.12053 0.37073 0
0.15184 0.37111 0
0.18324 0.37143 0
0.21468 0.37171 0
0.24618 0.37196 0
0.27773 0.37218 0
0.30934 0.3724 0
0.34102 0.37263 0
0.37279 0.37289 0
0.40461 0.3732 0
0.43643 0.37353 0
0.46819 0.37385 0
0.49986 0.37414 0
0.5314 0.37437 0
0.56281 0.37455 0
0.59409 0.37465 0
0.62529 0.3747 0
0.65642 0.3747 0
0.68752 0.37466 0
0.71859 0.37461 0
0.74964 0.37453 0
0.7807 0.37445 0
0.8118 0.37437 0
0.84296 0.37431 0
0.87419 0.37426 0
0.9055 0.37424 0
0.93687 0.37423 0
0.96827 0.37422 0
0.99965 0.37423 0
0 0.40066 0
0.028181 0.40108 0
0.058868 0.40153 0
0.089797 0.40196 0
0.12092 0.40236 0
0.15218 0.40271 0
0.18352 0.40302 0
0.21493 0.40328 0
0.24641 0.40352 0
0.27795 0.40374 0
0.30956 0.40397 0
0.34128 0.40422 0
0.37309 0.40452 0
0.40495 0.40486 0
0.43677 0.40521 0
0.4685 0.40554 0
0.50011 0.40581 0
0.53159 0.40602 0
0.56293 0.40615 0
0.59414 0.40621 0
0.62528 0.40621 0
0.65638 0.40616 0
0.68745 0.40608 0
0.7185 0.40598 0
0.74954 0.40587 0
0.78061 0.40576 0
0.81172 0.40566 0
0.8429 0.40558 0
0.87415 0.40552 0
0.90548 0.40549 0
0.93686 0.40546 0
0.96827 0.40545 0
0.99966 0.40546 0
0 0.43243 0
0.028587 0.43282 0
0.059282 0.43322 0
0.090185 0.43361 0
0.12127 0.43397 0
0.15248 0.43429 0
0.18379 0.43457 0
0.21517 0.43482 0
0.24663 0.43505 0
0.27817 0.43528 0
0.30982 0.43554 0
0.34157 0.43584 0
0.37344 0.43619 0
0.40531 0.43656 0
0.43712 0.43692 0
0.46879 0.43723 0
0.50033 0.43747 0
0.53174 0.43763 0
0.563 0.43771 0
0.59415 0.43773 0
0.62523 0.43768 0
0.65629 0.43759 0
0.68734 0.43748 0
0.71838 0.43735 0
0.74942 0.43722 0
0.78049 0.4371 0
0.81162 0.43699 0
0.84282 0.4369 0
0.8741 0.43683 0
0.90544 0.43678 0
0.93684 0.43676 0
0.96827 0.43675 0
0.99967 0.43676 0
0 0.46419 0
0.028954 0.46455 0
0.05965 0.46491 0
0.090526 0.46525 0
0.12158 0.46556 0
0.15275 0.46584 0
0.18403 0.4661 0
0.2154 0.46633 0
0.24686 0.46657 0
0.27843 0.46683 0
0.31012 0.46714 0
0.34193 0.4675 0
0.37381 0.46788 0
0.40568 0.46825 0
0.43744 0.46858 0
0.46905 0.46884 0
0.50051 0.46904 0
0.53183 0.46914 0
0.56302 0.46917 0
0.59411 0.46914 0
0.62514 0.46906 0
0.65617 0.46895 0
0.68721 0.46882 0
0.71824 0.46867 0
0.74929 0.46853 0
0.78037 0.46841 0
0.81151 0.46829 0
0.84274 0.4682 0
0.87404 0.46814 0
0.90541 0.4681 0
0.93683 0.46808 0
0.96827 0.46808 0
0.99969 0.4681 0
0 0.49594 0
0.029277 0.49626 0
0.059965 0.49657 0
0.090817 0.49686 0
0.12184 0.49712 0
0.153 0.49737 0
0.18426 0.4976 0
0.21564 0.49784 0
0.24712 0.49811 0
0.27873 0.49841 0
0.31047 0.49876 0
0.34231 0.49915 0
0.37418 0.49953 0
0.406 0.49985 0
0.4377 0.50011 0
0.46924 0.50031 0
0.50062 0.50042 0
0.53187 0.50047 0
0.563 0.50045 0
0.59404 0.50039 0
0.62504 0.5003 0
0.65605 0.50018 0
0.68707 0.50004 0
0.7181 0.4999 0
0.74915 0.49976 0
0.78025 0.49964 0
0.81142 0.49954 0
0.84267 0.49947 0
0.87399 0.49943 0
0.90539 0.49941 0
0.93683 0.49941 0
0.96829 0.49943 0
0.99972 0.49945 0
0 0.52762 0
0.029552 0.52789 0
0.060228 0.52815 0
0.091064 0.52839 0
0.12207 0.52863 0
0.15322 0.52886 0
0.1845 0.52909 0
0.21589 0.52936 0
0.24741 0.52965 0
0.27906 0.52999 0
0.31085 0.53035 0
0.34269 0.53072 0
0.37451 0.53105 0
0.40626 0.5313 0
0.43788 0.53147 0
0.46936 0.53157 0
0.50067 0.53162 0
0.53186 0.53161 0
0.56294 0.53156 0
0.59395 0.53148 0
0.62493 0.53138 0
0.65592 0.53126 0
0.68693 0.53114 0
0.71796 0.53101 0
0.74903 0.53089 0
0.78015 0.5308 0
0.81134 0.53073 0
0.84262 0.53069 0
0.87398 0.53068 0
0.9054 0.53069 0
0.93685 0.53072 0
0.96831 0.53075 0
0.99975 0.53078 0
0 0.55915 0
0.029782 0.55937 0
0.060453 0.5596 0
0.091282 0.55982 0
0.12228 0.56004 0
0.15344 0.56027 0
0.18475 0.56052 0
0.21618 0.56081 0
0.24773 0.56113 0
0.27941 0.56148 0
0.3112 0.56183 0
0.34301 0.56214 0
0.37477 0.56239 0
0.40643 0.56256 0
0.43798 0.56265 0
0.46939 0.56267 0
0.50066 0.56265 0
0.53182 0.5626 0
0.56287 0.56253 0
0.59386 0.56245 0
0.62483 0.56235 0
0.65581 0.56225 0
0.68681 0.56215 0
0.71785 0.56205 0
0.74894 0.56197 0
0.78009 0.56191 0
0.81131 0.56188 0
0.84261 0.56188 0
0.87399 0.5619 0
0.90543 0.56194 0
0.9369 0.56199 0
0.96835 0.56205 0
0.99979 0.56209 0
0 0.59055 0
0.029974 0.59073 0
0.06065 0.59093 0
0.091487 0.59113 0
0.12249 0.59135 0
0.15368 0.59159 0
0.18502 0.59186 0
0.21648 0.59216 0
0.24806 0.59248 0
0.27976 0.59282 0
0.31151 0.59313 0
0.34326 0.59338 0
0.37494 0.59356 0
0.40652 0.59365 0
0.438 0.59368 0
0.46936 0.59364 0
0.50061 0.59358 0
0.53175 0.5935 0
0.56279 0.59343 0
0.59378 0.59335 0
0.62474 0.59328 0
0.65571 0.5932 0
0.68672 0.59313 0
0.71778 0.59308 0
0.74889 0.59304 0
0.78006 0.59303 0
0.81131 0.59304 0
0.84264 0.59308 0
0.87404 0.59313 0
0.90549 0.59319 0
0.93695 0.59325 0
0.96841 0.59331 0
0.99984 0.59337 0
0 0.62185 0
0.030137 0.62201 0
0.060831 0.62218 0
0.091686 0.62238 0
0.12271 0.62259 0
0.15392 0.62282 0
0.1853 0.62309 0
0.21679 0.62339 0
0.2484 0.62371 0
0.28007 0.62402 0
0.31177 0.62429 0
0.34344 0.62447 0
0.37504 0.62458 0
0.40655 0.62462 0
0.43797 0.62461 0
0.4693 0.62455 0
0.50053 0.62446 0
0.53167 0.62438 0
0.56273 0.62431 0
0.59372 0.62426 0
0.62468 0.62421 0
0.65566 0.62418 0
0.68668 0.62415 0
0.71775 0.62414 0
0.74889 0.62415 0
0.78008 0.62417 0
0.81136 0.62422 0
0.8427 0.62429 0
0.87411 0.62436 0
0.90555 0.62444 0
0.93701 0.6245 0
0.96847 0.62456 0
0.9999 0.62463 0
0 0.65312 0
0.030281 0.65325 0
0.060992 0.6534 0
0.091866 0.65357 0
0.12292 0.65376 0
0.15416 0.65399 0
0.18557 0.65424 0
0.2171 0.65454 0
0.24871 0.65484 0
0.28034 0.65512 0
0.31198 0.65533 0
0.34357 0.65547 0
0.3751 0.65554 0
0.40655 0.65555 0
0.43792 0.65551 0
0.46922 0.65544 0
0.50045 0.65537 0
0.5316 0.65529 0
0.56267 0.65524 0
0.59368 0.65521 0
0.62466 0.6552 0
0.65565 0.65521 0
0.68668 0.65524 0
0.71777 0.65527 0
0.74892 0.65531 0
0.78014 0.65536 0
0.81143 0.65543 0
0.84278 0.65552 0
0.87419 0.65561 0
0.90563 0.65569 0
0.93708 0.65576 0
0.96853 0.65583 0
0.99997 0.65589 2.1004e-005
0 0.68437 0
0.030394 0.68447 0
0.061123 0.68459 0
0.092026 0.68474 0
0.12311 0.68491 0
0.1544 0.68512 0
0.18585 0.68538 0
0.2174 0.68566 0
0.24899 0.68593 0
0.28057 0.68617 0
0.31214 0.68635 0
0.34365 0.68646 0
0.37512 0.6865 0
0.40653 0.6865 0
0.43787 0.68646 0
0.46916 0.6864 0
0.50038 0.68634 0
0.53154 0.68628 0
0.56264 0.68624 0
0.59368 0.68623 0
0.62469 0.68626 0
0.65569 0.68631 0
0.68673 0.68637 0
0.71782 0.68644 0
0.74898 0.68651 0
0.78021 0.68659 0
0.81151 0.68668 0
0.84287 0.68677 0
0.87428 0.68687 0
0.90571 0.68696 0
0.93715 0.68703 0
0.96859 0.68709 8.653e-006
1 0.68715 7.0307e-005
0 0.71562 0
0.030478 0.7157 0
0.061234 0.71579 0
0.092171 0.71592 0
0.1233 0.71609 0
0.15462 0.71631 0
0.1861 0.71655 0
0.21766 0.7168 0
0.24923 0.71705 0
0.28077 0.71726 0
0.31227 0.71741 0
0.34372 0.7175 0
0.37513 0.71754 0
0.40651 0.71753 0
0.43783 0.7175 0
0.4691 0.71746 0
0.50032 0.71741 0
0.5315 0.71736 0
0.56262 0.71734 0
0.59369 0.71734 0
0.62474 0.71739 0
0.65576 0.71746 0
0.68681 0.71755 0
0.7179 0.71764 0
0.74907 0.71774 0
0.7803 0.71784 0
0.81161 0.71795 0
0.84297 0.71805 0
0.87437 0.71815 0
0.90579 0.71824 0
0.93722 0.71831 0
0.96865 0.71837 4.8202e-005
1 0.71842 0.0001122
0 0.7469 0
0.030541 0.74696 0
0.061333 0.74705 0
0.092313 0.74718 0
0.12349 0.74736 0
0.15484 0.74757 0
0.18634 0.7478 0
0.2179 0.74803 0
0.24945 0.74825 0
0.28094 0.74844 0
0.31238 0.74858 0
0.34377 0.74865 0
0.37514 0.74869 0
0.40649 0.74869 0
0.4378 0.74867 0
0.46906 0.74863 0
0.50028 0.74858 0
0.53147 0.74854 0
0.56261 0.74852 0
0.59372 0.74853 0
0.6248 0.74858 0
0.65585 0.74865 0
0.68691 0.74875 0
0.71801 0.74887 0
0.74918 0.749 0
0.78042 0.74912 0
0.81172 0.74924 0
0.84308 0.74935 0
0.87446 0.74945 0
0.90587 0.74953 0
0.93728 0.74959 0
0.9687 0.74965 7.8665e-005
1 0.74969 0.00014474
0 0.77824 0
0.030595 0.77829 0
0.061432 0.77838 0
0.092465 0.77853 0
0.12368 0.77871 0
0.15506 0.77893 0
0.18657 0.77915 0
0.21812 0.77937 0
0.24965 0.77957 0
0.28109 0.77974 0
0.31247 0.77986 0
0.34382 0.77993 0
0.37516 0.77996 0
0.40648 0.77997 0
0.43777 0.77994 0
0.46901 0.7799 0
0.50023 0.77985 0
0.53143 0.77981 0
0.56261 0.77979 0
0.59374 0.77979 0
0.62485 0.77983 0
0.65594 0.7799 0
0.68703 0.78001 0
0.71815 0.78014 0
0.74932 0.78028 0
0.78055 0.78042 0
0.81184 0.78055 0
0.84318 0.78066 0
0.87455 0.78075 0
0.90594 0.78083 0
0.93733 0.78088 2.6457e-005
0.96874 0.78093 0.00010328
1 0.78095 0.00017072
0 0.80967 0
0.030651 0.80972 0
0.061545 0.80982 0
0.092629 0.80998 0
0.12388 0.81018 0
0.15528 0.8104 0
0.18678 0.81062 0
0.21832 0.81082 0
0.24982 0.811 0
0.28122 0.81115 0
0.31256 0.81126 0
0.34387 0.81132 0
0.37517 0.81135 0
0.40646 0.81134 0
0.43772 0.81131 0
0.46896 0.81125 0
0.50018 0.8112 0
0.5314 0.81115 0
0.56259 0.81113 0
0.59376 0.81112 0
0.6249 0.81115 0
0.65603 0.81121 0
0.68715 0.81132 0
0.71829 0.81145 0
0.74946 0.81159 0
0.78069 0.81173 0
0.81196 0.81186 0
0.84328 0.81197 0
0.87463 0.81206 0
0.906 0.81212 0
0.93738 0.81217 5.8854e-005
0.96877 0.81221 0.00013167
1 0.81223 0.0001968
0 0.84119 0
0.030722 0.84126 0
0.061674 0.84138 0
0.092806 0.84155 0
0.12409 0.84176 0
0.15549 0.84197 0
0.18698 0.84218 0
0.2185 0.84237 0
0.24997 0.84253 0
