a - Ai/luts/black-02.cube
LUT_3D_SIZE 9
0 0 0
0.1089 0 0
0.23521 0 0
0.36118 0 0
0.49112 0 0
0.62045 0 0
0.74733 0 0
0.87377 0.00020984 0
1 0.00022515 0
0 0.10687 0
0.1113 0.10976 0
0.23791 0.11207 0
0.36453 0.11538 0
0.49451 0.11932 0
0.62294 0.12247 0
0.74846 0.12434 0
0.87388 0.12498 9.0051e-005
0.9999 0.12469 1.3712e-005
0 0.23625 0
0.11341 0.23859 0
0.23989 0.24044 0
0.36807 0.24294 0
0.49795 0.24612 0
0.62521 0.24839 0
0.74959 0.24949 0
0.87388 0.24979 0
0.99915 0.24947 0
0 0.36416 0
0.11582 0.36687 0
0.24197 0.36947 0
0.37102 0.37222 0
0.50032 0.3746 0
0.62599 0.37538 0
0.74945 0.37492 0
0.87363 0.37422 0
0.99921 0.37414 0
0 0.49226 0
0.11863 0.49497 0
0.24467 0.49762 0
0.3735 0.50017 0
0.50128 0.50149 0
0.62541 0.50112 0
0.74844 0.50004 0
0.87315 0.49929 0
0.99938 0.49927 0
0 0.61867 0
0.12077 0.62036 0
0.24721 0.62265 0
0.37517 0.6245 0
0.50117 0.62458 0
0.62464 0.62411 0
0.74784 0.6239 0
0.87317 0.6242 0
0.99969 0.62453 2.1332e-005
0 0.74385 3.4545e-005
0.12249 0.74503 0
0.24924 0.74678 0
0.37564 0.74768 0
0.50076 0.74754 0
0.62473 0.74749 0
0.7484 0.7482 0
0.87379 0.74911 8.5089e-005
0.99997 0.74953 0.00040958
1.4969e-005 0.87093 7.6217e-005
0.12398 0.87201 0.00015632
0.25034 0.87305 9.5331e-005
0.37568 0.8733 0
0.50045 0.87308 0
0.625 0.87295 0
0.7494 0.87347 0
0.87445 0.87423 0.00010754
1 0.87455 0.00034394
0.000415 1 0.00018829
0.12461 1 6.7333e-005
0.25045 1 0
0.37551 0.99985 0
0.50026 0.99972 0
0.62495 0.99967 0
0.74983 0.99964 0
0.8749 0.99987 0
1 0.99997 2.5332e-005
0 0 0.10799
0.1116 0 0.10891
0.23905 0 0.112
0.36468 0 0.1161
0.49362 0 0.12006
0.62115 0 0.1223
0.74765 0 0.12325
0.87385 0.00038011 0.12387
0.9993 0.000702 0.12321
0 0.11086 0.11023
0.11318 0.11288 0.11184
0.24113 0.11327 0.11366
0.36785 0.11533 0.11633
0.49704 0.11845 0.11921
0.62398 0.12159 0.12101
0.7492 0.12372 0.12224
0.87426 0.12458 0.12332
0.99927 0.12461 0.12325
0 0.2397 0.11409
0.11366 0.24176 0.11425
0.24174 0.24245 0.11545
0.36992 0.24342 0.11672
0.49988 0.24554 0.11842
0.62616 0.24728 0.11962
0.75035 0.24825 0.12077
0.87458 0.24868 0.122
0.99919 0.24903 0.12254
0 0.36649 0.1168
0.11574 0.3694 0.1162
0.24262 0.37136 0.1162
0.37188 0.37332 0.11664
0.50132 0.37477 0.11751
0.62667 0.37502 0.11853
0.75024 0.37441 0.11983
0.87473 0.37396 0.12147
0.9997 0.37412 0.12249
0 0.49427 0.11942
0.11824 0.49698 0.1183
0.24473 0.49921 0.11754
0.37367 0.50126 0.11718
0.50177 0.50214 0.11758
0.62596 0.5016 0.1184
0.74925 0.50064 0.11985
0.8744 0.49995 0.12178
0.99982 0.49973 0.12295
0 0.61977 0.1213
0.1203 0.62168 0.12015
0.24687 0.62387 0.11909
0.37492 0.62535 0.1183
0.50145 0.6253 0.11846
0.62533 0.625 0.11929
0.74888 0.62498 0.12073
0.87415 0.62506 0.12236
0.99967 0.62498 0.1231
0 0.74463 0.12263
0.12219 0.7462 0.12186
0.24852 0.74785 0.12068
0.37544 0.74865 0.11981
0.50124 0.74883 0.12012
0.62541 0.74885 0.12103
0.74922 0.74931 0.12222
0.8743 0.74969 0.12319
0.99986 0.74991 0.12352
0 0.87177 0.12395
0.12354 0.87285 0.12332
0.24959 0.87367 0.12209
0.37561 0.87395 0.12127
0.50117 0.87389 0.12179
0.62557 0.87381 0.12268
0.74975 0.8741 0.12348
0.87461 0.8746 0.12407
1 0.87484 0.12422
0.00033505 1 0.12447
0.12386 0.99979 0.12364
0.24989 0.99959 0.12256
0.37543 0.99952 0.1218
0.50111 0.99936 0.12233
0.62548 0.9994 0.12329
0.75009 0.99939 0.12403
0.87507 0.99974 0.12458
0.99992 0.99975 0.12468
0 0 0.23314
0.11406 0 0.23578
0.2415 0 0.23763
0.3687 0 0.24019
0.49711 0 0.24346
0.62334 0 0.24625
0.74917 0 0.24856
0.87393 0 0.24962
0.99828 0.00061451 0.24938
0 0.11499 0.23665
0.1153 0.11612 0.23996
0.24224 0.11626 0.24131
0.37006 0.11693 0.24262
0.49904 0.11847 0.24421
0.62545 0.12044 0.24555
0.75078 0.12203 0.2471
0.87492 0.12307 0.24836
0.99886 0.12376 0.24867
0 0.24202 0.239
0.11532 0.24274 0.24161
0.24222 0.24239 0.24254
0.37124 0.24299 0.24322
0.50094 0.24469 0.24416
0.62704 0.24618 0.24482
0.75174 0.24709 0.24579
0.87569 0.24774 0.2471
0.9995 0.24855 0.24787
0 0.36922 0.24126
0.11586 0.37089 0.24259
0.24251 0.37178 0.24262
0.37247 0.37274 0.24249
0.50217 0.37359 0.24283
0.6278 0.37396 0.24359
0.75206 0.37392 0.24505
0.87639 0.37413 0.24696
1 0.37461 0.24793
0 0.49689 0.24398
0.11728 0.49888 0.24413
0.24364 0.50041 0.2431
0.37354 0.50172 0.24198
0.50229 0.5021 0.24172
0.62725 0.50134 0.24235
0.75162 0.50056 0.24428
0.87647 0.50004 0.24679
1 0.49986 0.24811
0 0.62152 0.24612
0.11907 0.62341 0.24555
0.24533 0.62529 0.24395
0.37423 0.62651 0.24236
0.50183 0.6264 0.2417
0.62673 0.62627 0.24235
0.751 0.62598 0.24425
0.87591 0.62537 0.2465
1 0.62495 0.24787
0 0.74627 0.24784
0.12089 0.74791 0.24699
0.24694 0.74954 0.24523
0.37472 0.75062 0.2438
0.50176 0.75079 0.24325
0.62669 0.7507 0.24377
0.75074 0.75076 0.24519
0.87547 0.75061 0.24692
0.99996 0.75046 0.24791
0 0.87307 0.24924
0.12222 0.87403 0.24837
0.24804 0.87494 0.24673
0.37516 0.87538 0.24568
0.50159 0.87536 0.24505
0.62657 0.87507 0.24535
0.75089 0.87509 0.24641
0.87551 0.87545 0.24775
0.9999 0.87559 0.24841
1.111e-005 0.99984 0.24969
0.12264 0.99964 0.24891
0.24853 0.99974 0.24745
0.37515 0.99981 0.24661
0.50139 0.99975 0.24613
0.62634 0.99963 0.24619
0.75114 0.99963 0.2472
0.87587 0.99986 0.24836
0.9999 0.99993 0.24894
0 0 0.36291
0.11647 0 0.36534
0.24301 0 0.36704
0.37102 0 0.36875
0.49936 0 0.3702
0.62568 0 0.3717
0.7509 0 0.37329
0.87456 0 0.37428
0.99845 0.00019364 0.37507
0 0.11765 0.3655
0.11743 0.11834 0.36798
0.24322 0.11838 0.36946
0.37134 0.11833 0.37054
0.50027 0.11912 0.37128
0.62679 0.1203 0.37227
0.75195 0.12117 0.37326
0.87572 0.12204 0.37387
0.99933 0.12296 0.37464
0 0.24384 0.3671
0.11725 0.24398 0.36973
0.2427 0.24315 0.37106
0.37188 0.24325 0.3716
0.50153 0.2441 0.37144
0.62785 0.24524 0.37181
0.75284 0.24622 0.37276
0.87673 0.24727 0.37364
1 0.24831 0.37448
0 0.37169 0.36915
0.117 0.37258 0.37151
0.24236 0.37251 0.37238
0.3719 0.37215 0.37193
0.50227 0.37243 0.37112
0.62858 0.37249 0.37071
0.75374 0.37284 0.37161
0.87788 0.37365 0.37292
1 0.37441 0.37397
0 0.49907 0.3712
0.11756 0.50006 0.37287
0.24249 0.50077 0.37274
0.37226 0.50164 0.37181
0.50154 0.50104 0.37001
0.62804 0.49997 0.36895
0.7539 0.49944 0.37008
0.87837 0.49923 0.3717
1 0.49943 0.37314
0 0.62322 0.37271
0.11844 0.62425 0.3734
0.24379 0.62573 0.37265
0.37259 0.62684 0.37127
0.50085 0.62693 0.36924
0.6275 0.62675 0.36816
0.75316 0.62606 0.36916
0.87784 0.62517 0.3709
1 0.62459 0.37257
0 0.74755 0.37372
0.11979 0.7489 0.37366
0.24557 0.75062 0.37289
0.37329 0.75208 0.3717
0.50087 0.75231 0.36992
0.62714 0.75208 0.36876
0.75243 0.75165 0.36934
0.87715 0.7511 0.37084
1 0.75058 0.37227
0 0.87379 0.37428
0.12118 0.87473 0.37403
0.247 0.87577 0.37343
0.37401 0.8766 0.37258
0.50058 0.8767 0.37095
0.62676 0.87627 0.36972
0.75211 0.87605 0.36997
0.87684 0.87598 0.37113
1 0.87588 0.3723
0 0.99986 0.37454
0.1218 0.99985 0.37434
0.24752 1 0.37375
0.3744 1 0.37317
0.50034 1 0.37175
0.62654 1 0.37064
0.75214 1 0.37077
0.87679 1 0.3715
1 1 0.3724
0 0 0.49301
0.11822 0 0.49493
0.24446 0 0.4966
0.37199 0 0.49777
0.49982 0 0.49779
0.62675 0 0.4978
0.75168 0 0.49812
0.87532 0 0.49843
0.99962 0.00019851 0.49942
0 0.11907 0.49475
0.11913 0.12012 0.49704
0.2445 0.12028 0.49881
0.37173 0.11972 0.49963
0.50022 0.11987 0.49918
0.62736 0.12038 0.49864
0.75253 0.12118 0.49867
0.87632 0.12225 0.49904
1 0.12304 0.49973
0 0.2451 0.49589
0.11937 0.24558 0.49875
0.24389 0.245 0.50088
0.37158 0.24459 0.50141
0.50053 0.24456 0.50028
0.62799 0.24492 0.49897
0.75363 0.24574 0.4988
0.87749 0.24696 0.49926
1 0.24801 0.4999
0 0.37356 0.49724
0.11903 0.37388 0.50001
0.24308 0.37303 0.50196
0.37119 0.37239 0.50235
0.50047 0.3722 0.50079
0.62801 0.37143 0.49888
0.7545 0.37143 0.49824
0.87872 0.37225 0.49841
1 0.37334 0.49898
0 0.50029 0.49844
0.11866 0.50042 0.5003
0.24258 0.5003 0.50157
0.37099 0.50033 0.50133
0.49912 0.49915 0.49932
0.62747 0.4984 0.49777
0.75462 0.49805 0.49699
0.87944 0.49802 0.49702
1 0.49848 0.49774
0 0.62396 0.49891
0.11892 0.62431 0.50015
0.24317 0.62535 0.50072
0.37093 0.62629 0.49997
0.49875 0.62675 0.49829
0.62677 0.62639 0.49668
0.75386 0.62534 0.49575
0.87919 0.62439 0.49593
1 0.62401 0.49694
0 0.74798 0.49926
0.12007 0.74886 0.50018
0.24488 0.75076 0.50047
0.3719 0.75242 0.49961
0.49884 0.75288 0.49808
0.62602 0.75251 0.4962
0.75284 0.75176 0.49507
0.87831 0.75092 0.49504
1 0.75015 0.49622
0 0.87391 0.49941
0.12136 0.87471 0.49998
0.24663 0.87592 0.50041
0.37278 0.87698 0.49957
0.49869 0.87717 0.49805
0.62558 0.87691 0.49629
0.75231 0.87668 0.49522
0.87769 0.87633 0.49497
1 0.87594 0.49585
0 1 0.49942
0.122 1 0.49993
0.24729 1 0.50048
0.37333 1 0.49972
0.4986 1 0.49824
0.6255 1 0.49668
0.75214 1 0.49566
0.87742 1 0.49537
1 1 0.49596
0 0 0.61877
0.12016 0 0.62095
0.24603 0 0.62326
0.37232 0 0.62441
0.49937 0 0.62434
0.62626 0 0.62352
0.75138 0 0.62249
0.8757 0 0.62213
1 0.00038231 0.62266
0 0.12051 0.62069
0.12128 0.122 0.62311
0.24596 0.12238 0.6253
0.37186 0.12174 0.6264
0.49926 0.12127 0.62603
0.62635 0.12117 0.62472
0.75208 0.12179 0.62336
0.87662 0.12292 0.62276
1 0.12364 0.62312
0 0.24623 0.62238
0.12199 0.24705 0.62493
0.24548 0.24667 0.62722
0.37133 0.24601 0.62822
0.49902 0.24568 0.62743
0.62664 0.24579 0.62604
0.75308 0.24634 0.62465
0.87761 0.2472 0.6237
1 0.2478 0.62358
0 0.37456 0.6235
0.12137 0.37407 0.62565
0.2446 0.3728 0.62775
0.37085 0.3722 0.62864
0.49873 0.37172 0.62787
0.6266 0.3711 0.62672
0.7535 0.37095 0.6253
0.87835 0.37132 0.62383
1 0.37218 0.62308
0 0.50055 0.62379
0.12027 0.49999 0.62512
0.24372 0.49933 0.62685
0.3703 0.49871 0.62763
0.49777 0.4979 0.62719
0.62625 0.49743 0.62635
0.75337 0.49692 0.62481
0.87889 0.49687 0.62309
1 0.49759 0.62215
0 0.62408 0.62371
0.12012 0.62424 0.6248
0.24375 0.62494 0.6263
0.3703 0.62572 0.62687
0.49743 0.62609 0.62643
0.62525 0.62519 0.62525
0.75265 0.62403 0.62366
0.87888 0.6233 0.6221
1 0.62333 0.62148
0 0.74843 0.62402
0.12111 0.74914 0.62515
0.24509 0.75079 0.62646
0.37108 0.75204 0.62654
0.49723 0.75229 0.62561
0.62427 0.75189 0.62407
0.7516 0.7512 0.62241
0.87809 0.75022 0.62111
1 0.74939 0.62082
0 0.87403 0.62457
0.12245 0.87462 0.62554
0.24654 0.87586 0.62647
0.37164 0.87673 0.62595
0.49714 0.87685 0.62478
0.62405 0.87687 0.62342
0.75113 0.87683 0.62188
0.87725 0.87649 0.62065
1 0.87574 0.6203
0 1 0.62475
0.12311 1 0.62551
0.24729 1 0.62641
0.37204 1 0.62561
0.49721 1 0.62442
0.62415 1 0.62327
0.75108 1 0.62196
0.87691 1 0.62083
1 1 0.6203
0 0 0.74318
0.12275 0.00018704 0.74569
0.24782 0.0005427 0.74804
0.37302 0.0002971 0.7494
0.49911 0.00025802 0.74981
0.62517 1.8985e-005 0.74935
0.75037 0 0.74838
0.87547 8.3474e-005 0.74763
1 0.00030367 0.74733
0 0.12258 0.7452
0.12356 0.12384 0.74713
0.2476 0.12399 0.74893
0.37257 0.12336 0.75016
0.49865 0.12257 0.75054
0.62515 0.12236 0.75016
0.75094 0.12306 0.74936
0.87605 0.12406 0.7484
1 0.12435 0.74767
0.00055695 0.24792 0.74738
0.12406 0.24852 0.74877
0.24708 0.24798 0.75021
0.37167 0.24703 0.75111
0.4983 0.24665 0.75139
0.62569 0.24695 0.75121
0.75187 0.24753 0.75064
0.87659 0.248 0.74957
1 0.24802 0.74834
0.000934 0.37499 0.7485
0.12323 0.37396 0.74955
0.24606 0.37264 0.75086
0.37118 0.3721 0.75172
0.49816 0.37174 0.75199
0.62582 0.37136 0.75189
0.75204 0.37111 0.75116
0.87677 0.37112 0.74978
1 0.37147 0.74819
0.00031407 0.5003 0.74834
0.12178 0.49938 0.74919
0.24523 0.49857 0.7506
0.37084 0.49818 0.75183
0.49775 0.49787 0.75258
0.62527 0.49726 0.75245
0.75165 0.49647 0.75131
0.87697 0.49627 0.74957
1 0.497 0.74766
0 0.62418 0.74829
0.12162 0.62439 0.74912
0.24521 0.62517 0.75061
0.37082 0.62565 0.75209
0.49717 0.62537 0.75274
0.62399 0.62413 0.75239
0.75098 0.62294 0.75107
0.87713 0.62256 0.7493
1 0.62294 0.74739
0.00015622 0.74901 0.74875
0.1226 0.74971 0.74958
0.24621 0.75103 0.75103
0.37099 0.75158 0.75198
0.49648 0.75141 0.752
0.6228 0.75082 0.75141
0.75011 0.75006 0.75008
0.87682 0.74935 0.74869
1 0.74894 0.74727
0.00023499 0.87454 0.74929
0.12373 0.87504 0.75008
0.247 0.87583 0.75113
0.37102 0.87601 0.75137
0.49636 0.87601 0.75113
0.62265 0.87625 0.75045
0.74966 0.87633 0.74903
0.87618 0.87604 0.74781
1 0.87526 0.74675
8.5781e-005 1 0.74974
0.1243 1 0.75044
0.2472 1 0.75097
0.37116 1 0.75058
0.49656 1 0.75021
0.62299 1 0.74973
0.74981 1 0.74857
0.87584 1 0.74739
1 1 0.74634
0 0 0.8703
0.12484 0.0007174 0.87216
0.2492 0.00060605 0.87337
0.37382 0.00030689 0.87412
0.49925 0.00030295 0.87449
0.62482 0.00025548 0.87462
0.74987 0.00028171 0.87463
0.87497 0.00031388 0.87448
1 0.00025903 0.87395
0.00035108 0.12443 0.87157
0.12492 0.12492 0.87236
0.24869 0.12454 0.87313
0.37333 0.12363 0.87369
0.4991 0.123 0.87435
0.62514 0.12317 0.87493
0.7505 0.12416 0.87515
0.87534 0.12505 0.87503
1 0.12486 0.87418
0.0010574 0.24962 0.87317
0.1248 0.24968 0.87316
0.24779 0.24874 0.87334
0.37234 0.24771 0.87374
0.49894 0.24727 0.87468
0.62588 0.24755 0.87553
0.75147 0.248 0.87569
0.87555 0.24827 0.87524
0.99949 0.24813 0.87412
0.0010443 0.37522 0.87395
0.12388 0.37423 0.87382
0.24673 0.37308 0.87388
0.37175 0.37259 0.8743
0.49879 0.37237 0.87521
0.6258 0.3719 0.8759
0.75133 0.3713 0.87581
0.87554 0.37094 0.8751
0.99964 0.37117 0.87403
0.00039096 0.50005 0.87391
0.12257 0.49914 0.8739
0.24628 0.49866 0.87437
0.37195 0.49902 0.87536
0.49843 0.49905 0.87646
0.62486 0.49816 0.87686
0.75046 0.4969 0.87633
0.87548 0.49639 0.87533
1 0.49682 0.87413
0 0.62451 0.87402
0.12242 0.62478 0.87409
0.24676 0.62564 0.87496
0.37213 0.626 0.87641
0.49763 0.62535 0.87747
0.62341 0.62402 0.87763
0.74957 0.62284 0.87687
0.87551 0.62253 0.87573
1 0.62294 0.87432
8.5478e-005 0.74944 0.87443
0.1235 0.75012 0.87458
0.24746 0.75129 0.87534
0.37175 0.75131 0.87649
0.49664 0.75062 0.87724
0.62224 0.74982 0.87731
0.74888 0.7491 0.8767
0.8755 0.74872 0.87569
1 0.74876 0.87437
0.00028762 0.87493 0.87461
0.12445 0.87536 0.87474
0.24783 0.8757 0.87532
0.3713 0.87537 0.87617
0.49631 0.87517 0.8766
0.62196 0.87538 0.87649
0.74849 0.87543 0.8759
0.87513 0.87512 0.87504
1 0.87456 0.87397
0.000222 1 0.87472
0.12468 1 0.87469
0.24751 0.99976 0.87487
0.37103 0.99941 0.87547
0.49656 0.99959 0.87579
0.62249 1 0.87576
0.74871 1 0.8752
0.87478 1 0.87424
1 1 0.87331
0.0002146 0 1
0.12542 0.00034905 1
0.24951 5.2587e-005 1
0.37393 0 0.99979
0.49932 0 0.99957
0.62503 0 0.9996
0.75013 0.0001285 0.99997
0.87503 0.00028606 1
0.99998 0.0001288 1
0.00064623 0.1252 1
0.12511 0.12502 1
0.24876 0.12413 0.99962
0.37353 0.12316 0.99913
0.49966 0.12304 0.99914
0.62562 0.1237 0.99956
0.75074 0.12458 0.99993
0.87514 0.12499 1
0.99905 0.1244 0.99952
0.00067439 0.25036 1
0.12442 0.24992 0.99979
0.2476 0.24876 0.99899
0.37287 0.24783 0.99882
0.50002 0.24764 0.99945
0.62636 0.24794 1
0.75122 0.24809 1
0.87486 0.24796 0.99951
0.99838 0.24779 0.99872
0.00044989 0.37522 1
0.12337 0.37438 0.99941
0.2466 0.37341 0.99874
0.37251 0.37322 0.999
0.49991 0.37312 1
0.62613 0.37255 1
0.75077 0.37172 1
0.87468 0.37117 0.99964
0.99868 0.37145 0.99882
0 0.49992 0.99991
0.12241 0.49925 0.99924
0.24671 0.49938 0.99918
0.37302 0.50033 0.99998
0.49938 0.50033 1
0.62486 0.49903 1
0.7497 0.49758 1
0.8746 0.49707 1
0.99932 0.49738 0.99965
0 0.62481 0.99987
0.1226 0.6252 0.9995
0.24769 0.62623 0.99991
0.3733 0.62661 1
0.49826 0.62582 1
0.62324 0.62429 1
0.7488 0.62316 1
0.87466 0.62289 1
0.99999 0.62337 1
0 0.74968 1
0.12365 0.75046 0.99987
0.24824 0.75136 1
0.37283 0.75112 1
0.4971 0.75026 1
0.62207 0.74942 1
0.74815 0.74875 1
0.8748 0.74846 1
1 0.7486 1
8.9402e-006 0.87493 1
0.12448 0.87516 0.99992
0.24837 0.87538 0.99984
0.37226 0.87498 1
0.49663 0.87468 1
0.62177 0.87481 1
0.74784 0.87484 1
0.87448 0.87452 1
1 0.87404 1
6.9029e-006 1 0.99998
0.12434 0.99971 0.99938
0.24804 0.99911 0.99932
0.37192 0.99864 1
0.49697 0.99885 1
0.62233 0.99965 1
0.74799 1 1
0.87402 1 1
1 0.99997 0.99987
