a - Ai/luts/black-02.cube
LUT_3D_SIZE 5
0 0 0
0.23521 0 0
0.49112 0 0
0.74733 0 0
1 0.00022515 0
0 0.23625 0
0.23989 0.24044 0
0.49795 0.24612 0
0.74959 0.24949 0
0.99915 0.24947 0
0 0.49226 0
0.24467 0.49762 0
0.50128 0.50149 0
0.74844 0.50004 0
0.99938 0.49927 0
0 0.74385 3.4545e-005
0.24924 0.74678 0
0.50076 0.74754 0
0.7484 0.7482 0
0.99997 0.74953 0.00040958
0.000415 1 0.00018829
0.25045 1 0
0.50026 0.99972 0
0.74983 0.99964 0
1 0.99997 2.5332e-005
0 0 0.23314
0.2415 0 0.23763
0.49711 0 0.24346
0.74917 0 0.24856
0.99828 0.00061451 0.24938
0 0.24202 0.239
0.24222 0.24239 0.24254
0.50094 0.24469 0.24416
0.75174 0.24709 0.24579
0.9995 0.24855 0.24787
0 0.49689 0.24398
0.24364 0.50041 0.2431
0.50229 0.5021 0.24172
0.75162 0.50056 0.24428
1 0.49986 0.24811
0 0.74627 0.24784
0.24694 0.74954 0.24523
0.50176 0.75079 0.24325
0.75074 0.75076 0.24519
0.99996 0.75046 0.24791
1.111e-005 0.99984 0.24969
0.24853 0.99974 0.24745
0.50139 0.99975 0.24613
0.75114 0.99963 0.2472
0.9999 0.99993 0.24894
0 0 0.49301
0.24446 0 0.4966
0.49982 0 0.49779
0.75168 0 0.49812
0.99962 0.00019851 0.49942
0 0.2451 0.49589
0.24389 0.245 0.50088
0.50053 0.24456 0.50028
0.75363 0.24574 0.4988
1 0.24801 0.4999
0 0.50029 0.49844
0.24258 0.5003 0.50157
0.49912 0.49915 0.49932
0.75462 0.49805 0.49699
1 0.49848 0.49774
0 0.74798 0.49926
0.24488 0.75076 0.50047
0.49884 0.75288 0.49808
0.75284 0.75176 0.49507
1 0.75015 0.49622
0 1 0.49942
0.24729 1 0.50048
0.4986 1 0.49824
0.75214 1 0.49566
1 1 0.49596
0 0 0.74318
0.24782 0.0005427 0.74804
0.49911 0.00025802 0.74981
0.75037 0 0.74838
1 0.00030367 0.74733
0.00055695 0.24792 0.74738
0.24708 0.24798 0.75021
0.4983 0.24665 0.75139
0.75187 0.24753 0.75064
1 0.24802 0.74834
0.00031407 0.5003 0.74834
0.24523 0.49857 0.7506
0.49775 0.49787 0.75258
0.75165 0.49647 0.75131
1 0.497 0.74766
0.00015622 0.74901 0.74875
0.24621 0.75103 0.75103
0.49648 0.75141 0.752
0.75011 0.75006 0.75008
1 0.74894 0.74727
8.5781e-005 1 0.74974
0.2472 1 0.75097
0.49656 1 0.75021
0.74981 1 0.74857
1 1 0.74634
0.0002146 0 1
0.24951 5.2587e-005 1
0.49932 0 0.99957
0.75013 0.0001285 0.99997
0.99998 0.0001288 1
0.00067439 0.25036 1
0.2476 0.24876 0.99899
0.50002 0.24764 0.99945
0.75122 0.24809 1
0.99838 0.24779 0.99872
0 0.49992 0.99991
0.24671 0.49938 0.99918
0.49938 0.50033 1
0.7497 0.49758 1
0.99932 0.49738 0.99965
0 0.74968 1
0.24824 0.75136 1
0.4971 0.75026 1
0.74815 0.74875 1
1 0.7486 1
6.9029e-006 1 0.99998
0.24804 0.99911 0.99932
0.49697 0.99885 1
0.74799 1 1
1 0.99997 0.99987
