a - Ai/luts/black-01.cube
LUT_3D_SIZE 9
0 0 0
0.11451 0 0
0.24044 0 0
0.36695 0 0
0.49571 0 0
0.62327 0 0.00045069
0.74873 0.00031873 5.4206e-005
0.87413 0.00027603 0
1 0.00038128 0
0 0.11344 0
0.1166 0.11599 0
0.2431 0.11818 0
0.36966 0.12094 0
0.49739 0.12304 0
0.62405 0.12415 0
0.74898 0.12477 0
0.87426 0.12511 0
0.9999 0.12493 5.1109e-005
0 0.24151 0
0.11862 0.24383 0
0.2451 0.24558 0
0.37164 0.24692 0
0.49876 0.24822 0
0.62486 0.2491 0
0.7496 0.24971 0
0.87421 0.24991 0
0.99961 0.24984 0
0 0.36887 0
0.12053 0.37073 0
0.24618 0.37196 0
0.37279 0.37289 0
0.49986 0.37414 0
0.62529 0.3747 0
0.74964 0.37453 0
0.87419 0.37426 0
0.99965 0.37423 0
0 0.49594 0
0.12184 0.49712 0
0.24712 0.49811 0
0.37418 0.49953 0
0.50062 0.50042 0
0.62504 0.5003 0
0.74915 0.49976 0
0.87399 0.49943 0
0.99972 0.49945 0
0 0.62185 0
0.12271 0.62259 0
0.2484 0.62371 0
0.37504 0.62458 0
0.50053 0.62446 0
0.62468 0.62421 0
0.74889 0.62415 0
0.87411 0.62436 0
0.9999 0.62463 0
0 0.7469 0
0.12349 0.74736 0
0.24945 0.74825 0
0.37514 0.74869 0
0.50028 0.74858 0
0.6248 0.74858 0
0.74918 0.749 0
0.87446 0.74945 0
1 0.74969 0.00014474
0 0.87283 0
0.12429 0.87343 0
0.25009 0.8741 0
0.37515 0.87429 0
0.50007 0.87406 0
0.62496 0.87396 0
0.74973 0.87425 0
0.87477 0.87464 0
1 0.87477 0.00024509
0.00022436 1 0.00016402
0.12471 1 3.2224e-005
0.25028 1 0
0.37498 0.99995 0
0.4999 0.99981 0
0.62492 0.99978 0
0.74998 0.99977 0
0.875 0.99991 1.0203e-005
1 0.99989 0.0001736
0 0 0.11422
0.11654 0 0.11536
0.24321 0 0.11754
0.36948 0 0.1204
0.49729 0 0.12287
0.62338 0 0.12395
0.74868 0 0.12428
0.87427 0.00032611 0.1247
0.99961 0.00063409 0.12448
0 0.1162 0.11577
0.11823 0.11812 0.11756
0.24551 0.11944 0.1192
0.37159 0.121 0.12085
0.49869 0.12216 0.12228
0.62437 0.12325 0.12297
0.7494 0.12424 0.12357
0.87459 0.12476 0.12432
0.9997 0.12484 0.12443
0 0.24402 0.11844
0.11942 0.24602 0.11938
0.24636 0.24669 0.12036
0.37229 0.24684 0.12081
0.49959 0.2474 0.12136
0.62541 0.24829 0.12198
0.75006 0.24895 0.12265
0.87478 0.24921 0.12346
0.99984 0.24945 0.12397
0 0.3705 0.12052
0.12068 0.37204 0.1205
0.24637 0.37247 0.12035
0.37285 0.37296 0.12012
0.50046 0.37411 0.12052
0.6259 0.37451 0.12139
0.75011 0.37431 0.12218
0.87491 0.37418 0.12319
1 0.37431 0.12398
0 0.49716 0.12214
0.12145 0.49806 0.12138
0.24698 0.49887 0.1207
0.37422 0.50022 0.12035
0.50093 0.5008 0.1206
0.62555 0.50043 0.12125
0.74972 0.49999 0.12217
0.87483 0.49974 0.12334
1 0.49965 0.12416
0 0.6224 0.12311
0.12225 0.62317 0.12224
0.24817 0.62431 0.12154
0.37485 0.625 0.12098
0.50069 0.62486 0.12109
0.62524 0.62477 0.12179
0.7496 0.62479 0.12275
0.87474 0.62486 0.12369
1 0.62482 0.12417
0 0.74729 0.12372
0.12322 0.74812 0.12318
0.24901 0.74901 0.12246
0.37497 0.74933 0.12188
0.50061 0.74935 0.1221
0.62536 0.74941 0.12287
0.74978 0.74969 0.12371
0.87483 0.74989 0.12426
1 0.75001 0.12447
0 0.87347 0.12446
0.124 0.87414 0.12412
0.24958 0.87465 0.12335
0.37493 0.87472 0.12273
0.50053 0.87458 0.12305
0.62549 0.87451 0.1238
0.75006 0.87466 0.12436
0.87498 0.8749 0.12474
1 0.87497 0.12486
0.00016314 0.99997 0.12479
0.12425 0.99985 0.12434
0.24978 0.99984 0.12362
0.3747 0.99977 0.12296
0.50048 0.99964 0.12326
0.62545 0.99971 0.124
0.75026 0.99976 0.12458
0.87518 0.99996 0.12498
0.99997 0.99983 0.12508
0 0 0.23956
0.11832 0 0.24159
0.24512 0 0.24307
0.37199 0 0.24472
0.49917 0 0.24656
0.62438 0 0.24802
0.74958 0 0.24941
0.87453 0 0.25027
0.99912 0.00046022 0.25024
0 0.11888 0.24204
0.12008 0.12047 0.24457
0.24642 0.12154 0.24562
0.37255 0.12176 0.2461
0.4995 0.12178 0.24676
0.62504 0.12226 0.24737
0.75045 0.12307 0.24839
0.87514 0.1237 0.24932
0.99959 0.12424 0.24963
0 0.24594 0.24395
0.12082 0.24672 0.24588
0.2464 0.24639 0.24624
0.37236 0.24602 0.24589
0.50011 0.24653 0.24625
0.62595 0.24769 0.24672
0.75098 0.2483 0.24744
0.87561 0.24863 0.24838
1 0.24909 0.24893
0 0.37221 0.24543
0.12071 0.37249 0.24612
0.24583 0.37202 0.24572
0.37282 0.37239 0.24507
0.50136 0.37369 0.24575
0.62659 0.37414 0.24632
0.75118 0.37419 0.24715
0.87601 0.37437 0.24833
1 0.37463 0.24895
0 0.4985 0.24679
0.1207 0.49893 0.24674
0.24617 0.49963 0.24601
0.3742 0.50077 0.24542
0.50146 0.5009 0.24561
0.62634 0.50045 0.24606
0.75103 0.50013 0.24707
0.87604 0.49987 0.24842
1 0.49971 0.24915
0 0.62322 0.24783
0.1215 0.62406 0.2475
0.24727 0.62513 0.24666
0.37451 0.62569 0.24586
0.50118 0.62561 0.24582
0.62619 0.62566 0.24638
0.75073 0.62558 0.24739
0.87564 0.6252 0.24851
1 0.62489 0.24921
0 0.74813 0.24869
0.12255 0.74909 0.24832
0.24809 0.74995 0.24734
0.37466 0.75045 0.24666
0.5012 0.75045 0.24673
0.62623 0.75042 0.24722
0.7506 0.75045 0.24798
0.87541 0.7504 0.24885
1 0.75034 0.24935
0 0.87415 0.24941
0.1233 0.87475 0.24898
0.24864 0.87528 0.24802
0.37473 0.87537 0.24754
0.50103 0.8752 0.24753
0.62616 0.87499 0.24787
0.75069 0.87502 0.24848
0.87547 0.87523 0.2492
1 0.87526 0.24953
0 0.99989 0.2496
0.12356 0.99973 0.24916
0.24885 0.9998 0.24826
0.37458 0.99975 0.24783
0.50082 0.99963 0.24782
0.6261 0.99961 0.24806
0.7509 0.99977 0.24871
0.8756 0.99992 0.24935
0.99999 0.99981 0.24964
0 0 0.36768
0.11996 0 0.36921
0.24625 0 0.37025
0.3734 0 0.37131
0.5003 0 0.37209
0.6258 0 0.37293
0.75087 0 0.37413
0.87507 0 0.37494
0.99922 2.7714e-006 0.37548
0 0.12097 0.36981
0.12148 0.12231 0.37123
0.24676 0.12271 0.37174
0.37304 0.12207 0.37204
0.50005 0.12166 0.37229
0.62598 0.12187 0.37303
0.75136 0.12227 0.37388
0.87575 0.12276 0.3744
0.9999 0.12346 0.37491
0 0.24726 0.37104
0.12169 0.24728 0.37219
0.24595 0.24637 0.37215
0.37246 0.2455 0.37207
0.50065 0.24619 0.37226
0.62662 0.24723 0.37276
0.7518 0.24778 0.37351
0.87632 0.24826 0.3741
1 0.24878 0.37452
0 0.37334 0.37196
0.12095 0.37306 0.37283
0.24504 0.37245 0.37277
0.37302 0.37297 0.37284
0.50167 0.37386 0.37277
0.62701 0.37378 0.37244
0.75218 0.37386 0.373
0.87686 0.3742 0.37372
1 0.37457 0.3742
0 0.49951 0.37281
0.12074 0.49955 0.37348
0.24565 0.50022 0.37354
0.37388 0.5011 0.37344
0.5011 0.50056 0.37253
0.6267 0.50008 0.37178
0.75223 0.49989 0.37239
0.87701 0.49972 0.37326
1 0.49975 0.37398
0 0.62406 0.37351
0.12125 0.62462 0.37387
0.24652 0.6254 0.37362
0.37391 0.62589 0.37307
0.50086 0.62599 0.37212
0.62659 0.62609 0.37149
0.75183 0.62577 0.37201
0.87668 0.6253 0.37303
1 0.62497 0.37398
0 0.74879 0.37403
0.12198 0.74959 0.37402
0.24738 0.75046 0.3737
0.37422 0.75115 0.37326
0.50096 0.75118 0.37247
0.62648 0.75108 0.37184
0.75147 0.75091 0.37215
0.87634 0.75068 0.37307
1 0.75038 0.37388
0 0.87446 0.37428
0.12275 0.87502 0.37415
0.24809 0.87558 0.37389
0.37437 0.87581 0.37359
0.50074 0.87565 0.37289
0.62633 0.87542 0.3723
0.75139 0.87543 0.37252
0.87617 0.87543 0.37324
1 0.87529 0.37387
0 0.99987 0.37435
0.12312 0.99982 0.37429
0.24823 0.99991 0.37395
0.37435 0.99984 0.37371
0.50052 0.99977 0.37313
0.62637 0.99978 0.37268
0.75152 0.99994 0.37289
0.87607 0.99993 0.37335
1 0.99979 0.37382
0 0 0.49627
0.1209 0 0.49724
0.24707 0 0.49805
0.37403 0 0.49864
0.50052 0 0.49861
0.62656 0 0.49875
0.75152 0 0.49909
0.87556 0 0.49925
0.99989 0 0.49975
0 0.12217 0.49772
0.1221 0.12339 0.49865
0.24708 0.12342 0.49922
0.37311 0.12243 0.49946
0.50012 0.12187 0.49924
0.62657 0.12187 0.49912
0.75187 0.12219 0.4993
0.87613 0.12281 0.49953
1 0.1233 0.49985
0 0.24775 0.49816
0.12222 0.24777 0.49915
0.24616 0.24698 0.49992
0.37259 0.24644 0.50049
0.50035 0.24694 0.50014
0.62687 0.24728 0.49947
0.75239 0.2476 0.49946
0.8767 0.24811 0.49977
1 0.24859 0.50002
0 0.37406 0.49856
0.12163 0.37368 0.49961
0.24565 0.37338 0.50076
0.3733 0.37404 0.50169
0.50042 0.3741 0.50072
0.62664 0.37338 0.49959
0.75268 0.37319 0.49925
0.87725 0.37354 0.49938
1 0.37413 0.49965
0 0.50005 0.49909
0.1214 0.49991 0.5
0.24607 0.50021 0.50096
0.37333 0.5002 0.50106
0.49956 0.49947 0.49969
0.62635 0.49924 0.49883
0.7527 0.49915 0.49848
0.87763 0.49915 0.49862
1 0.49943 0.49911
0 0.62441 0.49928
0.12167 0.62468 0.50002
0.24639 0.62517 0.50053
0.37314 0.62555 0.50029
0.4996 0.62591 0.49922
0.6261 0.6259 0.49819
0.7523 0.62536 0.49765
0.87754 0.62488 0.49789
1 0.62468 0.49858
0 0.74899 0.49942
0.12224 0.74949 0.49998
0.24721 0.75046 0.50036
0.37359 0.75123 0.50003
0.49977 0.75138 0.49908
0.62581 0.75126 0.49791
0.7518 0.751 0.49728
0.87709 0.75058 0.49734
1 0.75014 0.49805
0 0.87449 0.49944
0.12293 0.87498 0.49978
0.24802 0.87551 0.50019
0.37383 0.87582 0.49983
0.49967 0.87575 0.49892
0.62573 0.87574 0.49788
0.75163 0.87579 0.49737
0.87673 0.87561 0.49732
1 0.87532 0.49788
0 0.99997 0.49947
0.12326 1 0.49979
0.24813 1 0.50015
0.37386 1 0.4998
0.49962 1 0.49897
0.62589 1 0.49809
0.75161 1 0.49756
0.87651 1 0.49753
1 0.99981 0.49798
0 0 0.62199
0.1219 0.00021725 0.62315
0.24791 0.0010842 0.62439
0.37412 0.00085078 0.62495
0.50026 9.6259e-005 0.62479
0.6264 0 0.62431
0.75136 0 0.62368
0.87564 0 0.62337
1 0 0.62358
0 0.12293 0.62314
0.12297 0.12407 0.62416
0.24777 0.12419 0.62522
0.37321 0.12336 0.62593
0.49967 0.12277 0.62585
0.62608 0.12248 0.62515
0.75161 0.12269 0.62429
0.87623 0.12334 0.62384
1 0.12379 0.62397
0 0.248 0.6237
0.12326 0.24816 0.6247
0.2472 0.24773 0.62599
0.37289 0.24759 0.62693
0.49963 0.2479 0.62679
0.62611 0.24792 0.62607
0.75207 0.24806 0.62521
0.87673 0.24839 0.62456
1 0.24867 0.62447
0 0.37452 0.62414
0.12278 0.374 0.62506
0.24711 0.37374 0.62653
0.37321 0.37392 0.6273
0.49937 0.37347 0.62684
0.62594 0.37296 0.62624
0.75214 0.37283 0.62551
0.87707 0.37303 0.6247
1 0.3736 0.62436
0 0.50019 0.62431
0.1224 0.49992 0.62504
0.24698 0.49972 0.62615
0.37278 0.49931 0.6266
0.49875 0.49882 0.62632
0.62572 0.49863 0.62586
0.75209 0.49831 0.62502
0.87748 0.49832 0.62414
1 0.49881 0.62377
0 0.62446 0.62427
0.12247 0.62465 0.62498
0.24692 0.62501 0.62591
0.37272 0.62535 0.62636
0.4987 0.62563 0.62598
0.62517 0.62522 0.6252
0.75163 0.62455 0.62424
0.87747 0.62407 0.62334
1 0.624 0.62307
0 0.74917 0.62442
0.123 0.74956 0.62515
0.24755 0.75038 0.62606
0.3731 0.75089 0.62623
0.49867 0.75099 0.62555
0.62476 0.75091 0.62454
0.75105 0.75072 0.6235
0.87695 0.75019 0.62263
1 0.74965 0.62247
0 0.87452 0.62467
0.12367 0.87486 0.62529
0.24812 0.87534 0.62592
0.3732 0.87549 0.62573
0.49869 0.87545 0.625
0.62488 0.87562 0.62418
0.75096 0.87584 0.62323
0.87649 0.87575 0.62243
1 0.87532 0.6222
8.694e-006 1 0.62481
0.1239 1 0.62521
0.24823 1 0.62577
0.37319 1 0.62542
0.49879 1 0.62475
0.62507 1 0.62404
0.75105 1 0.62324
0.87632 1 0.62259
1 1 0.62233
0 0 0.74667
0.12335 0.0010647 0.74804
0.24897 0.001652 0.74941
0.37441 0.0014533 0.75016
0.50001 0.00090603 0.75034
0.62567 0.00022821 0.74994
0.75058 0 0.74914
0.87541 0 0.74849
1 0 0.74828
0 0.12378 0.74758
0.12406 0.12466 0.74841
0.24875 0.12466 0.74941
0.37376 0.12401 0.75021
0.49949 0.12351 0.75063
0.62536 0.12334 0.75052
0.75078 0.12368 0.74996
0.87576 0.12421 0.74919
1 0.12442 0.74869
0.00051719 0.24866 0.74851
0.12428 0.24874 0.749
0.24839 0.2485 0.74994
0.37343 0.24836 0.75073
0.49943 0.24849 0.75113
0.62557 0.24851 0.75115
0.75121 0.24872 0.7507
0.87604 0.24892 0.74993
1 0.24897 0.74922
0.00028776 0.37481 0.74911
0.12391 0.37423 0.74965
0.24818 0.37383 0.75053
0.37342 0.37366 0.75104
0.49913 0.37319 0.75126
0.62552 0.37285 0.75129
0.7513 0.37272 0.75081
0.87623 0.37287 0.75002
1 0.37324 0.74923
0 0.50005 0.74907
0.12336 0.49973 0.74963
0.24784 0.49935 0.75042
0.37307 0.49911 0.75106
0.49881 0.49888 0.75157
0.62517 0.49849 0.75155
0.7511 0.49797 0.75085
0.87646 0.4978 0.74982
1 0.49824 0.7488
0 0.62454 0.74907
0.12336 0.62477 0.74962
0.24788 0.62523 0.75049
0.373 0.62546 0.75133
0.49847 0.62528 0.75172
0.6244 0.62459 0.7515
0.7506 0.62385 0.75069
0.87642 0.62347 0.74956
1 0.62351 0.74846
0 0.74946 0.74933
0.12393 0.74987 0.74989
0.24837 0.7505 0.75077
0.37298 0.75061 0.75132
0.49813 0.75047 0.75132
0.62383 0.75034 0.75092
0.75006 0.75006 0.75006
0.87611 0.74966 0.74914
1 0.74928 0.74827
7.3121e-005 0.87478 0.74961
0.12448 0.87499 0.75015
0.24856 0.8752 0.75082
0.37281 0.87497 0.75101
0.49818 0.87495 0.75086
0.62401 0.8753 0.75043
0.74998 0.8756 0.74948
0.87575 0.87557 0.74864
1 0.87513 0.74793
5.8815e-005 1 0.74983
0.12458 0.99998 0.75025
0.24834 0.99978 0.75065
0.37274 0.99967 0.75055
0.4984 0.99983 0.75036
0.62438 1 0.75008
0.75023 1 0.74933
0.87563 1 0.74851
1 1 0.7478
0 0 0.87266
0.12462 0.00093532 0.87371
0.24982 0.001126 0.87447
0.37482 0.00092622 0.87489
0.50006 0.00069154 0.8751
0.62526 0.0004138 0.87509
0.75003 0.0001227 0.87489
0.87496 1.7742e-005 0.87462
1 0 0.87421
0.00017921 0.12458 0.8731
0.12477 0.12488 0.87336
0.24944 0.12459 0.87383
0.37434 0.12396 0.87425
0.49991 0.12364 0.87476
0.62537 0.12382 0.87517
0.75036 0.12438 0.87525
0.87519 0.12485 0.87504
1 0.12486 0.87448
0.0004628 0.24959 0.87393
0.12467 0.24953 0.87381
0.24901 0.24919 0.87403
0.37394 0.24883 0.87431
0.49994 0.24873 0.87489
0.62568 0.24867 0.87543
0.75082 0.24884 0.87547
0.87538 0.24907 0.87514
0.99999 0.24916 0.87453
0.00023446 0.37502 0.87446
0.12437 0.37462 0.87446
0.24853 0.37411 0.87446
0.37368 0.37383 0.87454
0.4996 0.37344 0.87504
0.62554 0.37309 0.87552
0.75083 0.37277 0.87546
0.87557 0.37272 0.87503
1 0.37303 0.8745
0 0.49993 0.87446
0.1238 0.4996 0.87452
0.24835 0.49941 0.87468
0.37368 0.49963 0.87512
0.49932 0.49961 0.87577
0.62496 0.49905 0.87612
0.75036 0.49826 0.87581
0.87557 0.49785 0.87517
1 0.49803 0.87451
0 0.62471 0.87448
0.12383 0.62498 0.87458
0.24869 0.6255 0.87498
0.37377 0.6257 0.87571
0.49881 0.6253 0.87637
0.62409 0.62452 0.8766
0.74971 0.62378 0.87617
0.87539 0.62343 0.87544
1 0.62344 0.8746
4.5164e-005 0.74972 0.87471
0.12445 0.7501 0.87485
0.24902 0.75068 0.87517
0.37348 0.75051 0.87579
0.49829 0.75011 0.87634
0.62345 0.74979 0.87646
0.74928 0.74947 0.87606
0.87526 0.74926 0.87541
1 0.74916 0.87464
0.00021007 0.87497 0.87485
0.12491 0.87516 0.87497
0.24903 0.87514 0.87521
0.37306 0.87473 0.87573
0.49821 0.87459 0.87615
0.62351 0.87492 0.87607
0.74917 0.87517 0.87562
0.87505 0.87507 0.87503
1 0.87472 0.87439
0.00015637 1 0.87486
0.12484 0.99993 0.87493
0.24862 0.99954 0.87504
0.37277 0.99921 0.8755
0.49843 0.99927 0.87581
0.62404 0.9997 0.87577
0.74946 1 0.87533
0.87489 1 0.87465
1 1 0.87405
0 0 0.99999
0.12507 0.00029169 1
0.25004 0.00026672 1
0.37487 3.7835e-005 0.99993
0.50011 0 0.99982
0.62528 0 0.99985
0.75005 0 1
0.87491 0.0001103 1
0.9999 2.862e-005 1
0.0001409 0.12493 0.99996
0.1249 0.12483 0.99985
0.24955 0.12428 0.99967
0.37452 0.12367 0.99941
0.5003 0.12362 0.99944
0.62566 0.1241 0.99967
0.75043 0.12459 0.99989
0.875 0.12478 0.99992
0.99954 0.12462 0.99963
0.00015092 0.25014 1
0.12455 0.24995 0.99991
0.24889 0.24939 0.99949
0.37417 0.24886 0.99924
0.50053 0.24876 0.9995
0.62599 0.24874 0.99987
0.75065 0.24878 0.99988
0.87501 0.24887 0.9996
0.99946 0.24903 0.99923
1.5523e-005 0.37505 1
0.12411 0.37473 0.99973
0.24829 0.37419 0.99926
0.37398 0.3741 0.99923
0.50028 0.37388 0.99978
0.62581 0.37355 1
0.75051 0.37311 1
0.8751 0.37288 0.99971
0.99986 0.37315 0.9993
0 0.49983 0.99986
0.12364 0.49954 0.99951
0.24846 0.49974 0.9994
0.37423 0.50037 0.99974
0.49998 0.50038 1
0.62509 0.49963 1
0.74988 0.49873 1
0.87503 0.49831 1
1 0.49838 0.9998
0 0.62486 0.99982
0.12384 0.6252 0.99956
0.24909 0.62578 0.99971
0.37445 0.62604 1
0.49934 0.62562 1
0.62411 0.62471 1
0.74923 0.62397 1
0.87488 0.62366 1
1 0.62372 1
0 0.7499 1
0.12444 0.75034 0.99979
0.24935 0.75072 0.99977
0.3742 0.7505 1
0.49872 0.75009 1
0.62339 0.74966 1
0.7488 0.74927 1
0.87484 0.74908 1
1 0.74903 1
9.9685e-005 0.875 1
0.12482 0.87509 0.99991
0.24923 0.87505 0.99969
0.37385 0.87467 1
0.49853 0.87451 1
0.62332 0.87472 1
0.74868 0.87489 1
0.87462 0.87476 1
1 0.87442 1
0.00010447 1 1
0.12459 0.99967 0.99964
0.24892 0.99928 0.9995
0.37351 0.9989 1
0.49878 0.99893 1
0.62385 0.99954 1
0.74891 1 1
0.87436 1 1
1 1 0.99998
