a - Ai/luts/black-02.cube
LUT_3D_SIZE 33
0 0 0
0.019892 0 0
0.047695 0 0
0.077504 0 0
0.1089 0 0
0.14095 0 0
0.17267 0 0
0.204 0 0
0.23521 0 0
0.26646 0 0
0.29782 0 0
0.32937 0 0
0.36118 0 0
0.39331 0 0
0.42573 0 0
0.45838 0 0
0.49112 0 0
0.52378 0 0
0.55619 0 0
0.5884 0 0
0.62045 0 0
0.65238 0 0
0.68416 0 0
0.71577 0 0
0.74733 0 0
0.77889 0 0
0.81049 7.077e-005 0
0.84212 0.00016373 0
0.87377 0.00020984 0
0.90543 0.00022371 0
0.93707 0.00021855 0
0.96868 0.00021511 0
1 0.00022515 0
0 0.019724 0
0.018886 0.018721 0
0.047104 0.018242 0
0.077352 0.018257 0
0.10909 0.018621 0
0.14129 0.01911 0
0.17309 0.019645 0
0.2045 0.020235 0
0.23575 0.020856 0
0.26702 0.021492 0
0.2984 0.022136 0
0.32996 0.022783 0
0.3618 0.023448 0
0.39396 0.024138 0
0.42642 0.024866 0
0.4591 0.025621 0
0.49184 0.026375 0
0.52446 0.027093 0
0.55684 0.027771 0
0.589 0.028415 0
0.62101 0.029015 0
0.65289 0.029557 0
0.68458 0.030022 0
0.7161 0.0304 0
0.74759 0.030695 0
0.77909 0.030915 0
0.81062 0.031061 0
0.84219 0.031148 0
0.8738 0.031189 0
0.90543 0.03119 0
0.93706 0.031167 0
0.96867 0.031139 0
1 0.031111 0
0 0.046769 0
0.018413 0.046209 0
0.047174 0.046297 0
0.077798 0.046831 0
0.10969 0.047553 0
0.1419 0.04827 0
0.17375 0.048965 0
0.20519 0.049682 0
0.23647 0.050416 0
0.26775 0.051168 0
0.29914 0.051934 0
0.33072 0.052726 0
0.36259 0.053548 0
0.39479 0.054415 0
0.42729 0.055313 0
0.45997 0.056204 0
0.49267 0.057069 0
0.52524 0.057885 0
0.55756 0.058646 0
0.58968 0.059355 0
0.62163 0.060008 0
0.65342 0.060585 0
0.68502 0.061071 0
0.71646 0.061473 0
0.74786 0.06179 0
0.77928 0.062027 0
0.81075 0.062191 0
0.84226 0.062293 0
0.87382 0.062335 0
0.90542 0.062332 0
0.93703 0.062298 0
0.96862 0.062245 0
1 0.062178 0
0 0.075879 0
0.018463 0.075811 0
0.047732 0.076319 0
0.078584 0.077134 0
0.11049 0.077999 0
0.14263 0.078774 0
0.17446 0.079459 0
0.20592 0.080131 0
0.23723 0.080836 0
0.26854 0.081592 0
0.29996 0.082402 0
0.33159 0.083267 0
0.36352 0.084205 0
0.39576 0.085194 0
0.42826 0.086187 0
0.46091 0.087149 0
0.49358 0.088065 0
0.52608 0.08893 0
0.55834 0.089741 0
0.5904 0.090488 0
0.62228 0.091168 0
0.65398 0.091768 0
0.68548 0.092272 0
0.71683 0.092686 0
0.74815 0.093019 0
0.77949 0.093272 0
0.81089 0.093453 0
0.84235 0.093567 0
0.87385 0.09362 0
0.9054 0.093623 2.7073e-005
0.93697 0.09358 4.368e-005
0.96855 0.093504 1.1168e-005
1 0.093399 0
0 0.10687 0
0.018933 0.10721 0
0.048563 0.10798 0
0.079497 0.1089 0
0.1113 0.10976 0
0.1433 0.11043 0
0.17505 0.11097 0
0.20654 0.11148 0
0.23791 0.11207 0
0.2693 0.11274 0
0.30081 0.11352 0
0.33253 0.11441 0
0.36453 0.11538 0
0.3968 0.11639 0
0.42928 0.1174 0
0.4619 0.11838 0
0.49451 0.11932 0
0.52695 0.12021 0
0.55915 0.12104 0
0.59113 0.12179 0
0.62294 0.12247 0
0.65454 0.12307 0
0.68594 0.12357 0
0.71722 0.12399 0
0.74846 0.12434 0
0.77972 0.12462 0
0.81105 0.12481 0
0.84244 0.12492 4.3034e-005
0.87388 0.12498 9.0051e-005
0.90537 0.12497 0.00012873
0.93691 0.12492 0.00014567
0.96844 0.12483 0.00011515
0.9999 0.12469 1.3712e-005
0 0.13909 0
0.019658 0.1397 0
0.049483 0.14056 0
0.080381 0.14145 0
0.11199 0.14218 0
0.14378 0.14268 0
0.17546 0.14304 0
0.207 0.1434 0
0.23848 0.14386 0
0.26999 0.14446 0
0.30162 0.14518 0
0.33345 0.14602 0
0.36551 0.14695 0
0.39781 0.14791 0
0.43029 0.14888 0
0.46288 0.14983 0
0.49544 0.15075 0
0.52784 0.15163 0
0.55996 0.15245 0
0.59186 0.1532 0
0.62357 0.15387 0
0.65508 0.15444 0
0.68641 0.15492 0
0.71762 0.15535 0
0.74878 0.1557 0
0.77997 0.15599 0
0.81121 0.15619 2.9713e-005
0.84252 0.15631 8.8053e-005
0.87389 0.15636 0.00014097
0.90533 0.15633 0.000182
0.93682 0.15626 0.00019509
0.9683 0.15613 0.0001608
0.99971 0.15595 6.6004e-005
0 0.17168 0
0.020457 0.17236 0
0.050349 0.17317 0
0.081138 0.17394 0
0.11252 0.17454 0
0.14412 0.17493 0
0.17573 0.17523 0
0.20735 0.17554 0
0.23896 0.17595 0
0.27061 0.17649 0
0.30237 0.17716 0
0.3343 0.17794 0
0.36643 0.17879 0
0.39876 0.17968 0
0.43124 0.18059 0
0.46381 0.18149 0
0.49634 0.18236 0
0.52868 0.18319 0
0.56075 0.18397 0
0.59257 0.18468 0
0.62419 0.1853 0
0.6556 0.18584 0
0.68686 0.1863 0
0.718 0.18669 0
0.7491 0.18702 0
0.78021 0.18729 0
0.81137 0.18748 0
0.8426 0.18759 2.0106e-005
0.8739 0.18763 7.9847e-005
0.90527 0.18761 0.00012652
0.9367 0.18752 0.00015033
0.96813 0.18737 0.00012982
0.99949 0.18717 5.3904e-005
0 0.2041 0
0.021191 0.20472 0
0.0511 0.20543 0
0.081769 0.20609 0
0.11296 0.20662 0
0.14443 0.20702 0
0.17602 0.20736 0
0.20771 0.20774 0
0.23942 0.20818 0
0.27118 0.2087 0
0.30305 0.20932 0
0.33508 0.21003 0
0.36728 0.21081 0
0.39964 0.21165 0
0.43213 0.2125 0
0.46469 0.21335 0
0.49718 0.21416 0
0.52947 0.21492 0
0.56147 0.21562 0
0.59321 0.21625 0
0.62474 0.21681 0
0.65607 0.21728 0
0.68726 0.21768 0
0.71834 0.21801 0
0.74938 0.21829 0
0.78042 0.2185 0
0.8115 0.21865 0
0.84266 0.21874 0
0.8739 0.21876 0
0.90521 0.21872 0
0.93658 0.21863 0
0.96796 0.21849 3.0844e-006
0.99929 0.21833 0
0 0.23625 0
0.021825 0.23681 0
0.051752 0.23744 0
0.082335 0.23805 0
0.11341 0.23859 0
0.1448 0.23905 0
0.1764 0.2395 0
0.20812 0.23996 0
0.23989 0.24044 0
0.27173 0.24097 0
0.30368 0.24155 0
0.3358 0.24221 0
0.36807 0.24294 0
0.40048 0.24373 0
0.43298 0.24455 0
0.46551 0.24536 0
0.49795 0.24612 0
0.53017 0.2468 0
0.56209 0.24741 0
0.59377 0.24794 0
0.62521 0.24839 0
0.65646 0.24876 0
0.68758 0.24906 0
0.71861 0.2493 0
0.74959 0.24949 0
0.78057 0.24964 0
0.81159 0.24974 0
0.84269 0.24979 0
0.87388 0.24979 0
0.90514 0.24975 0
0.93647 0.24967 0
0.96783 0.24957 0
0.99915 0.24947 0
0 0.26828 0
0.022397 0.26879 0
0.052358 0.2694 0
0.082898 0.27002 0
0.11391 0.27061 0
0.14527 0.27116 0
0.17687 0.27169 0
0.20859 0.2722 0
0.24038 0.27269 0
0.27226 0.2732 0
0.30429 0.27377 0
0.33649 0.27443 0
0.36883 0.27515 0
0.40128 0.27592 0
0.43379 0.2767 0
0.46629 0.27746 0
0.49866 0.27816 0
0.53078 0.27878 0
0.56263 0.2793 0
0.59422 0.27974 0
0.62557 0.28009 0
0.65674 0.28034 0
0.68779 0.28052 0
0.71876 0.28064 0
0.74971 0.28072 0
0.78066 0.28077 0
0.81164 0.28081 0
0.8427 0.28081 0
0.87384 0.28079 0
0.90508 0.28076 0
0.9364 0.28071 0
0.96775 0.28068 0
0.99908 0.28065 0
0 0.30025 0
0.022954 0.30077 0
0.052974 0.30139 0
0.083504 0.30205 0
0.11449 0.30269 0
0.14583 0.30331 0
0.17739 0.30389 0
0.20907 0.30442 0
0.24086 0.30492 0
0.2728 0.30545 0
0.30491 0.30605 0
0.33718 0.30672 0
0.36957 0.30744 0
0.40205 0.3082 0
0.43455 0.30894 0
0.467 0.30965 0
0.49929 0.31028 0
0.53132 0.31083 0
0.56307 0.31127 0
0.59456 0.31162 0
0.62581 0.31186 0
0.6569 0.31201 0
0.68787 0.31208 0
0.7188 0.31209 0
0.74972 0.31206 0
0.78064 0.31201 0
0.81162 0.31195 0
0.84266 0.31189 0
0.8738 0.31183 0
0.90504 0.31179 0
0.93637 0.31178 0
0.96775 0.31179 0
0.99909 0.31182 0
0 0.33219 0
0.023539 0.33274 0
0.05362 0.3334 0
0.084161 0.33409 0
0.11514 0.33478 0
0.14644 0.33544 0
0.17794 0.33606 0
0.20959 0.33663 0
0.24138 0.33718 0
0.27337 0.33776 0
0.30555 0.3384 0
0.33789 0.33909 0
0.37031 0.33982 0
0.40279 0.34055 0
0.43527 0.34125 0
0.46765 0.3419 0
0.49985 0.34245 0
0.53178 0.34291 0
0.56343 0.34327 0
0.59481 0.34351 0
0.62595 0.34365 0
0.65695 0.3437 0
0.68787 0.34368 0
0.71875 0.34361 0
0.74962 0.3435 0
0.78053 0.34335 0
0.81151 0.34321 0
0.84257 0.34308 0
0.87373 0.34298 0
0.905 0.34292 0
0.93637 0.3429 0
0.96778 0.34292 0
0.99915 0.34297 0
0 0.36416 0
0.024152 0.36474 0
0.054303 0.36542 0
0.084862 0.36614 0
0.11582 0.36687 0
0.14708 0.36756 0
0.17853 0.36822 0
0.21016 0.36884 0
0.24197 0.36947 0
0.274 0.37012 0
0.30623 0.37081 0
0.33859 0.37152 0
0.37102 0.37222 0
0.40348 0.37291 0
0.43592 0.37356 0
0.46822 0.37413 0
0.50032 0.3746 0
0.53215 0.37496 0
0.56368 0.37521 0
0.59494 0.37535 0
0.62599 0.37538 0
0.65692 0.37534 0
0.68778 0.37524 0
0.71862 0.3751 0
0.74945 0.37492 0
0.78035 0.37472 0
0.81134 0.37452 0
0.84242 0.37435 0
0.87363 0.37422 0
0.90495 0.37414 0
0.93636 0.37411 0
0.96781 0.37411 0
0.99921 0.37414 0
0 0.39617 0
0.024789 0.39678 0
0.05501 0.39748 0
0.085585 0.39822 0
0.11653 0.39896 0
0.14776 0.39968 0
0.17918 0.40038 0
0.21079 0.40106 0
0.24262 0.40175 0
0.27468 0.40246 0
0.30692 0.40317 0
0.33928 0.40387 0
0.37169 0.40453 0
0.40412 0.40517 0
0.4365 0.40576 0
0.46871 0.40626 0
0.50069 0.40664 0
0.5324 0.4069 0
0.56382 0.40705 0
0.59497 0.40707 0
0.62594 0.40702 0
0.65681 0.40689 0
0.68763 0.40673 0
0.71842 0.40653 0
0.74923 0.4063 0
0.78012 0.40607 0
0.81113 0.40584 0
0.84226 0.40565 0
0.87351 0.4055 0
0.90488 0.40541 0
0.93634 0.40536 0
0.96782 0.40535 0
0.99925 0.40537 0
0 0.42821 0
0.025449 0.42884 0
0.055732 0.42955 0
0.086316 0.4303 0
0.11725 0.43105 0
0.14846 0.43178 0
0.17986 0.4325 0
0.21148 0.43321 0
0.24331 0.43393 0
0.27538 0.43464 0
0.30761 0.43535 0
0.33994 0.43602 0
0.37232 0.43665 0
0.40472 0.43724 0
0.43702 0.43778 0
0.46912 0.43821 0
0.50097 0.43851 0
0.53255 0.43867 0
0.56385 0.43872 0
0.59491 0.43867 0
0.62581 0.43854 0
0.65663 0.43836 0
0.68741 0.43813 0
0.71818 0.43789 0
0.74898 0.43763 0
0.77987 0.43738 0
0.8109 0.43714 0
0.84207 0.43694 0
0.87338 0.43678 0
0.90481 0.43668 0
0.9363 0.43663 0
0.96782 0.43662 0
0.99929 0.43663 0
0 0.46025 0
0.026124 0.4609 0
0.056452 0.46161 0
0.087042 0.46235 0
0.11796 0.46308 0
0.14915 0.46379 0
0.18055 0.46449 0
0.21217 0.46519 0
0.24401 0.46589 0
0.27606 0.46658 0
0.30828 0.46726 0
0.34057 0.46791 0
0.37292 0.46852 0
0.40526 0.46908 0
0.43748 0.46956 0
0.46945 0.46992 0
0.50116 0.47014 0
0.53262 0.47022 0
0.56381 0.4702 0
0.59479 0.47009 0
0.62562 0.46992 0
0.6564 0.46969 0
0.68715 0.46943 0
0.71791 0.46915 0
0.74871 0.46888 0
0.77962 0.46862 0
0.81068 0.46838 0
0.84189 0.46819 0
0.87325 0.46805 0
0.90473 0.46795 0
0.93628 0.46791 0
0.96783 0.46791 0
0.99933 0.46793 0
0 0.49226 0
0.026795 0.49291 0
0.05715 0.4936 0
0.087736 0.49429 0
0.11863 0.49497 0
0.14981 0.49563 0
0.18121 0.49628 0
0.21283 0.49695 0
0.24467 0.49762 0
0.27672 0.49828 0
0.30893 0.49893 0
0.3412 0.49957 0
0.3735 0.50017 0
0.40576 0.50068 0
0.43786 0.50109 0
0.4697 0.50136 0
0.50128 0.50149 0
0.53262 0.50152 0
0.56372 0.50145 0
0.59463 0.50131 0
0.62541 0.50112 0
0.65614 0.50088 0
0.68687 0.5006 0
0.71762 0.50032 0
0.74844 0.50004 0
0.77937 0.49978 0
0.81047 0.49956 0
0.84173 0.4994 0
0.87315 0.49929 0
0.90468 0.49923 0
0.93627 0.49921 0
0.96786 0.49923 0
0.99938 0.49927 0
0 0.52417 0
0.027434 0.52478 0
0.057795 0.52541 0
0.08837 0.52604 0
0.11924 0.52665 0
0.15041 0.52724 0
0.18183 0.52785 0
0.21346 0.52848 0
0.24532 0.52912 0
0.27736 0.52977 0
0.30956 0.53041 0
0.34181 0.53103 0
0.37404 0.53159 0
0.40618 0.53203 0
0.43815 0.53234 0
0.46986 0.53251 0
0.50133 0.53257 0
0.53258 0.53255 0
0.5636 0.53246 0
0.59445 0.5323 0
0.62519 0.53211 0
0.65588 0.53187 0
0.68659 0.53161 0
0.71734 0.53134 0
0.74818 0.53109 0
0.77915 0.53088 0
0.81029 0.53071 0
0.84161 0.53059 0
0.87309 0.53052 0
0.90466 0.53051 0
0.93629 0.53053 0
0.9679 0.53057 0
0.99944 0.53063 0
0 0.55587 0
0.028005 0.55642 0
0.058366 0.55697 0
0.088931 0.55752 0
0.11979 0.55806 0
0.15096 0.55861 0
0.18241 0.55918 0
0.21408 0.55979 0
0.24595 0.56043 0
0.278 0.56107 0
0.31018 0.56171 0
0.34238 0.56229 0
0.37451 0.56277 0
0.40652 0.56312 0
0.43834 0.56333 0
0.46994 0.56341 0
0.50132 0.56341 0
0.5325 0.56334 0
0.56348 0.56323 0
0.59428 0.56307 0
0.62497 0.56288 0
0.65565 0.56267 0
0.68634 0.56244 0
0.7171 0.56224 0
0.74797 0.56206 0
0.77899 0.56192 0
0.81018 0.56182 0
0.84154 0.56177 0
0.87307 0.56175 0
0.90469 0.56177 0
0.93634 0.56182 0
0.96796 0.56189 0
0.99952 0.56196 0
0 0.58736 0
0.028492 0.58782 0
0.058858 0.58829 0
0.089423 0.58877 0
0.12029 0.58926 0
0.15149 0.58979 0
0.18299 0.59035 0
0.2147 0.59095 0
0.24659 0.59159 0
0.27864 0.59222 0
0.31077 0.59282 0
0.34288 0.59333 0
0.37489 0.59372 0
0.40675 0.59398 0
0.43844 0.5941 0
0.46994 0.59411 0
0.50127 0.59405 0
0.5324 0.59395 0
0.56334 0.59382 0
0.59411 0.59368 0
0.62478 0.59352 0
0.65545 0.59335 0
0.68615 0.59319 0
0.71695 0.59306 0
0.74786 0.59297 0
0.77891 0.59293 0
0.81014 0.59292 0
0.84154 0.59294 0
0.8731 0.59298 0
0.90474 0.59304 0
0.93641 0.5931 0
0.96804 0.59317 0
0.9996 0.59325 0
0 0.61867 0
0.028898 0.61906 0
0.059281 0.61946 0
0.08987 0.61989 0
0.12077 0.62036 0
0.15202 0.62087 0
0.18356 0.62143 0
0.21531 0.62203 0
0.24721 0.62265 0
0.27923 0.62325 0
0.3113 0.62377 0
0.3433 0.6242 0
0.37517 0.6245 0
0.4069 0.62466 0
0.43848 0.62471 0
0.4699 0.62468 0
0.50117 0.62458 0
0.53228 0.62446 0
0.56321 0.62434 0
0.59397 0.62422 0
0.62464 0.62411 0
0.65532 0.62402 0
0.68605 0.62395 0
0.71688 0.62391 0
0.74784 0.6239 0
0.77893 0.62394 0
0.81019 0.62401 0
0.84161 0.6241 0
0.87317 0.6242 0
0.90482 0.62429 0
0.93648 0.62437 0
0.96812 0.62445 0
0.99969 0.62453 2.1332e-005
0 0.6499 0
0.02924 0.65023 0
0.059656 0.65059 0
0.090288 0.65099 0
0.12123 0.65144 0
0.15253 0.65193 0
0.18412 0.65248 0
0.21591 0.65306 0
0.2478 0.65364 0
0.27977 0.65418 0
0.31174 0.65463 0
0.34362 0.65497 0
0.37537 0.65519 0
0.40698 0.65529 0
0.43846 0.65529 0
0.46982 0.65522 0
0.50106 0.65512 0
0.53216 0.655 0
0.5631 0.6549 0
0.59388 0.65482 0
0.62458 0.65477 0
0.65528 0.65476 0
0.68604 0.65478 0
0.7169 0.65482 0
0.74789 0.6549 0
0.77902 0.655 0
0.8103 0.65513 0
0.84173 0.65527 0
0.87329 0.65541 0
0.90492 0.65553 0
0.93657 0.65564 5.4248e-005
0.9682 0.65572 0.00013769
0.99977 0.6558 0.0001678
0 0.68113 0
0.029536 0.68141 0
0.059996 0.68174 0
0.090677 0.68211 0
0.12168 0.68254 0
0.15303 0.68301 0
0.18467 0.68353 0
0.21647 0.68407 0
0.24834 0.6846 0
0.28023 0.68507 0
0.3121 0.68546 0
0.34387 0.68573 0
0.3755 0.68589 0
0.40701 0.68595 0
0.43842 0.68593 0
0.46973 0.68586 0
0.50095 0.68576 0
0.53206 0.68566 0
0.56302 0.68557 0
0.59384 0.68553 0
0.62459 0.68554 0
0.65532 0.6856 0
0.68611 0.6857 0
0.717 0.68581 0
0.74801 0.68595 0
0.77916 0.68611 0
0.81046 0.68628 0
0.8419 0.68647 0
0.87344 0.68664 0
0.90504 0.68678 6.5221e-005
0.93667 0.6869 0.00017935
0.96828 0.68699 0.00025883
0.99985 0.68706 0.0002904
0 0.71243 1.8985e-005
0.029795 0.71268 0
0.060305 0.71298 0
0.091039 0.71332 0
0.1221 0.71372 0
0.1535 0.71417 0
0.18517 0.71465 0
0.21698 0.71514 0
0.24882 0.71562 0
0.28064 0.71604 0
0.31239 0.71637 0
0.34405 0.71658 0
0.37558 0.71669 0
0.40701 0.71673 0
0.43837 0.71671 0
0.46965 0.71664 0
0.50085 0.71656 0
0.53197 0.71647 0
0.56297 0.71641 0
0.59384 0.7164 0
0.62465 0.71645 0
0.65543 0.71655 0
0.68625 0.71669 0
0.71715 0.71686 0
0.74819 0.71705 0
0.77936 0.71725 0
0.81066 0.71746 0
0.84209 0.71767 0
0.87361 0.71787 2.3673e-005
0.90518 0.71803 0.00014924
0.93677 0.71815 0.00025536
0.96835 0.71824 0.00033421
0.99992 0.7183 0.00037307
0 0.74385 3.4545e-005
0.030019 0.74407 0
0.060582 0.74433 0
0.091375 0.74465 0
0.12249 0.74503 0
0.15394 0.74545 0
0.18563 0.7459 0
0.21743 0.74635 0
0.24924 0.74678 0
0.28098 0.74715 0
0.31263 0.74742 0
0.34419 0.74759 0
0.37564 0.74768 0
0.40701 0.7477 0
0.43833 0.74768 0
0.46957 0.74762 0
0.50076 0.74754 0
0.5319 0.74746 0
0.56294 0.74742 0
0.59387 0.74743 0
0.62473 0.74749 0
0.65556 0.74761 0
0.68642 0.74777 0
0.71735 0.74797 0
0.7484 0.7482 0
0.77958 0.74844 0
0.81089 0.74867 0
0.84231 0.7489 0
0.87379 0.74911 8.5089e-005
0.90532 0.74927 0.00019048
0.93687 0.74939 0.00028416
0.96843 0.74947 0.00036192
0.99997 0.74953 0.00040958
0 0.77539 3.8453e-005
0.030209 0.77558 0
0.06083 0.77582 0
0.091692 0.77612 0
0.12287 0.77649 0
0.15436 0.77691 0
0.18606 0.77734 0
0.21784 0.77775 0
0.24961 0.77813 0
0.28127 0.77844 0
0.31283 0.77866 0
0.34429 0.7788 0
0.37568 0.77886 0
0.40701 0.77887 0
0.43828 0.77885 0
0.4695 0.77878 0
0.50068 0.77871 0
0.53183 0.77863 0
0.56291 0.77859 0
0.5939 0.7786 0
0.62482 0.77866 0
0.65571 0.77877 0
0.68662 0.77895 0
0.71758 0.77917 0
0.74865 0.77942 0
0.77983 0.77968 0
0.81113 0.77994 0
0.84252 0.78017 2.212e-005
0.87398 0.78036 0.00012091
0.90546 0.78052 0.00020455
0.93697 0.78063 0.00028225
0.96849 0.78071 0.00035468
1 0.78076 0.00041022
0 0.80707 3.8607e-005
0.030369 0.80724 0
0.061062 0.80747 0
0.092003 0.80777 0
0.12325 0.80814 0
0.15476 0.80855 0
0.18645 0.80896 0
0.21821 0.80932 1.1766e-006
0.24992 0.80964 0
0.28151 0.80989 0
0.31298 0.81007 0
0.34437 0.81018 0
0.3757 0.81022 0
0.40699 0.81022 0
0.43822 0.81018 0
0.46942 0.81011 0
0.5006 0.81003 0
0.53177 0.80997 0
0.56289 0.80993 0
0.59393 0.80992 0
0.6249 0.80996 0
0.65585 0.81007 0
0.68682 0.81024 0
0.71783 0.81046 0
0.74892 0.81072 0
0.7801 0.81098 0
0.81138 0.81123 0
0.84273 0.81145 6.2771e-005
0.87415 0.81163 0.00013801
0.90559 0.81178 0.00020515
0.93706 0.81188 0.00027166
0.96855 0.81195 0.00033578
1 0.812 0.00039274
0 0.83891 4.755e-005
0.030519 0.83907 0
0.061293 0.83931 2.3777e-006
0.092318 0.83961 2.5915e-005
0.12362 0.83999 4.0125e-005
0.15514 0.84038 4.9536e-005
0.18681 0.84074 6.6387e-005
0.21851 0.84104 7.4175e-005
0.25016 0.84129 4.9081e-005
