a - Ai/luts/Film-Degrainer_1-000.cube
LUT_3D_SIZE 5
0 0.0013987 0
0.25376 0.032282 0.00018499
0.50353 0 0.0071294
0.72642 0 0.009187
1 0.0024111 0
0.051883 0.19568 0.0095538
0.24872 0.21314 0.017442
0.48332 0.22029 0
0.72752 0.23164 0
1 0.24427 0
0.053218 0.43966 0.022083
0.2634 0.42834 0.037364
0.53186 0.47635 0.011552
0.75495 0.52773 0.004112
1 0.54422 0
0.0084052 0.81998 0.0011998
0.2745 0.79634 0.016048
0.56237 0.77981 0.015958
0.78358 0.77157 0.026705
1 0.80628 0
0.018916 1 0
0.24953 1 0
0.52571 1 0
0.7835 1 0
1 1 0
0 0.0038247 0.31915
0.24686 0.028708 0.29295
0.49725 0.00053528 0.2668
0.69148 0 0.2183
1 0.024434 0.19678
0.022683 0.19441 0.28453
0.24422 0.22622 0.25198
0.47398 0.19576 0.26368
0.70798 0.19964 0.22783
1 0.22436 0.20487
0.064339 0.43042 0.27463
0.26205 0.43947 0.26065
0.49814 0.48796 0.24307
0.73405 0.54567 0.20312
1 0.53437 0.19602
0.059887 0.78311 0.24538
0.27346 0.7632 0.25876
0.55178 0.77073 0.23521
0.76418 0.7749 0.20427
1 0.80438 0.1725
0.043436 1 0.21142
0.25705 1 0.22358
0.53799 1 0.21107
0.77614 0.99122 0.20004
1 1 0.16467
0 0 0.65915
0.19356 0.0036007 0.61397
0.44091 0.022305 0.52319
0.66236 0.015172 0.48638
0.98368 0.035943 0.44459
0 0.15033 0.61371
0.21345 0.16275 0.58331
0.44899 0.18113 0.51403
0.67021 0.19599 0.48551
1 0.22495 0.43634
0.0124 0.41495 0.56739
0.23608 0.44218 0.51978
0.47143 0.47297 0.48986
0.69681 0.50564 0.46687
1 0.50878 0.42783
0.036096 0.74907 0.55075
0.25797 0.75177 0.51055
0.50398 0.76373 0.47193
0.71893 0.7783 0.41241
1 0.7937 0.3994
0.039257 1 0.50266
0.24553 1 0.48329
0.51023 0.9718 0.44951
0.7319 0.97427 0.38685
1 0.9909 0.35678
0 0 0.86031
0.12717 0 0.8286
0.39192 0.0058144 0.77665
0.64216 0.0048944 0.75921
0.9546 0.015413 0.74791
0 0.10332 0.85193
0.15717 0.1398 0.81399
0.39916 0.16591 0.75961
0.66137 0.19347 0.7354
0.95906 0.2123 0.71984
0 0.38686 0.81488
0.19539 0.4103 0.79797
0.4437 0.45884 0.75039
0.69077 0.50006 0.73992
0.94892 0.4986 0.71071
0.0082512 0.72766 0.79137
0.21694 0.74174 0.77124
0.46895 0.74839 0.72665
0.70769 0.72555 0.73888
0.97455 0.77119 0.69555
0.020208 1 0.77998
0.22521 1 0.76657
0.45131 0.99489 0.71687
0.69141 0.96368 0.69216
1 0.95599 0.6612
0 0 1
0.084115 0 1
0.38518 0 1
0.62873 0 1
0.98857 0 1
0 0.10021 1
0.1117 0.1259 0.99923
0.38519 0.16049 1
0.62632 0.17588 0.99195
0.98215 0.18169 0.98112
0 0.37648 1
0.15497 0.40732 1
0.4268 0.45779 0.99813
0.65969 0.49789 0.96954
0.9433 0.49227 0.95703
0 0.69123 1
0.18956 0.70522 1
0.47315 0.72452 1
0.68979 0.74141 0.99421
0.93014 0.76891 0.97393
0 1 1
0.18705 1 1
0.45405 1 1
0.68962 0.96903 1
0.97468 0.97361 1
