a - Ai/luts/Film-Degrainer_1-000.cube
LUT_3D_SIZE 33
0 0.0013987 0
0.025179 0.0080647 0
0.054428 0.014574 0
0.085572 0.020724 0
0.11866 0.026073 0
0.15297 0.030005 0
0.18749 0.0322 0
0.22117 0.03292 0
0.25376 0.032282 0.00018499
0.28553 0.030545 0.0019524
0.31691 0.027724 0.0033407
0.34816 0.023959 0.0043163
0.37939 0.019471 0.0049699
0.41067 0.014328 0.0054148
0.44182 0.0088152 0.0058814
0.47286 0.003149 0.0064112
0.50353 0 0.0071294
0.53349 0 0.0079199
0.56255 0 0.0086842
0.59075 0 0.0093674
0.61829 0 0.0098777
0.64538 0 0.010288
0.6723 0 0.0104
0.6992 0 0.010052
0.72642 0 0.009187
0.75424 0 0.0077896
0.78275 0 0.0059913
0.81253 0 0.0036979
0.84428 0 0.0011187
0.87875 0 0
0.9167 0 0
0.95808 0 0
1 0.0024111 0
0.0024834 0.020922 0
0.030413 0.027384 0
0.058979 0.033423 0
0.089166 0.038926 0
0.12117 0.043516 0
0.15442 0.046732 0
0.18811 0.048374 0
0.22119 0.048658 0
0.25329 0.047772 0.0014584
0.28464 0.045904 0.0029384
0.31554 0.043177 0.0039624
0.34635 0.039604 0.0045612
0.37718 0.035356 0.0047846
0.40806 0.030544 0.0048085
0.43895 0.025327 0.004889
0.46983 0.019892 0.0051154
0.50047 0.014433 0.0056302
0.53059 0.0092217 0.0063201
0.55989 0.0044632 0.007108
0.58843 0.00028537 0.0078944
0.61641 0 0.0085842
0.64393 0 0.0091763
0.67129 0 0.0094936
0.69866 0 0.0093938
0.72632 0 0.008778
0.75459 0 0.007635
0.78352 0 0.0060611
0.81373 0 0.003944
0.84586 0 0.0014784
0.8807 0.00068142 0
0.91904 0.0058012 0
0.96079 0.012268 0
1 0.020002 0
0.0085353 0.041996 0
0.035851 0.048116 0
0.063518 0.053571 0
0.092618 0.05834 0
0.12345 0.062142 0
0.15563 0.064653 0
0.18854 0.065784 0
0.22105 0.065685 0.0014116
0.25266 0.064605 0.0030563
0.28361 0.062638 0.0042528
0.31413 0.059992 0.0048957
0.34449 0.056697 0.0050735
0.37489 0.052755 0.0048491
0.40536 0.048318 0.004405
0.43598 0.043463 0.0040147
0.46663 0.038418 0.0038649
0.49716 0.033244 0.0040913
0.52737 0.028145 0.004594
0.55687 0.0234 0.0053262
0.58579 0.019127 0.0061573
0.61419 0.015485 0.0070082
0.64221 0.01251 0.0078099
0.67009 0.010303 0.0083427
0.698 0.0089124 0.0084946
0.72623 0.0084227 0.0081425
0.75499 0.0087633 0.0073062
0.78447 0.0099657 0.0059936
0.81514 0.012098 0.0040761
0.84772 0.015189 0.0017421
0.883 0.019358 0
0.92176 0.024781 0
0.96388 0.031543 0
1 0.039388 0
0.015504 0.066111 0
0.041845 0.071729 0
0.068317 0.076525 0
0.096102 0.080528 0
0.12561 0.083558 0
0.1567 0.085446 0.00041483
0.18875 0.086123 0.0019734
0.22062 0.085714 0.0036754
0.2518 0.084426 0.0051236
0.28234 0.082499 0.0060413
0.31252 0.079983 0.0062788
0.34245 0.076996 0.0059683
0.37237 0.073471 0.0052093
0.40241 0.069527 0.0042541
0.43266 0.065244 0.003313
0.46307 0.060693 0.0026624
0.49342 0.056037 0.0024569
0.52358 0.051357 0.0026414
0.55328 0.046775 0.0031936
0.58254 0.042572 0.0039689
0.61141 0.038851 0.0049289
0.63999 0.035714 0.0059333
0.66852 0.033299 0.0067477
0.69714 0.03177 0.0071921
0.72609 0.031125 0.0071481
0.75553 0.031418 0.0066645
0.78567 0.032632 0.0056503
0.81695 0.034837 0.0040041
0.85008 0.038086 0.0018294
0.8859 0.042479 0
0.92517 0.048185 0
0.96767 0.055107 0
1 0.062826 0
0.023482 0.093577 0.00092828
0.048459 0.098528 0.00073486
0.073418 0.10261 0.00087504
0.099616 0.10591 0.0013118
0.12771 0.10838 0.0021038
0.15758 0.10987 0.003292
0.18873 0.11034 0.0048767
0.21992 0.1098 0.0065043
0.25063 0.10846 0.0077673
0.28086 0.10661 0.0083658
0.31068 0.10434 0.0081897
0.34022 0.10171 0.0073301
0.36965 0.098749 0.00598
0.39927 0.09546 0.0044293
0.42915 0.091962 0.0028852
0.45919 0.088293 0.0016014
0.48933 0.084397 0.00076342
0.51934 0.080423 0.00045154
0.54908 0.076464 0.00062017
0.57866 0.072645 0.001173
0.60794 0.069104 0.002119
0.63718 0.065982 0.0032496
0.66648 0.063541 0.0043295
0.69602 0.061888 0.0051407
0.72588 0.06114 0.0055291
0.7562 0.061317 0.0054709
0.78722 0.062444 0.0048329
0.8193 0.064613 0.0035005
0.85317 0.067942 0.001541
0.88965 0.072474 0
0.92951 0.078283 0
0.97233 0.085107 0
1 0.09229 0
0.031879 0.12245 0.0037602
0.055229 0.12665 0.003694
0.078539 0.13007 0.0039005
0.10316 0.13289 0.0044056
0.12978 0.13508 0.0052447
0.15849 0.13656 0.0065114
0.18868 0.13725 0.0081127
0.21912 0.13704 0.0096636
0.24932 0.13603 0.010741
0.27924 0.13442 0.011023
0.30877 0.13246 0.010422
0.33802 0.13024 0.0090128
0.36714 0.12793 0.0070855
0.39638 0.12555 0.0049311
0.42597 0.12306 0.0027153
0.45573 0.12048 0.00073997
0.48553 0.11781 0
0.51531 0.11495 0
0.54504 0.11201 0
0.57474 0.1091 0
0.60437 0.10624 0
0.63415 0.10365 0
0.66429 0.10152 0.0008302
0.69479 0.10001 0.0019571
0.72568 0.099312 0.0027769
0.75699 0.099386 0.0032621
0.789 0.10037 0.0031391
0.82204 0.10241 0.0022034
0.85682 0.10557 0.00052505
0.89412 0.10993 0
0.93454 0.11549 0
0.9775 0.12175 0
1 0.12793 0
0.039623 0.14947 0.0063201
0.061464 0.15303 0.0063807
0.083316 0.15597 0.0066809
0.10655 0.1585 0.0072609
0.13196 0.16068 0.008188
0.15966 0.16244 0.0095399
0.18899 0.16364 0.011184
0.21871 0.16414 0.012669
0.24835 0.16388 0.013527
0.27789 0.16296 0.013467
0.30718 0.16158 0.012457
0.33626 0.15995 0.01059
0.36529 0.15834 0.0081577
0.39448 0.15689 0.0054591
0.4239 0.1556 0.0026911
0.45347 0.1543 6.9258e-005
0.48307 0.15296 0
0.51262 0.15155 0
0.54233 0.15006 0
0.572 0.14847 0
0.60184 0.14685 0
0.63203 0.14533 0
0.66273 0.14402 0
0.69401 0.14308 0
0.72574 0.14265 0
0.75789 0.14278 0
0.79078 0.14368 0.00019922
0.82477 0.14546 0
0.86035 0.14825 0
0.89837 0.15205 0
0.93926 0.15668 0
0.98225 0.1618 0
1 0.16667 0
0.046287 0.17355 0.0082201
0.066901 0.17658 0.0084073
0.087604 0.17919 0.0088037
0.10978 0.18159 0.0094962
0.13427 0.18384 0.010558
0.16119 0.18593 0.012029
0.18983 0.18772 0.013712
0.21896 0.189 0.01513
0.24814 0.18968 0.015768
0.27729 0.18976 0.01538
0.30633 0.18931 0.013965
0.33531 0.18859 0.011673
0.36442 0.18793 0.0088348
0.39375 0.18751 0.0057006
0.42326 0.18733 0.002483
0.45281 0.18735 0
0.48235 0.18743 0
0.51193 0.18756 0
0.54158 0.18773 0
0.57125 0.18776 0
0.60116 0.18774 0
0.63153 0.18765 0
0.66252 0.18756 0
0.69418 0.18755 0
0.72629 0.18767 0
0.75902 0.18806 0
0.79252 0.18891 0
0.82707 0.19039 0
0.86319 0.19257 0
0.90165 0.19544 0
0.9428 0.19889 0
0.98576 0.20262 0
1 0.20592 0
0.051883 0.19568 0.0095538
0.071578 0.19823 0.0099045
0.091436 0.20054 0.010438
0.11284 0.2028 0.011256
0.13664 0.20509 0.012469
0.16297 0.2074 0.014044
0.1911 0.20962 0.015732
0.21984 0.21158 0.017029
0.24872 0.21314 0.017442
0.27759 0.21421 0.016729
0.3064 0.2148 0.014925
0.33539 0.21515 0.012244
0.36468 0.21559 0.0090313
0.39425 0.21635 0.0055267
0.42396 0.21742 0.0019566
0.45368 0.21876 0
0.48332 0.22029 0
0.51307 0.22199 0
0.54278 0.22371 0
0.57246 0.2254 0
0.60242 0.22699 0
0.6328 0.22844 0
0.66377 0.22973 0
0.69538 0.23081 0
0.72752 0.23164 0
0.76038 0.23242 0
0.79404 0.2333 0
0.82877 0.23439 0
0.86507 0.23585 0
0.90372 0.23779 0
0.94501 0.24014 0
0.98792 0.24251 0
1 0.24427 0
0.056507 0.21767 0.010928
0.075537 0.21971 0.011445
0.094817 0.22165 0.012139
0.11568 0.22367 0.013109
0.13899 0.22585 0.014445
0.16487 0.22821 0.016072
0.19267 0.23064 0.017696
0.22122 0.23306 0.018822
0.24993 0.2353 0.018967
0.27864 0.23719 0.017914
0.30734 0.23874 0.015724
0.33639 0.24018 0.012678
0.36592 0.24175 0.0091034
0.39581 0.24366 0.0052937
0.42584 0.24598 0.0014068
0.45583 0.24865 0
0.48577 0.25163 0
0.5157 0.25487 0
0.54547 0.25809 0
0.57524 0.26123 0
0.60516 0.26426 0
0.63543 0.26707 0
0.66621 0.26954 0
0.69748 0.27158 0
0.72933 0.27317 0
0.76182 0.27433 0
0.79525 0.27518 0
0.82983 0.27594 0
0.86615 0.27685 0
0.90481 0.27804 0
0.94613 0.27936 0
0.98869 0.28037 0
1 0.28065 0
0.060117 0.24139 0.012951
0.078713 0.24284 0.013645
0.097647 0.24428 0.014508
0.11818 0.24588 0.015628
0.14117 0.24774 0.017056
0.16679 0.24986 0.018697
0.19442 0.25229 0.020215
0.22294 0.25491 0.021103
0.25164 0.25756 0.020947
0.28027 0.26007 0.019547
0.30902 0.26244 0.016968
0.33822 0.26489 0.013577
0.36804 0.26757 0.0096464
0.3983 0.27063 0.0055536
0.42874 0.27414 0.0013899
0.45909 0.2781 0
0.48942 0.28243 0
0.51959 0.287 0
0.54944 0.29164 0
0.5792 0.29615 0
0.60907 0.30044 0
0.63912 0.30439 0
0.6695 0.30787 0
0.70024 0.31068 0
0.7315 0.31282 0
0.76339 0.31427 0
0.79626 0.3152 0
0.83051 0.31577 0
0.86665 0.31629 0
0.90515 0.31675 0
0.94621 0.31704 0
0.98835 0.31682 0
1 0.31586 0
0.062513 0.26798 0.015622
0.080859 0.26875 0.016537
0.099638 0.26956 0.017604
0.12007 0.27053 0.018876
0.14299 0.2718 0.020405
0.16854 0.27349 0.022077
0.19625 0.27565 0.023523
0.22489 0.27823 0.0242
0.2537 0.28104 0.023744
0.28244 0.28395 0.022019
0.31139 0.28702 0.019106
0.34088 0.29039 0.015388
0.37109 0.29419 0.011163
0.40176 0.29843 0.0068024
0.43263 0.30315 0.002425
0.46347 0.30833 0
0.4942 0.31391 0
0.52462 0.31966 0
0.5546 0.32544 0
0.58436 0.33113 0
0.61405 0.33656 0
0.6438 0.34155 0
0.67362 0.34593 0
0.70359 0.34949 0
0.73401 0.35212 0
0.76513 0.35391 0
0.79728 0.35499 0
0.83097 0.35555 0
0.86665 0.35569 0
0.90476 0.35552 0
0.94539 0.35497 0
0.987 0.35367 0
1 0.35159 0
0.063254 0.29787 0.018419
0.081616 0.29781 0.019589
0.10046 0.29784 0.020905
0.12099 0.29806 0.02238
0.14408 0.29857 0.024064
0.1699 0.29954 0.025833
0.19789 0.30116 0.027262
0.22687 0.30338 0.027821
0.25596 0.30609 0.027146
0.28502 0.30915 0.025153
0.3144 0.31273 0.022001
0.34442 0.31694 0.018056
0.37512 0.32179 0.013655
0.40632 0.3272 0.0090677
0.43768 0.33314 0.0045522
0.46901 0.33951 0.00030803
0.50013 0.34619 0
0.53075 0.35298 0
0.56088 0.35974 0
0.59065 0.36637 0
0.62012 0.37271 0
0.64941 0.37855 0
0.67851 0.38362 0
0.70764 0.38784 0
0.7371 0.39119 0
0.76728 0.39365 0
0.79854 0.39524 0
0.83137 0.39604 0
0.86627 0.39613 0
0.90381 0.39567 0
0.94378 0.39452 0
0.98469 0.39241 0
1 0.38937 0
0.062243 0.33074 0.020723
0.080743 0.32996 0.022182
0.099829 0.32925 0.023748
0.1207 0.32865 0.025486
0.14418 0.32827 0.027416
0.1705 0.32836 0.029351
0.19909 0.32912 0.030889
0.22861 0.33071 0.031432
0.25822 0.33299 0.030662
0.28787 0.336 0.028539
0.31796 0.33988 0.025279
0.34874 0.34473 0.021235
0.38014 0.35044 0.016774
0.41196 0.35688 0.012089
0.44389 0.36388 0.0075406
0.4757 0.37128 0.0034056
0.50715 0.37889 0
0.53796 0.3865 0
0.56818 0.39406 0
0.59782 0.40137 0
0.627 0.40825 0
0.65571 0.41457 0
0.68401 0.42012 0
0.71232 0.4249 0
0.74094 0.42892 0
0.77014 0.43213 0
0.80033 0.43447 0
0.83212 0.43591 0
0.86609 0.43658 0
0.90272 0.4364 0
0.94165 0.43509 0
0.98163 0.43257 0
1 0.429 0
0.059943 0.36576 0.022149
0.078606 0.36453 0.023902
0.097935 0.36331 0.025758
0.11918 0.36209 0.027778
0.14318 0.36095 0.029937
0.17018 0.3601 0.032113
0.19956 0.35988 0.033834
0.2299 0.36054 0.034495
0.26026 0.36215 0.033757
0.29083 0.36485 0.031657
0.3219 0.36879 0.028468
0.35367 0.37396 0.024432
0.38594 0.38025 0.020016
0.41852 0.3874 0.0154
0.45106 0.39515 0.010974
0.48336 0.40332 0.0070295
0.51504 0.41156 0.0037835
0.54598 0.41972 0.0011114
0.57616 0.42766 0
0.60557 0.43526 0
0.63432 0.4424 0
0.6624 0.4489 0
0.69001 0.45476 0
0.71754 0.45997 0
0.74532 0.46446 0
0.77362 0.46822 0
0.80282 0.47124 0
0.83361 0.47355 0
0.86664 0.475 0
0.90213 0.4755 0
0.93973 0.47471 0
0.97856 0.47258 0
1 0.4694 0
0.056853 0.40217 0.022605
0.075668 0.40067 0.024625
0.095243 0.39913 0.026734
0.11685 0.39749 0.029028
0.14134 0.39583 0.031455
0.16904 0.39433 0.033853
0.19931 0.39331 0.035752
0.23058 0.39311 0.036609
0.26199 0.3939 0.036047
0.29373 0.39612 0.034102
0.32599 0.3998 0.031092
0.3589 0.40497 0.027261
0.39225 0.41142 0.022962
0.42566 0.41889 0.018551
0.45887 0.42706 0.014361
0.4916 0.43556 0.010721
0.52343 0.444 0.0077956
0.55439 0.45226 0.0053913
0.5844 0.46018 0.003453
0.61353 0.46772 0.0019359
0.64182 0.4748 0.00084656
0.66925 0.48131 0.00019667
0.69626 0.48723 0
0.72304 0.49256 0
0.75004 0.49735 0
0.77754 0.50151 0
0.80596 0.50506 0
0.83593 0.50797 0
0.86804 0.51016 0
0.90249 0.51138 0
0.93889 0.51147 0
0.9765 0.51037 0
1 0.50821 0
0.053218 0.43966 0.022083
0.072233 0.43791 0.02436
0.092046 0.43615 0.026716
0.114 0.43427 0.029239
0.13902 0.4323 0.031889
0.16742 0.43039 0.034508
0.1986 0.42887 0.036642
0.23085 0.42809 0.037685
0.2634 0.42834 0.037364
0.29643 0.43 0.035675
0.33001 0.43326 0.032916
0.36419 0.4381 0.029376
0.39868 0.44438 0.025286
0.43304 0.45175 0.021165
0.46691 0.45984 0.017338
0.49992 0.46816 0.014129
0.53186 0.47635 0.011552
0.56273 0.48425 0.0094677
0.59255 0.49181 0.0078219
0.62139 0.49899 0.006564
0.64919 0.50572 0.0057561
0.67609 0.51191 0.0052889
0.70244 0.51764 0.0049532
0.72862 0.5229 0.0046091
0.75495 0.52773 0.004112
0.78176 0.53212 0.0032283
0.80952 0.53599 0.001556
0.83881 0.5393 0
0.87029 0.54202 0
0.90389 0.54399 0
0.9394 0.54495 0
0.97599 0.54501 0
1 0.54422 0
0.049138 0.47819 0.020718
0.068327 0.4763 0.023205
0.088452 0.47436 0.025767
0.11086 0.47229 0.028498
0.13649 0.47018 0.031361
0.16567 0.46811 0.034156
0.19775 0.46639 0.0365
0.23095 0.46524 0.037813
0.26467 0.4651 0.037747
0.29893 0.46641 0.036383
0.33389 0.46933 0.033864
0.36935 0.47383 0.030571
0.40501 0.47968 0.026794
0.44025 0.48654 0.023073
0.47472 0.494 0.019711
0.50796 0.5016 0.016995
0.53993 0.5091 0.014828
0.5707 0.51634 0.013118
0.60034 0.52325 0.01183
0.62886 0.52975 0.010935
0.6562 0.53579 0.010418
0.6826 0.54141 0.010154
0.70847 0.54669 0.0099644
0.73411 0.55169 0.0097026
0.75989 0.55636 0.0092255
0.78614 0.56067 0.0082901
0.81335 0.56464 0.0064761
0.84218 0.56825 0.0035184
0.87319 0.57139 0
0.90627 0.57391 0
0.94111 0.57577 0
0.97697 0.5769 0
1 0.57739 0
0.044549 0.51799 0.01867
0.064078 0.5159 0.02134
0.084606 0.51386 0.024074
0.10755 0.51177 0.026976
0.13394 0.50963 0.030013
0.16398 0.50757 0.032955
0.19694 0.50575 0.035449
0.23112 0.50443 0.036973
0.26594 0.50413 0.037192
0.30148 0.50521 0.036103
0.33769 0.50792 0.033831
0.37435 0.51205 0.030829
0.41096 0.51736 0.027458
0.44693 0.52344 0.024175
0.4818 0.52992 0.021333
0.51528 0.53645 0.019112
0.54734 0.54292 0.017454
0.57805 0.54921 0.016212
0.60746 0.55516 0.015351
0.63562 0.56067 0.014841
0.66259 0.56578 0.01465
0.68865 0.57064 0.014632
0.71413 0.57529 0.014619
0.73938 0.57973 0.014469
0.76466 0.58399 0.014053
0.79048 0.58805 0.013071
0.81738 0.59197 0.011178
0.84594 0.59576 0.0081151
0.87664 0.59927 0.00365
0.90942 0.60237 0
0.94389 0.60497 0
0.97915 0.60708 0
1 0.60865 0
0.03941 0.55963 0.016191
0.059404 0.5574 0.01898
0.080515 0.55525 0.021835
0.10419 0.55311 0.024839
0.13145 0.55101 0.027964
0.16244 0.549 0.030975
0.19633 0.54715 0.033528
0.2315 0.54581 0.035169
0.26747 0.54546 0.035587
0.30415 0.54645 0.034756
0.34152 0.54887 0.032785
0.37906 0.55257 0.030112
0.41633 0.55711 0.027237
0.45275 0.56219 0.024443
0.48791 0.5675 0.022146
0.52158 0.57287 0.020459
0.55376 0.57817 0.019302
0.5844 0.58325 0.018587
0.61357 0.58799 0.018225
0.64143 0.59238 0.018144
0.66814 0.59647 0.018295
0.69399 0.60036 0.018511
0.71922 0.60414 0.018698
0.74415 0.60783 0.018704
0.76914 0.61146 0.018356
0.79475 0.61515 0.017382
0.8215 0.61892 0.0155
0.85 0.62278 0.012379
0.88061 0.62666 0.007852
0.91323 0.63033 0.0020419
0.9475 0.63365 0
0.98224 0.6366 0
1 0.63912 0
0.033722 0.60408 0.013438
0.054351 0.60168 0.01629
0.076164 0.59941 0.019182
0.10069 0.5972 0.02222
0.12895 0.59502 0.025346
0.16099 0.59291 0.028308
0.19588 0.59101 0.030813
0.23222 0.58964 0.03247
0.26932 0.58926 0.033004
0.30709 0.59017 0.032297
0.34522 0.59223 0.030627
0.38337 0.59517 0.028375
0.42094 0.59878 0.026012
0.45758 0.60278 0.023779
0.49288 0.60682 0.022133
0.52667 0.61085 0.021045
0.55889 0.61474 0.0204
0.58945 0.61846 0.020207
0.61849 0.62197 0.020312
0.64611 0.62523 0.020675
0.67265 0.62824 0.021152
0.69833 0.63108 0.021614
0.72344 0.63387 0.021999
0.74821 0.63666 0.022199
0.77316 0.63959 0.021988
0.79881 0.64278 0.021072
0.82571 0.64635 0.019207
0.85434 0.65028 0.01609
0.88503 0.65442 0.011626
0.91764 0.65864 0.0059199
0.95175 0.6627 0
0.98605 0.66641 0
1 0.66972 0
0.027479 0.65212 0.010479
0.048785 0.64957 0.013353
0.071371 0.64715 0.01626
0.096873 0.64475 0.019283
0.12624 0.64236 0.022333
0.15939 0.6401 0.025165
0.19551 0.638 0.027501
0.23319 0.63649 0.029013
0.27148 0.63597 0.029487
0.31009 0.63658 0.028841
0.34863 0.63792 0.027447
0.387 0.63999 0.025607
0.4247 0.6425 0.023832
0.46133 0.64524 0.022303
0.49649 0.64793 0.021314
0.53027 0.65046 0.020807
0.56247 0.6529 0.020712
0.59302 0.65523 0.020981
0.62199 0.6574 0.021509
0.64949 0.65937 0.022274
0.6759 0.66122 0.023075
0.7015 0.66301 0.023828
0.72661 0.66481 0.024458
0.75149 0.66677 0.024838
0.77663 0.66905 0.024736
0.80261 0.67177 0.023917
0.82992 0.67507 0.022133
0.85892 0.67898 0.019099
0.88983 0.68339 0.014759
0.92261 0.68807 0.0092038
0.95659 0.69283 0.0026393
0.99042 0.69728 0
1 0.70124 0
0.020735 0.70443 0.0073506
0.042672 0.7018 0.010181
0.066029 0.6992 0.013026
0.092495 0.69657 0.015969
0.12301 0.69394 0.018921
0.15748 0.69129 0.021609
0.19505 0.68892 0.023704
0.23413 0.68713 0.024956
0.27348 0.68606 0.025252
0.31265 0.68573 0.024693
0.3514 0.68611 0.023527
0.38975 0.68711 0.022154
0.42737 0.6884 0.02091
0.46363 0.68969 0.020077
0.49861 0.69086 0.019699
0.53224 0.69203 0.019724
0.56438 0.69303 0.020114
0.59491 0.69389 0.020758
0.62378 0.6946 0.021718
0.65126 0.69525 0.022808
0.6777 0.69588 0.023958
0.70342 0.69662 0.025022
0.7287 0.69751 0.025905
0.75392 0.69868 0.026492
0.77958 0.7003 0.026548
0.80616 0.70261 0.025866
0.83412 0.70572 0.024165
0.8637 0.70964 0.021231
0.89504 0.71424 0.017076
0.92806 0.7194 0.011739
0.962 0.72471 0.0053108
0.99536 0.72979 0
1 0.73438 0
0.01396 0.76089 0.004157
0.036306 0.75839 0.0068329
0.060232 0.75584 0.0095438
0.087468 0.75311 0.012356
0.11904 0.75018 0.01516
0.15489 0.74706 0.017681
0.194 0.74407 0.019513
0.23442 0.74147 0.020521
0.27465 0.73945 0.020705
0.31419 0.73805 0.020234
0.35308 0.7372 0.019342
0.39131 0.73677 0.018364
0.4285 0.73657 0.017554
0.4643 0.73632 0.017252
0.49895 0.73607 0.017332
0.53242 0.73569 0.017795
0.5644 0.73524 0.018548
0.59485 0.73468 0.019525
0.62371 0.73405 0.020777
0.6513 0.73348 0.022169
0.67795 0.73299 0.023651
0.70396 0.73272 0.025038
0.72968 0.73271 0.026233
0.75549 0.73314 0.027038
0.78192 0.7342 0.027276
0.80941 0.73604 0.026738
0.83828 0.73884 0.025178
0.86865 0.74265 0.022422
0.90065 0.74742 0.01851
0.93407 0.75292 0.013458
0.96793 0.7587 0.0072883
1 0.76428 0.00045323
1 0.76947 0
0.0084052 0.81998 0.0011998
0.030697 0.81817 0.0036743
0.054698 0.81612 0.0061384
0.082166 0.81368 0.0086626
0.11429 0.81064 0.011171
0.15117 0.80706 0.013392
0.19166 0.80327 0.014936
0.23333 0.79959 0.015827
0.2745 0.79634 0.016048
0.31437 0.79355 0.015786
0.35317 0.79119 0.01518
0.39099 0.78914 0.014574
0.4277 0.78724 0.014178
0.46309 0.78537 0.014148
0.49735 0.78355 0.014445
0.5305 0.78171 0.015059
0.56237 0.77981 0.015958
0.59276 0.77795 0.017181
0.62173 0.77618 0.018673
0.64962 0.77451 0.020365
0.67668 0.77309 0.022091
0.70318 0.77198 0.023748
0.72952 0.77126 0.025223
0.75619 0.77108 0.026249
0.78358 0.77157 0.026705
0.81213 0.77293 0.026328
0.8421 0.77529 0.02497
0.87352 0.77878 0.022567
0.90645 0.78342 0.019063
0.9404 0.78893 0.014402
0.97439 0.79486 0.0086081
1 0.8008 0.0020649
1 0.80628 0
0.0054004 0.87872 0
0.027247 0.87783 0.00070297
0.050746 0.87661 0.0028537
0.077659 0.87488 0.0050188
0.10947 0.87247 0.0071003
0.14664 0.86921 0.0088618
0.1879 0.86516 0.010151
0.23053 0.86065 0.01096
0.27235 0.85598 0.011342
0.31251 0.85152 0.011333
0.35116 0.84743 0.011142
0.38855 0.8437 0.010886
0.4247 0.84004 0.010829
0.45962 0.83651 0.010939
0.49358 0.83311 0.011254
0.52656 0.82988 0.011823
0.55835 0.8268 0.012657
0.58878 0.82388 0.013927
0.61808 0.82109 0.015509
0.64637 0.81862 0.017316
0.67401 0.81645 0.019246
0.70127 0.81464 0.021153
0.72845 0.81334 0.022816
0.75605 0.81264 0.024042
0.7845 0.81264 0.024676
0.81418 0.81353 0.02453
0.84529 0.81544 0.023508
0.87797 0.81847 0.021573
0.91192 0.82263 0.018585
0.94656 0.82771 0.014474
0.98092 0.8334 0.0092059
1 0.83913 0.0030986
1 0.8444 0
0.0052009 0.93366 0
0.026337 0.93364 0
0.048964 0.93332 0
0.075012 0.93256 0.0012826
0.10613 0.93113 0.0029347
0.14282 0.92888 0.0043509
0.1838 0.92551 0.0054004
0.22634 0.92103 0.0060333
0.26814 0.91562 0.0064834
0.30834 0.90982 0.0067353
0.3468 0.90408 0.0069151
0.38387 0.89855 0.0070404
0.41956 0.89325 0.0073137
0.45418 0.8883 0.0075196
0.48799 0.8836 0.0077651
0.5209 0.87925 0.0082425
0.55276 0.87514 0.0090454
0.58345 0.8713 0.010233
0.61311 0.86784 0.011747
0.64198 0.86475 0.013492
0.67032 0.86197 0.015436
0.69834 0.85963 0.017422
0.72651 0.85778 0.019219
0.75523 0.8566 0.020606
0.78483 0.85626 0.021387
0.81557 0.85685 0.021489
0.84776 0.85839 0.020856
0.88155 0.86092 0.019459
0.91649 0.86442 0.017075
0.95192 0.86877 0.013594
0.98675 0.87375 0.0089563
1 0.8787 0.0034007
1 0.88314 0
0.0070803 0.98181 0
0.027544 0.98249 0
0.049429 0.98294 0
0.074613 0.9831 0
0.10474 0.98277 0
0.14044 0.98157 0
0.18052 0.97906 0.00068472
0.22208 0.97515 0.0012198
0.26308 0.9698 0.0016484
