a - Ai/luts/Film-Degrainer_1-000.cube
LUT_3D_SIZE 9
0 0.0013987 0
0.11866 0.026073 0
0.25376 0.032282 0.00018499
0.37939 0.019471 0.0049699
0.50353 0 0.0071294
0.61829 0 0.0098777
0.72642 0 0.009187
0.84428 0 0.0011187
1 0.0024111 0
0.023482 0.093577 0.00092828
0.12771 0.10838 0.0021038
0.25063 0.10846 0.0077673
0.36965 0.098749 0.00598
0.48933 0.084397 0.00076342
0.60794 0.069104 0.002119
0.72588 0.06114 0.0055291
0.85317 0.067942 0.001541
1 0.09229 0
0.051883 0.19568 0.0095538
0.13664 0.20509 0.012469
0.24872 0.21314 0.017442
0.36468 0.21559 0.0090313
0.48332 0.22029 0
0.60242 0.22699 0
0.72752 0.23164 0
0.86507 0.23585 0
1 0.24427 0
0.063254 0.29787 0.018419
0.14408 0.29857 0.024064
0.25596 0.30609 0.027146
0.37512 0.32179 0.013655
0.50013 0.34619 0
0.62012 0.37271 0
0.7371 0.39119 0
0.86627 0.39613 0
1 0.38937 0
0.053218 0.43966 0.022083
0.13902 0.4323 0.031889
0.2634 0.42834 0.037364
0.39868 0.44438 0.025286
0.53186 0.47635 0.011552
0.64919 0.50572 0.0057561
0.75495 0.52773 0.004112
0.87029 0.54202 0
1 0.54422 0
0.033722 0.60408 0.013438
0.12895 0.59502 0.025346
0.26932 0.58926 0.033004
0.42094 0.59878 0.026012
0.55889 0.61474 0.0204
0.67265 0.62824 0.021152
0.77316 0.63959 0.021988
0.88503 0.65442 0.011626
1 0.66972 0
0.0084052 0.81998 0.0011998
0.11429 0.81064 0.011171
0.2745 0.79634 0.016048
0.4277 0.78724 0.014178
0.56237 0.77981 0.015958
0.67668 0.77309 0.022091
0.78358 0.77157 0.026705
0.90645 0.78342 0.019063
1 0.80628 0
0.0098807 1 0
0.1048 1 0
0.25846 1 0
0.40637 0.98692 0
0.54014 0.96348 0.0024298
0.66175 0.94699 0.0078296
0.78429 0.93966 0.013321
0.92215 0.94502 0.01174
1 0.95505 0
0.018916 1 0
0.10733 1 0
0.24953 1 0
0.39162 1 0
0.52571 1 0
0.6521 1 0
0.7835 1 0
0.92516 1 0.00035198
1 1 0
0 0.009686 0.14997
0.10845 0.034268 0.14002
0.25715 0.038719 0.12872
0.38823 0.01532 0.13644
0.50736 0 0.13858
0.61379 0 0.12896
0.71386 0 0.11193
0.83354 0 0.09372
1 0.010132 0.093637
0.0094149 0.099053 0.15055
0.11995 0.11834 0.13817
0.25129 0.12025 0.12968
0.37145 0.10035 0.13587
0.4926 0.074662 0.13778
0.6086 0.059403 0.1306
0.71823 0.059318 0.1157
0.84429 0.072159 0.09913
1 0.095105 0.098329
0.042702 0.20151 0.14392
0.13592 0.2163 0.13596
0.24711 0.22594 0.13307
0.35513 0.22048 0.13259
0.47477 0.21152 0.12592
0.60119 0.20759 0.11918
0.72644 0.21135 0.10935
0.8593 0.22048 0.096926
1 0.22897 0.095611
0.065173 0.3065 0.14651
0.15025 0.31273 0.14573
0.25343 0.32278 0.14733
0.35867 0.3356 0.13917
0.48318 0.35659 0.12077
0.61368 0.38095 0.10584
0.73454 0.39439 0.096509
0.85758 0.39373 0.086713
1 0.37491 0.084774
0.067662 0.43533 0.1471
0.15272 0.43313 0.15329
0.26174 0.43341 0.16052
0.38149 0.45096 0.15025
0.51777 0.48776 0.12879
0.64394 0.52154 0.11375
0.74904 0.54306 0.10297
0.85316 0.55384 0.0874
1 0.54866 0.076236
0.059208 0.58933 0.1365
0.14802 0.583 0.14802
0.2679 0.57776 0.15819
0.4068 0.59117 0.14807
0.55113 0.616 0.13218
0.67026 0.6347 0.12309
0.76691 0.64758 0.11404
0.86508 0.66155 0.096104
0.99853 0.67693 0.07563
0.038717 0.80203 0.11821
0.13538 0.78909 0.13255
0.27338 0.77391 0.14371
0.42277 0.77397 0.13612
0.56248 0.77331 0.12822
0.67889 0.76981 0.12484
0.77934 0.77089 0.1189
0.88622 0.78241 0.10212
1 0.80615 0.077625
0.02823 1 0.10243
0.11731 0.999 0.11281
0.26322 0.98299 0.12164
0.41072 0.96309 0.12067
0.5452 0.94578 0.11916
0.66759 0.93257 0.11911
0.7829 0.92742 0.11719
0.90583 0.93584 0.10331
1 0.95069 0.077621
0.030482 1 0.090283
0.11461 1 0.097545
0.25509 1 0.10265
0.39986 1 0.10369
0.53449 1 0.10428
0.66021 1 0.10567
0.78407 1 0.10637
0.91316 1 0.095586
1 1 0.071722
0 0.0038247 0.31915
0.089038 0.019908 0.31354
0.24686 0.028708 0.29295
0.38813 0.017236 0.27779
0.49725 0.00053528 0.2668
0.59154 0 0.2456
0.69148 0 0.2183
0.82718 0.0010961 0.20048
1 0.024434 0.19678
0 0.087984 0.30675
0.098618 0.10332 0.2959
0.24618 0.10902 0.27847
0.37726 0.09244 0.27649
0.48748 0.074288 0.27249
0.58903 0.065054 0.25273
0.69605 0.066486 0.226
0.83758 0.080996 0.20743
1 0.10442 0.2031
0.022683 0.19441 0.28453
0.11911 0.21331 0.26801
0.24422 0.22622 0.25198
0.35978 0.21214 0.25833
0.47398 0.19576 0.26368
0.58926 0.19205 0.25078
0.70798 0.19964 0.22783
0.85258 0.21277 0.20961
1 0.22436 0.20487
0.051936 0.30743 0.27836
0.14261 0.31996 0.26436
0.25125 0.33531 0.25127
0.35251 0.34518 0.25085
0.46968 0.35489 0.24929
0.59824 0.37022 0.23697
0.72107 0.38473 0.21665
0.85395 0.38517 0.20293
1 0.36693 0.20266
0.064339 0.43042 0.27463
0.15351 0.43355 0.26698
0.26205 0.43947 0.26065
0.37008 0.4549 0.25683
0.49814 0.48796 0.24307
0.62698 0.5228 0.2233
0.73405 0.54567 0.20312
0.84354 0.5535 0.18887
1 0.53437 0.19602
0.067401 0.57336 0.26437
0.15602 0.57378 0.26264
0.26852 0.57397 0.26316
0.39216 0.58503 0.2571
0.53359 0.61225 0.23857
0.656 0.63481 0.21969
0.7512 0.64949 0.20085
0.84967 0.66355 0.18188
0.99632 0.67405 0.18035
0.059887 0.78311 0.24538
0.15224 0.77387 0.251
0.27346 0.7632 0.25876
0.41021 0.76558 0.25125
0.55178 0.77073 0.23521
0.6686 0.77198 0.22097
0.76418 0.7749 0.20427
0.86828 0.7851 0.18339
1 0.80438 0.1725
0.045027 0.98085 0.22516
0.13505 0.97216 0.23223
0.26631 0.95107 0.2408
0.4079 0.93711 0.234
0.5446 0.92715 0.22583
0.66459 0.9198 0.22011
0.77125 0.92036 0.20816
0.8859 0.93157 0.18811
1 0.94621 0.17188
0.043436 1 0.21142
0.12643 1 0.21806
0.25705 1 0.22358
0.40087 1 0.21636
0.53799 1 0.21107
0.66178 0.99134 0.20863
0.77614 0.99122 0.20004
0.89449 1 0.18232
1 1 0.16467
0 0 0.50792
0.072492 0 0.49892
0.22092 0.014109 0.46878
0.36472 0.020167 0.42641
0.47544 0.014961 0.39034
0.56652 0.0073541 0.36463
0.67237 0.0032223 0.34513
0.81924 0.012773 0.33048
1 0.035046 0.3126
0 0.057094 0.48792
0.080775 0.066651 0.47955
0.2266 0.078197 0.45616
0.36417 0.081519 0.42345
0.47106 0.07811 0.39598
0.56395 0.074117 0.37242
0.67485 0.075041 0.35066
0.82835 0.08959 0.33443
1 0.1123 0.31635
0.00070649 0.17751 0.44697
0.094284 0.18879 0.43261
0.23207 0.19619 0.41356
0.36275 0.19048 0.40136
0.46837 0.18677 0.39108
0.56716 0.18875 0.37268
0.68523 0.19643 0.34963
0.84305 0.21064 0.332
1 0.22473 0.31641
0.024417 0.30255 0.42922
0.11713 0.31685 0.40504
0.24077 0.33644 0.37732
0.35622 0.34311 0.37379
0.46708 0.3439 0.37826
0.57781 0.35326 0.36626
0.69975 0.36746 0.34316
0.84931 0.37356 0.32713
1 0.36664 0.31652
0.040989 0.42344 0.4204
0.13516 0.4318 0.39845
0.25448 0.44498 0.37379
0.36707 0.45961 0.36673
0.48183 0.48041 0.36233
0.59972 0.50745 0.34137
0.71489 0.53144 0.31453
0.84459 0.53466 0.30702
1 0.51977 0.30954
0.051554 0.5632 0.41174
0.14523 0.56854 0.39525
0.26468 0.57525 0.37683
0.38316 0.58513 0.3687
0.50978 0.60602 0.35302
0.62813 0.62844 0.32401
0.73063 0.64502 0.29489
0.84442 0.65655 0.28275
1 0.66128 0.29166
0.05554 0.76561 0.39716
0.14907 0.76227 0.38644
0.2716 0.75885 0.37507
0.39797 0.76088 0.36897
0.52972 0.76839 0.34972
0.64406 0.77539 0.32178
0.74148 0.78061 0.29351
0.85652 0.78807 0.27367
1 0.80176 0.27555
0.048274 0.95394 0.36939
0.13926 0.94495 0.36476
0.26584 0.92551 0.35929
0.39798 0.9128 0.35182
0.53337 0.90924 0.3363
0.64906 0.90947 0.31696
0.74929 0.91397 0.29382
0.87051 0.92577 0.27178
1 0.93834 0.26665
0.045499 1 0.35258
0.1293 1 0.34973
0.25438 1 0.34626
0.39281 0.99378 0.33635
0.53132 0.98153 0.32183
0.65066 0.97701 0.30699
0.75607 0.98039 0.28685
0.87892 0.99227 0.26474
1 1 0.25797
0 0 0.65915
0.051571 0 0.64754
0.19356 0.0036007 0.61397
0.32668 0.018938 0.5692
0.44091 0.022305 0.52319
0.54762 0.018992 0.49533
0.66236 0.015172 0.48638
0.80426 0.019465 0.47314
0.98368 0.035943 0.44459
0 0.024169 0.64864
0.061625 0.035768 0.63677
0.20259 0.05655 0.60604
0.3313 0.070429 0.56526
0.44214 0.077285 0.52233
0.54606 0.078317 0.49754
0.66311 0.079689 0.48921
0.81091 0.091623 0.47355
0.99146 0.11303 0.44205
0 0.15033 0.61371
0.075043 0.15576 0.60488
0.21345 0.16275 0.58331
0.3407 0.17096 0.5499
0.44899 0.18113 0.51403
0.55001 0.18822 0.49424
0.67021 0.19599 0.48551
0.8254 0.20951 0.46769
1 0.22495 0.43634
0 0.29348 0.58091
0.08782 0.30311 0.56676
0.22082 0.31658 0.54627
0.34966 0.32618 0.52474
0.45927 0.33532 0.50425
0.56232 0.34493 0.49187
0.68304 0.35599 0.48363
0.83382 0.3654 0.46585
1 0.3652 0.43659
0.0124 0.41495 0.56739
0.10456 0.42592 0.54837
0.23608 0.44218 0.51978
0.36149 0.45749 0.50125
0.47143 0.47297 0.48986
0.57782 0.48988 0.47873
0.69681 0.50564 0.46687
0.83585 0.51055 0.4519
1 0.50878 0.42783
0.027587 0.55724 0.56044
0.11925 0.56519 0.54283
0.24809 0.57619 0.51344
0.37466 0.58595 0.4934
0.49001 0.59983 0.48007
0.59807 0.61576 0.45913
0.71096 0.63083 0.43739
0.84018 0.64176 0.42892
1 0.64967 0.41505
0.036096 0.74907 0.55075
0.12808 0.75 0.536
0.25797 0.75177 0.51055
0.38772 0.7568 0.49097
0.50398 0.76373 0.47193
0.61034 0.77193 0.44219
0.71893 0.7783 0.41241
0.85084 0.78171 0.40156
1 0.7937 0.3994
0.039669 0.92194 0.52054
0.12797 0.91878 0.51091
0.25683 0.90664 0.49264
0.38833 0.89549 0.4788
0.51048 0.89327 0.45887
0.61976 0.89815 0.42674
0.72586 0.90515 0.39592
0.86004 0.91461 0.37803
1 0.92302 0.37181
0.039257 1 0.50266
0.12013 1 0.49645
0.24553 1 0.48329
0.38079 0.98352 0.47135
0.51023 0.9718 0.44951
0.62412 0.97071 0.41761
0.7319 0.97427 0.38685
0.8675 0.984 0.3657
1 0.9909 0.35678
0 0 0.76942
0.031186 0 0.76177
0.16159 0 0.7312
0.2904 0.013497 0.68604
0.40783 0.018431 0.6558
0.52945 0.01754 0.63745
0.65491 0.01897 0.62518
0.79062 0.02214 0.61737
0.96293 0.02852 0.59694
0 0.0050891 0.76495
0.041455 0.018466 0.75604
0.17236 0.04255 0.7249
0.29637 0.059868 0.68086
0.41034 0.067602 0.64948
0.53158 0.072039 0.63116
0.65761 0.078646 0.62197
0.79435 0.088796 0.61451
0.9681 0.10277 0.58937
0 0.12217 0.74675
0.058898 0.13258 0.73903
0.18813 0.14815 0.71201
0.30726 0.16072 0.67169
0.41957 0.17281 0.63799
0.54073 0.1843 0.62055
0.66646 0.19523 0.61664
0.80538 0.20764 0.60792
0.9798 0.22249 0.57506
0 0.2746 0.71486
0.072797 0.28115 0.71148
0.19936 0.29344 0.69477
0.32125 0.30791 0.66095
0.43855 0.32613 0.62849
0.55766 0.34322 0.617
0.6788 0.35574 0.61818
0.81416 0.36323 0.60868
0.98411 0.36368 0.57258
0 0.40432 0.69458
0.083936 0.41206 0.6879
0.21362 0.42497 0.67335
0.34175 0.44512 0.64426
0.46048 0.46686 0.61848
0.57559 0.48521 0.61549
0.68937 0.49652 0.62131
0.81481 0.50031 0.60909
0.98121 0.50048 0.56848
0.0092068 0.55262 0.68388
0.095425 0.56055 0.67272
0.22474 0.56951 0.65279
0.35797 0.5792 0.62707
0.47928 0.59262 0.60787
0.59088 0.60292 0.60808
0.70006 0.61315 0.61539
0.82102 0.62732 0.60239
0.98257 0.64297 0.56072
0.019823 0.73655 0.67797
0.10698 0.73973 0.66891
0.23665 0.74714 0.64787
0.36734 0.75428 0.61852
0.48285 0.75825 0.59237
0.59013 0.75803 0.58052
0.70786 0.75323 0.58144
0.84091 0.75798 0.57709
0.99943 0.78225 0.54996
0.025833 0.89407 0.65932
0.11326 0.89636 0.65145
0.2426 0.89292 0.63554
0.37203 0.88869 0.61063
0.48432 0.88626 0.58264
0.58914 0.88555 0.55719
0.70816 0.88623 0.53854
0.85146 0.88728 0.52775
1 0.89583 0.51526
0.030934 1 0.64657
0.11031 1 0.64127
0.23447 1 0.6314
0.36529 0.98934 0.61329
0.47997 0.97675 0.58606
0.58876 0.97135 0.55251
0.70973 0.97024 0.52389
0.85457 0.97187 0.50423
1 0.97378 0.4906
0 0 0.86031
0.0072698 0 0.85444
0.12717 0 0.8286
0.25914 0.0043797 0.79401
0.39192 0.0058144 0.77665
0.51618 0.0023563 0.76962
0.64216 0.0048944 0.75921
0.78474 0.01353 0.747
0.9546 0.015413 0.74791
0 0 0.85876
0.018727 0.0065131 0.85103
0.13798 0.030374 0.82354
0.26479 0.049096 0.78695
0.39284 0.053836 0.7686
0.51782 0.056263 0.75952
0.64747 0.06488 0.74787
0.78867 0.077578 0.73844
0.95524 0.083823 0.73776
0 0.10332 0.85193
0.040481 0.11794 0.84236
0.15717 0.1398 0.81399
0.27543 0.15601 0.77861
0.39916 0.16591 0.75961
0.52833 0.17764 0.74749
0.66137 0.19347 0.7354
0.79689 0.2052 0.72824
0.95906 0.2123 0.71984
0 0.25286 0.83386
0.061427 0.26298 0.82758
0.17605 0.28278 0.8055
0.29077 0.30114 0.77606
0.41665 0.31877 0.75623
0.55206 0.34123 0.74311
0.6789 0.36074 0.73609
0.80145 0.36779 0.73021
0.95693 0.36268 0.71084
0 0.38686 0.81488
0.075438 0.39383 0.81279
0.19539 0.4103 0.79797
0.31298 0.43242 0.77115
0.4437 0.45884 0.75039
0.57831 0.48627 0.74124
0.69077 0.50006 0.73992
0.79927 0.5019 0.73545
0.94892 0.4986 0.71071
0 0.54377 0.79762
0.082683 0.54826 0.79358
0.20724 0.55412 0.78295
0.3345 0.56709 0.75985
0.47024 0.58467 0.74327
0.59868 0.59932 0.7411
0.69958 0.61045 0.74288
0.80204 0.62033 0.73583
0.95054 0.63377 0.70512
0.0082512 0.72766 0.79137
0.092767 0.73261 0.78501
0.21694 0.74174 0.77124
0.34187 0.74974 0.74571
0.46895 0.74839 0.72665
0.5973 0.73551 0.72913
0.70769 0.72555 0.73888
0.82125 0.73699 0.73155
0.97455 0.77119 0.69555
0.014789 0.88241 0.78271
0.10149 0.88548 0.77775
0.22708 0.88832 0.7651
0.34609 0.88956 0.73786
0.46118 0.88539 0.71021
0.5793 0.87165 0.70195
0.70132 0.85344 0.70744
0.83855 0.84834 0.70255
1 0.87009 0.67568
0.020208 1 0.77998
0.10248 1 0.77433
0.22521 1 0.76657
0.34153 1 0.74445
0.45131 0.99489 0.71687
0.56421 0.98022 0.70049
0.69141 0.96368 0.69216
0.84038 0.95188 0.68031
1 0.95599 0.6612
0 0 0.93351
0 0 0.92956
0.097689 0 0.91753
0.24304 0 0.90641
0.3856 0 0.89946
0.51135 0 0.89394
0.63014 0 0.88821
0.77695 0 0.87864
0.96892 0 0.88446
0 0 0.93337
0 0 0.92865
0.1082 0.019082 0.91334
0.24679 0.036315 0.89875
0.3841 0.037604 0.89031
0.51002 0.035377 0.88368
0.63309 0.038258 0.87536
0.78242 0.050802 0.86289
0.96671 0.053263 0.86917
0 0.094202 0.93769
0.011364 0.10823 0.92861
0.12856 0.13293 0.90823
0.25729 0.15172 0.89059
0.38854 0.16324 0.88245
0.51484 0.17299 0.8736
0.64477 0.18561 0.85924
0.79251 0.1991 0.84395
0.96037 0.19772 0.848
0 0.23796 0.93637
0.038163 0.25201 0.92444
0.15124 0.27736 0.90292
0.27529 0.2993 0.88754
0.40642 0.31797 0.88284
0.53665 0.33915 0.87219
0.66628 0.36177 0.85303
0.79511 0.3717 0.83839
0.94745 0.36001 0.83959
0 0.37104 0.93179
0.0591 0.38255 0.92108
0.17434 0.40546 0.90158
0.29673 0.42928 0.88746
0.43156 0.45474 0.88108
0.56517 0.48267 0.86683
0.6826 0.50063 0.84833
0.79281 0.50536 0.83711
0.93293 0.49795 0.83521
0 0.52774 0.92447
0.072444 0.53133 0.91563
0.19228 0.54332 0.90087
0.31956 0.56028 0.88929
0.46072 0.58388 0.88188
0.58905 0.60418 0.86771
0.6932 0.61706 0.85222
0.79322 0.62388 0.84219
0.92872 0.62871 0.83298
0 0.71397 0.91383
0.079632 0.71826 0.90292
0.20235 0.72732 0.88815
0.33035 0.73308 0.87808
0.4716 0.7297 0.87823
0.59988 0.72543 0.87498
0.70366 0.72614 0.86765
0.80609 0.73708 0.85845
0.94717 0.76307 0.83448
0.0007454 0.88398 0.9061
0.088009 0.88672 0.8965
0.20987 0.88936 0.87851
0.32718 0.88912 0.86128
0.45591 0.87539 0.85914
0.58809 0.85258 0.8639
0.70217 0.83606 0.86702
0.8196 0.83392 0.85952
0.97771 0.85871 0.82618
0.0067255 1 0.90952
0.08988 1 0.89968
0.21029 1 0.8805
0.31997 1 0.86162
0.43689 1 0.85546
0.56474 0.98601 0.86014
0.68809 0.95959 0.86852
0.82065 0.94303 0.86202
0.99938 0.95442 0.82883
0 0 1
0 0 1
0.084115 0 1
0.24008 0 1
0.38518 0 1
0.51051 0 1
0.62873 0 1
0.77505 0 1
0.98857 0 1
0 0 1
0 0 1
0.092811 0.0066867 0.99993
0.24284 0.022916 1
0.38125 0.022823 1
0.50535 0.016919 1
0.62544 0.01111 1
0.77488 0.0086342 1
0.9911 0.0080159 1
0 0.10021 1
0 0.10616 1
0.1117 0.1259 0.99923
0.25405 0.14652 1
0.38519 0.16049 1
0.50509 0.16938 1
0.62632 0.17588 0.99195
0.78135 0.18402 0.9763
0.98215 0.18169 0.98112
0 0.23963 1
0 0.24786 1
0.13221 0.27162 0.9976
0.2746 0.29786 0.99605
0.4037 0.31783 0.99833
0.52126 0.33528 0.9933
0.64213 0.35267 0.97859
0.78663 0.36339 0.96029
0.96332 0.3519 0.96699
0 0.37648 1
0.017659 0.38615 1
0.15497 0.40732 1
0.29652 0.43431 0.99787
0.4268 0.45779 0.99813
0.54505 0.48016 0.98879
0.65969 0.49789 0.96954
0.78562 0.50506 0.95116
0.9433 0.49227 0.95703
0 0.52714 1
0.038354 0.53302 1
0.17591 0.54689 1
0.32029 0.56969 1
0.45364 0.59432 1
0.57006 0.61475 0.99439
0.67471 0.63064 0.97627
0.78563 0.639 0.95875
0.92721 0.63488 0.95822
0 0.69123 1
0.050451 0.69547 1
0.18956 0.70522 1
0.33717 0.71353 1
0.47315 0.72452 1
0.588 0.73388 1
0.68979 0.74141 0.99421
0.7962 0.75265 0.98067
0.93014 0.76891 0.97393
0 0.88382 1
0.058132 0.88924 1
0.19161 0.88966 1
0.33548 0.87786 1
0.47306 0.86411 1
0.5904 0.85531 1
0.69583 0.84985 1
0.8063 0.84936 0.99644
0.95197 0.86491 0.98306
0 1 1
0.063476 1 1
0.18705 1 1
0.31877 1 0.99627
0.45405 1 1
0.57823 0.98246 1
0.68962 0.96903 1
0.80583 0.96158 1
0.97468 0.97361 1
