a - Ai/luts/Golgo 13 The Professional US to FR_02.cube
LUT_3D_SIZE 33
0.016542 0.010104 0.0075532
0.042697 0.0082395 0.0093559
0.068552 0.0062027 0.011057
0.094096 0.0039725 0.01231
0.12153 0.0013671 0.013209
0.15112 0 0.014007
0.18157 0 0.014699
0.21184 0 0.015144
0.24134 0 0.0152
0.27027 0 0.015109
0.2991 0 0.015107
0.3283 0 0.015122
0.35819 0 0.015252
0.38851 0 0.015642
0.41885 0 0.016174
0.44913 0 0.016767
0.47929 0 0.017277
0.50918 0 0.017586
0.53881 0 0.017691
0.56816 0 0.01787
0.5974 0 0.018256
0.62679 0 0.018717
0.65603 0 0.019515
0.68491 0 0.020761
0.71349 0 0.022278
0.74256 0 0.023807
0.7726 0 0.024907
0.80364 0 0.025448
0.8356 0 0.025511
0.86769 0 0.02506
0.89959 0 0.024221
0.93082 0 0.023158
0.96132 0 0.022085
0.014922 0.040954 0.0086929
0.040915 0.039318 0.010364
0.066593 0.037489 0.011863
0.091786 0.035259 0.012888
0.11922 0.032626 0.013626
0.14911 0.030039 0.01437
0.17993 0.027763 0.015161
0.21044 0.025726 0.015769
0.24001 0.023632 0.015908
0.26885 0.021195 0.01569
0.29747 0.018367 0.015457
0.32634 0.015178 0.015351
0.35583 0.011722 0.01546
0.38593 0.0079214 0.015772
0.41628 0.0038653 0.016238
0.44669 0 0.016797
0.47699 0 0.017324
0.50702 0 0.01769
0.53677 0 0.017897
0.56633 0 0.018163
0.59576 0 0.018652
0.62529 0 0.019281
0.6548 0 0.02029
0.6841 0 0.02182
0.71304 0 0.02361
0.74215 0 0.025299
0.77224 0 0.026496
0.80319 0 0.027066
0.83511 0 0.027142
0.86727 0 0.026664
0.89918 0 0.025792
0.93042 0 0.024692
0.96092 0 0.023558
0.013749 0.067363 0.0099793
0.039555 0.066147 0.011597
0.065032 0.064565 0.013049
0.089917 0.06273 0.013869
0.11736 0.060604 0.0144
0.14751 0.058382 0.015096
0.17865 0.056436 0.01592
0.20927 0.054592 0.016534
0.23882 0.052442 0.016675
0.26752 0.049774 0.016415
0.29594 0.046485 0.016057
0.32463 0.042651 0.015768
0.35397 0.038619 0.015723
0.38393 0.034634 0.015967
0.41417 0.030771 0.016427
0.44458 0.026871 0.016975
0.47502 0.022998 0.017525
0.50518 0.019478 0.017966
0.535 0.016339 0.018262
0.56461 0.013491 0.018605
0.59424 0.010919 0.019181
0.62397 0.0087113 0.019967
0.65368 0.0069274 0.021138
0.68319 0.0054888 0.022824
0.7124 0.004283 0.024784
0.74162 0.0034069 0.026565
0.77167 0.0024888 0.02781
0.80259 0.0015634 0.028383
0.83447 0.0005245 0.028444
0.86676 0 0.028015
0.8988 0 0.027183
0.93013 0 0.026065
0.96066 0 0.024898
0.012935 0.092605 0.011336
0.038517 0.091908 0.012955
0.063638 0.090849 0.014365
0.088506 0.089546 0.015161
0.11589 0.088305 0.015525
0.14615 0.086976 0.016083
0.17745 0.085502 0.016911
0.20805 0.083773 0.017599
0.23748 0.081535 0.017771
0.26605 0.07871 0.017466
0.29433 0.075365 0.017005
0.32288 0.071659 0.016637
0.3521 0.067685 0.016519
0.38195 0.063422 0.016696
0.41214 0.058963 0.016996
0.44253 0.05467 0.017406
0.47295 0.050742 0.017954
0.50318 0.047065 0.018454
0.53314 0.043628 0.018827
0.56288 0.040671 0.019242
0.59261 0.038181 0.019913
0.62255 0.036041 0.020833
0.65249 0.034199 0.022158
0.68215 0.032675 0.023946
0.71142 0.031307 0.025948
0.74077 0.029916 0.027771
0.77074 0.028496 0.029039
0.80176 0.026956 0.02963
0.83365 0.02556 0.02969
0.8661 0.024291 0.029303
0.89836 0.023349 0.028541
0.92986 0.02282 0.02749
0.9605 0.022603 0.026251
0.012483 0.11716 0.012405
0.037839 0.11701 0.014096
0.062715 0.11659 0.015541
0.087636 0.1162 0.016401
0.11515 0.11606 0.016834
0.14534 0.1159 0.017412
0.17645 0.11534 0.018236
0.20674 0.11399 0.018933
0.23591 0.11186 0.019125
0.26433 0.10906 0.018806
0.29254 0.1058 0.018254
0.32108 0.10225 0.017786
0.35024 0.098552 0.017625
0.37989 0.094665 0.017846
0.40984 0.090435 0.018223
0.44011 0.085978 0.018533
0.47057 0.081614 0.018867
0.50086 0.077586 0.019293
0.53089 0.073986 0.019725
0.56081 0.070788 0.020195
0.59077 0.068073 0.020972
0.62091 0.065842 0.022028
0.65102 0.063915 0.023417
0.68081 0.062128 0.025217
0.71013 0.060393 0.027197
0.73947 0.058632 0.028959
0.76944 0.056802 0.030189
0.80052 0.054761 0.0308
0.83259 0.052803 0.030905
0.86528 0.051133 0.0306
0.89784 0.050002 0.029926
0.92965 0.049462 0.028894
0.96039 0.049318 0.027631
0.012417 0.14263 0.013201
0.037636 0.14302 0.014968
0.062483 0.1434 0.016502
0.087685 0.14407 0.017558
0.11543 0.14499 0.018308
0.14537 0.14594 0.019084
0.17589 0.14616 0.020009
0.20555 0.1454 0.020693
0.23426 0.14381 0.020831
0.26242 0.14152 0.020492
0.29048 0.13879 0.019885
0.31895 0.13568 0.019319
0.34801 0.13228 0.019015
0.37745 0.12858 0.019112
0.40716 0.12464 0.019498
0.43721 0.12059 0.019959
0.46753 0.11649 0.020366
0.49785 0.11242 0.020715
0.52805 0.10864 0.021067
0.55823 0.10541 0.021551
0.58843 0.10285 0.022471
0.61872 0.10063 0.023686
0.64893 0.098365 0.025066
0.67882 0.095927 0.026717
0.70825 0.093499 0.028585
0.73768 0.091137 0.030265
0.76776 0.088814 0.031438
0.79887 0.086535 0.031991
0.83117 0.08423 0.032101
0.86411 0.082183 0.031863
0.89721 0.08069 0.03127
0.92943 0.079928 0.030369
0.96035 0.079698 0.029174
0.012809 0.16915 0.013739
0.038029 0.17004 0.015558
0.063149 0.17113 0.017227
0.088761 0.17256 0.018532
0.11654 0.17417 0.019593
0.14618 0.17546 0.020649
0.17581 0.17611 0.021634
0.20471 0.17585 0.022333
0.23292 0.17488 0.022533
0.26069 0.17338 0.022254
0.28845 0.17142 0.021687
0.31662 0.16904 0.021075
0.34533 0.16629 0.020626
0.3745 0.16312 0.020509
0.40407 0.15973 0.0207
0.434 0.15627 0.021096
0.46416 0.15276 0.021579
0.49439 0.14929 0.022074
0.52469 0.14602 0.022624
0.55515 0.14308 0.023298
0.58569 0.14052 0.024294
0.61611 0.13813 0.025552
0.64627 0.13561 0.026858
0.67608 0.13294 0.028293
0.7056 0.13013 0.029952
0.73528 0.12727 0.03147
0.76559 0.12443 0.032576
0.79697 0.12183 0.033124
0.82944 0.11952 0.033208
0.86273 0.11746 0.03292
0.89627 0.11571 0.032433
0.92897 0.11444 0.031723
0.96024 0.11373 0.030734
0.013692 0.19656 0.014042
0.03906 0.19775 0.015909
0.064541 0.1992 0.017676
0.090483 0.2009 0.019169
0.11813 0.20263 0.020443
0.14713 0.20388 0.021647
0.17608 0.20445 0.022686
0.2043 0.20449 0.023382
0.23198 0.204 0.023647
0.25935 0.20308 0.023533
0.28673 0.20182 0.023151
0.31448 0.20023 0.022635
0.34279 0.19829 0.022175
0.37166 0.19603 0.021935
0.40108 0.1936 0.021922
0.43091 0.19108 0.022152
0.46094 0.18853 0.022559
0.49111 0.18598 0.023098
0.52149 0.18352 0.023773
0.55212 0.18121 0.024651
0.58278 0.17897 0.025814
0.61312 0.17669 0.027222
0.64307 0.17416 0.0286
0.67285 0.17127 0.02984
0.70251 0.16822 0.03115
0.73249 0.16514 0.032397
0.76304 0.16224 0.033411
0.79483 0.15953 0.033887
0.82771 0.1571 0.033974
0.86147 0.15509 0.033797
0.89525 0.15371 0.033421
0.9282 0.15253 0.0329
0.95978 0.15141 0.032182
0.014839 0.22441 0.014066
0.040437 0.22563 0.015937
0.066273 0.22711 0.017763
0.092382 0.22875 0.019363
0.11972 0.23027 0.020737
0.14797 0.23128 0.021978
0.17636 0.23164 0.023053
0.20418 0.23164 0.023744
0.23143 0.23141 0.024059
0.25846 0.23092 0.02407
0.28554 0.23022 0.023891
0.31297 0.22936 0.02359
0.34094 0.22828 0.023272
0.36954 0.22702 0.023066
0.39884 0.22564 0.023061
0.42864 0.22421 0.023285
0.45859 0.22283 0.02367
0.48866 0.22147 0.024166
0.51898 0.22006 0.024782
0.54949 0.21853 0.025622
0.57995 0.2167 0.026741
0.61007 0.21453 0.028059
0.63985 0.21205 0.029392
0.6696 0.2093 0.030604
0.69941 0.2065 0.031845
0.72957 0.20375 0.033021
0.76052 0.20097 0.033888
0.79277 0.19837 0.034338
0.82608 0.19625 0.034566
0.86025 0.19465 0.034672
0.89444 0.19331 0.034559
0.92749 0.19207 0.034173
0.95911 0.1909 0.033535
0.015929 0.25259 0.013742
0.041853 0.25356 0.015626
0.068036 0.25483 0.017468
0.094147 0.25624 0.019079
0.12107 0.25743 0.02048
0.14864 0.25814 0.021722
0.17646 0.25836 0.022783
0.20409 0.25825 0.02358
0.23124 0.25809 0.02399
0.25809 0.25796 0.024096
0.28502 0.25778 0.024036
0.31229 0.25756 0.02391
0.34005 0.25727 0.023783
0.36852 0.25691 0.023756
0.39775 0.25651 0.023892
0.42748 0.25611 0.024204
0.45739 0.25569 0.024702
0.4874 0.25526 0.025268
0.5175 0.25481 0.025799
0.54764 0.25415 0.026428
0.57762 0.25305 0.027293
0.60733 0.25145 0.02838
0.63686 0.24938 0.029572
0.66658 0.24703 0.030632
0.69666 0.24458 0.031626
0.7271 0.24216 0.032764
0.7583 0.23989 0.033879
0.79093 0.23783 0.034713
0.82476 0.23608 0.035298
0.85929 0.2346 0.035585
0.89372 0.23324 0.035623
0.92685 0.23204 0.035452
0.95832 0.23088 0.034978
0.016843 0.28124 0.013257
0.043048 0.28203 0.015043
0.069469 0.28302 0.016805
0.09554 0.28397 0.018405
0.1221 0.2847 0.019836
0.14912 0.28519 0.021098
0.17654 0.28535 0.022207
0.20403 0.28529 0.023107
0.23128 0.28526 0.023662
0.25827 0.28537 0.023904
0.2852 0.28566 0.023965
0.31244 0.28603 0.023976
0.34016 0.28645 0.024029
0.36854 0.28688 0.024181
0.39768 0.28726 0.024469
0.42732 0.28756 0.024888
0.45715 0.28777 0.025438
0.48705 0.28793 0.026009
0.51697 0.28803 0.026487
0.5468 0.28792 0.026996
0.57633 0.28753 0.027654
0.60555 0.28683 0.028447
0.6347 0.28576 0.029315
0.66422 0.28428 0.030164
0.69435 0.28246 0.031009
0.72498 0.28047 0.032102
0.75656 0.27853 0.033327
0.78956 0.27681 0.034512
0.82376 0.27537 0.03558
0.8585 0.27416 0.036379
0.89287 0.27294 0.036806
0.92598 0.27153 0.036726
0.95743 0.26991 0.036174
0.017551 0.31062 0.012853
0.043988 0.3112 0.014476
0.070556 0.31189 0.016069
0.0965 0.31255 0.017563
0.12272 0.31307 0.018964
0.14945 0.31335 0.020294
0.17672 0.31345 0.021525
0.20419 0.31349 0.022575
0.2316 0.31369 0.023303
0.25881 0.31407 0.023697
0.28601 0.3147 0.023921
0.31331 0.31559 0.024086
0.34104 0.31654 0.024312
0.36937 0.31752 0.024637
0.39836 0.31844 0.025046
0.42779 0.3192 0.025512
0.45744 0.31975 0.026005
0.48724 0.32015 0.02644
0.51705 0.32046 0.026788
0.54668 0.3207 0.027101
0.57594 0.32081 0.027531
0.60491 0.32066 0.02814
0.6338 0.32037 0.028834
0.66303 0.3199 0.029545
0.69293 0.31917 0.03024
0.72344 0.31812 0.031269
0.75509 0.31679 0.032568
0.7883 0.31525 0.033939
0.82277 0.31371 0.035267
0.85765 0.31224 0.036352
0.89194 0.31077 0.037051
0.92499 0.30926 0.037266
0.95629 0.3078 0.037036
0.018041 0.34102 0.012712
0.044671 0.34142 0.014146
0.071334 0.34193 0.015556
0.097219 0.34242 0.016916
0.12325 0.34281 0.018241
0.1498 0.34312 0.019555
0.17697 0.34336 0.020849
0.20448 0.3436 0.022015
0.23207 0.34393 0.02293
0.25967 0.34439 0.023597
0.28713 0.34522 0.023986
0.31466 0.34628 0.02433
0.34238 0.34751 0.024709
0.37066 0.34875 0.025158
0.39946 0.34992 0.025623
0.42863 0.35091 0.02606
0.45802 0.35166 0.026448
0.48767 0.35224 0.026649
0.51742 0.35269 0.026726
0.54696 0.35303 0.026895
0.5761 0.3533 0.027236
0.60495 0.35352 0.027662
0.63375 0.35377 0.028147
0.66289 0.35389 0.028789
0.69257 0.35389 0.029483
0.72283 0.35367 0.030441
0.7542 0.35318 0.031707
0.78716 0.35232 0.033098
0.82152 0.35104 0.034473
0.85627 0.34936 0.035701
0.89058 0.34744 0.036538
0.92368 0.34552 0.036966
0.95514 0.34378 0.036974
0.018366 0.37261 0.012981
0.045214 0.37295 0.01421
0.071958 0.37338 0.015391
0.097762 0.37376 0.016564
0.12371 0.37407 0.017779
0.15022 0.37436 0.019048
0.17742 0.37468 0.020356
0.20502 0.37509 0.021588
0.23275 0.37563 0.022615
0.26048 0.37628 0.023422
0.2882 0.37702 0.02405
0.3159 0.37786 0.024582
0.34385 0.37879 0.025136
0.37209 0.38001 0.025623
0.40074 0.3812 0.026057
0.42968 0.38231 0.026381
0.45888 0.38328 0.026559
0.48834 0.38407 0.026566
0.51792 0.38465 0.026512
0.54736 0.38507 0.026601
0.57647 0.38543 0.026883
0.60535 0.38581 0.027221
0.63424 0.38628 0.02759
0.6633 0.38678 0.02813
0.69272 0.38722 0.028756
0.72281 0.38735 0.029629
0.7539 0.38731 0.030833
0.78649 0.38695 0.032177
0.82044 0.38621 0.033445
0.85476 0.38498 0.034625
0.8889 0.38326 0.035555
0.92197 0.38131 0.036133
0.95364 0.37936 0.036391
0.018641 0.40523 0.013547
0.045666 0.40549 0.01454
0.072413 0.40578 0.015482
0.098149 0.40602 0.016461
0.12408 0.40623 0.01754
0.15062 0.40648 0.018724
0.17793 0.4068 0.020003
0.20569 0.40722 0.021256
0.23354 0.40778 0.02235
0.26129 0.4084 0.02327
0.28905 0.40899 0.024063
0.31687 0.40966 0.024721
0.34493 0.41044 0.02532
0.37336 0.41131 0.025838
0.40204 0.41237 0.026178
0.43096 0.41342 0.026407
0.45999 0.41458 0.026452
0.48922 0.41559 0.026345
0.51856 0.41634 0.02623
0.54784 0.41687 0.02628
0.57694 0.41729 0.026536
0.60592 0.41777 0.026861
0.6349 0.41836 0.027184
0.6639 0.41896 0.027708
0.69316 0.41946 0.028375
0.72307 0.41981 0.029122
0.75386 0.42007 0.030092
0.7861 0.41992 0.031297
0.81974 0.41945 0.032406
0.85366 0.41865 0.033472
0.88751 0.4175 0.03437
0.92037 0.41616 0.03501
0.95202 0.41465 0.035411
0.018859 0.43832 0.014134
0.045957 0.43844 0.01489
0.072671 0.43854 0.015614
0.098354 0.4386 0.016412
0.12431 0.43865 0.017334
0.15095 0.43878 0.018416
0.1784 0.43902 0.019663
0.20628 0.43937 0.020929
0.23422 0.4398 0.022071
0.262 0.44029 0.023075
0.28972 0.44082 0.023965
0.31769 0.44135 0.024766
0.34589 0.44209 0.025338
0.37447 0.44296 0.025781
0.4033 0.44395 0.02605
0.4322 0.44511 0.026182
0.46121 0.44624 0.026174
0.49029 0.44723 0.026055
0.51935 0.4481 0.025939
0.5484 0.44874 0.025995
0.57744 0.4492 0.026235
0.60649 0.44965 0.026551
0.63555 0.45015 0.026912
0.6645 0.45069 0.027454
0.69364 0.4512 0.028149
0.72339 0.45161 0.028892
0.75403 0.45187 0.029753
0.7859 0.45193 0.030696
0.81922 0.45172 0.031535
0.85293 0.45119 0.032424
0.88657 0.45048 0.033214
0.91939 0.44968 0.033854
0.95094 0.44894 0.034344
0.018943 0.4715 0.014564
0.046012 0.47141 0.015106
0.07266 0.47124 0.015624
0.098303 0.47105 0.01626
0.12435 0.47091 0.017044
0.15116 0.47092 0.01806
0.17876 0.47108 0.01929
0.20675 0.47136 0.020573
0.23475 0.47172 0.02176
0.26261 0.47216 0.022835
0.29043 0.47273 0.023737
0.31848 0.4734 0.024557
0.34692 0.47415 0.02522
0.37561 0.47511 0.025617
0.40454 0.47616 0.025822
0.43358 0.47731 0.025866
0.46251 0.47855 0.025753
0.49136 0.47965 0.025571
0.52015 0.48049 0.025509
0.54895 0.48104 0.025657
0.57789 0.48133 0.025958
0.60692 0.48168 0.026249
0.63599 0.48197 0.026644
0.66497 0.48228 0.027214
0.6941 0.48266 0.02796
0.72372 0.48305 0.028781
0.7542 0.48332 0.029566
0.78584 0.48343 0.030388
0.81897 0.48335 0.031087
0.85254 0.48316 0.031721
0.88604 0.48291 0.032333
0.91894 0.48262 0.032895
0.95063 0.48249 0.033364
0.018762 0.50446 0.014774
0.045742 0.50405 0.015112
0.072312 0.5036 0.015478
0.098006 0.50321 0.016023
0.12425 0.50297 0.016743
0.15129 0.50294 0.017727
0.17907 0.50311 0.018956
0.20717 0.5034 0.020252
0.2353 0.50383 0.021414
0.26332 0.50438 0.022433
0.29128 0.50506 0.023351
0.3194 0.50586 0.024221
0.34799 0.50672 0.024946
0.37687 0.50773 0.025354
0.40585 0.50886 0.025469
0.43491 0.51 0.025432
0.46388 0.51113 0.025266
0.49251 0.51225 0.025046
0.52098 0.51313 0.024996
0.54944 0.51372 0.025168
0.5781 0.51403 0.025474
0.60705 0.5141 0.02582
0.63612 0.514 0.026294
0.66518 0.51401 0.026904
0.69442 0.51417 0.027677
0.72402 0.51444 0.028596
0.75439 0.51466 0.029458
0.7859 0.51485 0.030239
0.81887 0.51492 0.030875
0.85247 0.51494 0.031438
0.88602 0.51508 0.031961
0.91903 0.5154 0.032386
0.95091 0.51587 0.032793
0.018179 0.53695 0.014796
0.045099 0.53624 0.015004
0.071735 0.5356 0.015302
0.097608 0.53517 0.015831
0.12412 0.53493 0.016533
0.15145 0.53494 0.017505
0.17946 0.53521 0.018686
0.20771 0.53562 0.019923
0.23598 0.53611 0.021053
0.26415 0.53673 0.022036
0.29228 0.53751 0.022946
0.32051 0.53844 0.023824
0.34914 0.53943 0.024561
0.37816 0.54041 0.024968
0.40719 0.5415 0.025007
0.4362 0.54259 0.024877
0.4651 0.54362 0.024655
0.49365 0.54455 0.024469
0.52185 0.54541 0.024433
0.55 0.54607 0.024597
0.57836 0.54647 0.024884
0.607 0.54662 0.02523
0.63587 0.5465 0.025728
0.66499 0.54623 0.026429
0.69447 0.546 0.02729
0.72422 0.54597 0.028351
0.75457 0.54616 0.029346
0.78607 0.54638 0.030175
0.81899 0.54663 0.030843
0.8527 0.54695 0.031428
0.88643 0.54751 0.031972
0.91966 0.54827 0.032453
0.95177 0.54924 0.032857
0.017263 0.56898 0.014776
0.044257 0.56815 0.014944
0.071099 0.5675 0.015244
0.097243 0.56711 0.015794
0.12403 0.56698 0.016471
0.15172 0.56709 0.017357
0.17994 0.56741 0.018481
0.20831 0.56785 0.019692
0.23671 0.56838 0.020783
0.26506 0.56906 0.02171
0.29337 0.56989 0.022579
0.32174 0.57087 0.023423
0.35035 0.57189 0.024102
0.3793 0.57284 0.024446
0.40842 0.57371 0.024466
0.4374 0.57464 0.024211
0.46619 0.57554 0.023922
0.49462 0.57636 0.023757
0.52276 0.5771 0.023746
0.5507 0.57782 0.02388
0.57878 0.5784 0.024127
0.60711 0.57873 0.024477
0.63568 0.57879 0.025014
0.66467 0.57863 0.025783
0.6942 0.57835 0.026725
0.72414 0.57815 0.02791
0.75469 0.57811 0.029145
0.78637 0.57821 0.030142
0.81939 0.5787 0.0309
0.85331 0.57942 0.031593
0.88729 0.58047 0.032242
0.92071 0.58173 0.032851
0.95303 0.58315 0.033359
0.016258 0.60068 0.014865
0.043432 0.5999 0.015082
0.070551 0.59937 0.015395
0.097023 0.59913 0.015909
0.12408 0.59912 0.016574
0.15204 0.59931 0.017415
0.18045 0.59967 0.018466
0.20893 0.60015 0.019625
0.23746 0.60071 0.020668
0.26598 0.6014 0.021541
0.29446 0.60221 0.022339
0.32292 0.60312 0.023078
0.35148 0.60402 0.023635
0.38029 0.60482 0.023894
0.40934 0.60551 0.023831
0.4384 0.6062 0.023537
0.46715 0.60695 0.023166
0.4955 0.60769 0.022962
0.52359 0.6084 0.022924
0.55153 0.6091 0.023032
0.57944 0.60982 0.02323
0.60748 0.61038 0.023579
0.63576 0.61072 0.024165
0.66451 0.61082 0.02502
0.69398 0.61075 0.026071
0.72404 0.61066 0.027388
0.75477 0.61071 0.028802
0.78665 0.61099 0.029987
0.82002 0.61157 0.030965
0.85435 0.61248 0.031892
0.88862 0.61398 0.032705
0.92219 0.6157 0.033466
0.95463 0.61753 0.034153
0.015384 0.63232 0.015073
0.042781 0.63175 0.015339
0.070184 0.63138 0.015695
0.096935 0.63126 0.016232
0.12424 0.63135 0.016887
0.15243 0.63162 0.017664
0.18099 0.63206 0.018631
0.20957 0.63258 0.019741
0.23819 0.63316 0.020755
0.26685 0.63381 0.021576
0.29542 0.63453 0.022272
0.32389 0.63526 0.022848
0.35238 0.63595 0.023263
0.38108 0.63657 0.023395
0.41005 0.63712 0.023254
0.43918 0.63764 0.022919
0.46797 0.63826 0.022518
0.49633 0.63893 0.022229
0.5244 0.63963 0.022097
0.55235 0.64034 0.022142
0.58028 0.64105 0.02233
0.60815 0.64179 0.022664
0.63619 0.64242 0.023281
0.66472 0.6429 0.024208
0.69405 0.64322 0.025376
0.72415 0.64348 0.026819
0.75508 0.64384 0.028435
0.78722 0.64444 0.029883
0.82092 0.64539 0.031057
0.85553 0.6467 0.032171
0.89014 0.64829 0.033243
0.92396 0.65004 0.034225
0.95646 0.65202 0.035089
0.014743 0.66408 0.015322
0.042341 0.66372 0.015713
0.069986 0.66353 0.016143
0.096989 0.66355 0.016701
0.1245 0.66376 0.017343
0.15288 0.66412 0.018044
0.18158 0.66461 0.01891
0.21021 0.66518 0.019965
0.23888 0.66578 0.020954
0.26759 0.66637 0.021744
0.29616 0.66695 0.022334
0.32461 0.6675 0.022765
0.35303 0.66801 0.023034
0.38169 0.66848 0.023042
0.41061 0.66894 0.022818
0.43973 0.66938 0.022432
0.46868 0.66983 0.022068
0.49708 0.67043 0.021692
0.52519 0.67107 0.021445
0.55316 0.67176 0.0214
0.58114 0.67249 0.021547
0.60905 0.67329 0.021892
0.63703 0.67419 0.022505
0.66541 0.67507 0.023475
0.69459 0.67587 0.024728
0.7247 0.67659 0.026271
0.75575 0.6774 0.028076
0.78813 0.67839 0.029802
0.82212 0.67966 0.031202
0.85697 0.68122 0.032516
0.89171 0.68297 0.033775
0.9256 0.68477 0.03491
0.95821 0.68657 0.035901
0.014367 0.69593 0.015637
0.042168 0.69582 0.016138
0.069983 0.69588 0.016673
0.097189 0.69607 0.017253
0.12485 0.69639 0.017866
0.15336 0.69682 0.018492
0.18217 0.69733 0.019248
0.21087 0.69791 0.020213
0.23953 0.69852 0.021184
0.2682 0.69908 0.021963
0.29673 0.69958 0.022492
0.32513 0.70002 0.022819
0.35352 0.70043 0.022953
0.38216 0.70083 0.02287
0.41108 0.70123 0.022573
0.44017 0.70161 0.022183
0.46914 0.70195 0.021802
0.49773 0.7024 0.021424
0.52593 0.70302 0.021062
0.55398 0.70374 0.020922
0.58202 0.70453 0.020999
0.61006 0.7054 0.021333
0.63817 0.70645 0.021957
0.66654 0.70763 0.022921
0.69561 0.70883 0.024205
0.72566 0.70996 0.025799
0.75678 0.71111 0.027736
0.7893 0.71239 0.029695
0.82348 0.71381 0.031312
0.85849 0.71542 0.032811
0.8933 0.71716 0.034224
0.92714 0.71882 0.035473
0.95964 0.72034 0.036503
0.014281 0.72788 0.015974
0.04226 0.72802 0.016591
0.070233 0.7283 0.017208
0.097542 0.72868 0.017825
0.1253 0.72913 0.018407
0.15389 0.72964 0.018952
0.18277 0.7302 0.019603
0.21151 0.7308 0.020461
0.24017 0.73142 0.021388
0.26875 0.73199 0.02217
0.29719 0.73245 0.022696
0.32554 0.73283 0.022967
0.35392 0.73319 0.023019
0.38255 0.73353 0.022866
0.41149 0.73386 0.02253
0.44053 0.7342 0.022134
0.46949 0.73452 0.021751
0.49829 0.73492 0.021355
0.52669 0.73556 0.020958
0.55485 0.73637 0.02073
0.58299 0.73727 0.020733
0.61115 0.7383 0.021007
0.63941 0.73939 0.021603
0.6679 0.74063 0.022531
0.69693 0.74198 0.023783
0.72691 0.74334 0.025367
0.75804 0.74469 0.027346
0.7906 0.74608 0.029495
0.82483 0.74752 0.031339
0.85992 0.74903 0.03297
0.8947 0.75051 0.034499
0.92843 0.75193 0.035786
0.9608 0.75316 0.03682
0.014463 0.75989 0.016286
0.042593 0.76026 0.017019
0.07069 0.76072 0.017708
0.098072 0.76127 0.018347
0.12587 0.76185 0.018902
0.1545 0.76244 0.019367
0.1834 0.76306 0.019926
0.21218 0.7637 0.020675
0.24083 0.76433 0.021532
0.26929 0.76489 0.022315
0.29762 0.76535 0.02287
0.32589 0.76573 0.023138
0.35426 0.76604 0.023148
0.38287 0.76635 0.022933
0.41184 0.76665 0.022579
0.44087 0.767 0.022173
0.46988 0.76738 0.021781
0.49883 0.76785 0.02134
0.52753 0.76848 0.020982
0.55583 0.7694 0.020699
0.58408 0.77043 0.020627
0.61233 0.77154 0.02082
0.64061 0.77266 0.021325
0.66918 0.77379 0.022176
0.69831 0.77501 0.023369
0.72829 0.77639 0.024914
0.75939 0.77782 0.026874
0.79192 0.77924 0.02916
0.82608 0.78058 0.031245
0.86114 0.78185 0.032992
0.89586 0.78307 0.034568
0.92948 0.78418 0.035863
0.96172 0.78514 0.036881
0.014906 0.79195 0.016511
0.04314 0.79253 0.01737
0.071318 0.79316 0.018129
0.098754 0.79381 0.01877
0.12652 0.7945 0.019315
0.15515 0.79514 0.019717
0.18407 0.79578 0.020202
0.21285 0.79641 0.020843
0.24146 0.79701 0.021622
0.26984 0.79755 0.022376
0.29806 0.79802 0.022937
0.32624 0.79841 0.023215
0.35457 0.79873 0.023193
0.3832 0.79904 0.022936
0.41218 0.79936 0.022576
0.4413 0.79976 0.02217
0.47038 0.80025 0.021727
0.49944 0.80082 0.021263
0.52834 0.8015 0.020879
0.55691 0.80238 0.020617
0.58522 0.80342 0.020478
0.61348 0.80447 0.020588
0.64174 0.80551 0.020987
0.67031 0.80653 0.021745
0.69954 0.8076 0.022877
0.72965 0.80883 0.024407
0.76076 0.81019 0.026366
0.79318 0.81157 0.028699
0.82722 0.81286 0.030941
0.86218 0.81399 0.032802
0.89679 0.815 0.034442
0.93029 0.81587 0.035755
0.96245 0.81661 0.036759
0.015574 0.82415 0.016672
0.043871 0.82489 0.017653
0.072072 0.82565 0.018485
0.099513 0.82638 0.019131
0.12726 0.8271 0.01966
0.1558 0.82777 0.020044
0.18474 0.82838 0.020439
0.21348 0.82896 0.020972
0.24204 0.82948 0.021647
