a - Ai/luts/Golgo 13 The Professional US to FR_01.cube
LUT_3D_SIZE 5
0.012049 0.0030465 0.0037309
0.25227 0 0.015581
0.48971 0 0.018594
0.73032 0 0.023747
0.97741 0 0.026601
0.01281 0.23872 4.7104e-006
0.23595 0.24453 0.0175
0.47656 0.23778 0.024143
0.71673 0.21455 0.033681
0.97243 0.20258 0.039029
0.018825 0.48488 0
0.24032 0.49274 0.013648
0.46624 0.4955 0.023395
0.70433 0.49344 0.033804
0.95816 0.48307 0.044457
0.028744 0.73821 0
0.24817 0.74445 0.0073935
0.47026 0.74888 0.022745
0.69823 0.75279 0.033397
0.94855 0.74639 0.042158
0.035034 0.98683 0
0.25511 0.99291 0.0017855
0.47826 1 0.020134
0.69878 1 0.033485
0.9411 1 0.040047
0.027161 0 0.25014
0.25871 0 0.25066
0.4949 0 0.26312
0.73373 0 0.26522
0.97542 0 0.26319
0.03614 0.23347 0.23294
0.24625 0.24312 0.24822
0.4885 0.23023 0.26282
0.72212 0.21836 0.26943
0.97365 0.21746 0.27784
0.042591 0.47992 0.22629
0.25365 0.48666 0.24628
0.47726 0.49489 0.2571
0.71769 0.49152 0.27251
0.96579 0.47641 0.28641
0.050356 0.73202 0.22128
0.26107 0.73771 0.24052
0.48661 0.74683 0.25287
0.70747 0.75267 0.26887
0.95847 0.7457 0.28161
0.056931 0.97948 0.21063
0.26965 0.98802 0.23141
0.49629 0.995 0.24797
0.70891 1 0.26477
0.95157 1 0.27878
0.032697 0 0.49582
0.25913 0 0.50522
0.50839 0 0.51038
0.73471 0 0.51878
0.97137 0 0.51902
0.042094 0.22327 0.48142
0.25823 0.236 0.48985
0.50328 0.22481 0.50342
0.73501 0.2183 0.51723
0.97223 0.22423 0.52002
0.057638 0.47449 0.47346
0.26916 0.48625 0.48257
0.49084 0.49157 0.50173
0.73332 0.48032 0.51329
0.97256 0.47281 0.51783
0.067643 0.72096 0.46217
0.28035 0.72942 0.4757
0.49981 0.74141 0.49419
0.72084 0.74874 0.5066
0.97188 0.74323 0.5246
0.074626 0.97044 0.45057
0.29106 0.9774 0.46692
0.51135 0.98594 0.48279
0.72794 0.99562 0.4982
0.96784 1 0.51988
0.039484 0 0.75433
0.26951 0 0.76815
0.50851 0 0.77034
0.73521 0 0.7674
0.97237 0 0.76909
0.048823 0.20739 0.73776
0.27261 0.21238 0.75255
0.51104 0.21189 0.75748
0.74027 0.216 0.75834
0.97472 0.21718 0.76238
0.0645 0.46364 0.7194
0.28046 0.47548 0.72766
0.50958 0.48024 0.73947
0.74017 0.47194 0.74813
0.97868 0.47591 0.75482
0.075877 0.71088 0.70624
0.29229 0.72234 0.71154
0.5155 0.73158 0.72156
0.74092 0.74001 0.74129
0.97675 0.74376 0.75305
0.085465 0.96574 0.7014
0.30316 0.97219 0.70611
0.52379 0.9807 0.71433
0.74969 0.98939 0.73255
0.98241 0.99945 0.75268
0.051407 0 1
0.27407 0 1
0.50404 0 1
0.73373 0 1
0.97722 0 1
0.059415 0.19074 0.9949
0.27916 0.19462 1
0.51001 0.2025 1
0.73962 0.20658 1
0.98274 0.20902 1
0.068539 0.44599 0.97673
0.28824 0.45778 0.98471
0.51461 0.46138 0.99164
0.74469 0.46543 0.99448
0.98778 0.47442 1
0.080422 0.70208 0.96486
0.29964 0.70996 0.97246
0.52773 0.72229 0.98516
0.75198 0.73584 0.98996
0.98638 0.73963 0.99585
0.088464 0.96241 0.95757
0.30887 0.97042 0.9626
0.53846 0.97719 0.98063
0.76427 0.98381 0.99092
0.98818 0.98941 0.98555
