a - Ai/luts/Golgo 13 The Professional US to FR_02.cube
LUT_3D_SIZE 9
0.016542 0.010104 0.0075532
0.12153 0.0013671 0.013209
0.24134 0 0.0152
0.35819 0 0.015252
0.47929 0 0.017277
0.5974 0 0.018256
0.71349 0 0.022278
0.8356 0 0.025511
0.96132 0 0.022085
0.012483 0.11716 0.012405
0.11515 0.11606 0.016834
0.23591 0.11186 0.019125
0.35024 0.098552 0.017625
0.47057 0.081614 0.018867
0.59077 0.068073 0.020972
0.71013 0.060393 0.027197
0.83259 0.052803 0.030905
0.96039 0.049318 0.027631
0.014839 0.22441 0.014066
0.11972 0.23027 0.020737
0.23143 0.23141 0.024059
0.34094 0.22828 0.023272
0.45859 0.22283 0.02367
0.57995 0.2167 0.026741
0.69941 0.2065 0.031845
0.82608 0.19625 0.034566
0.95911 0.1909 0.033535
0.018041 0.34102 0.012712
0.12325 0.34281 0.018241
0.23207 0.34393 0.02293
0.34238 0.34751 0.024709
0.45802 0.35166 0.026448
0.5761 0.3533 0.027236
0.69257 0.35389 0.029483
0.82152 0.35104 0.034473
0.95514 0.34378 0.036974
0.018943 0.4715 0.014564
0.12435 0.47091 0.017044
0.23475 0.47172 0.02176
0.34692 0.47415 0.02522
0.46251 0.47855 0.025753
0.57789 0.48133 0.025958
0.6941 0.48266 0.02796
0.81897 0.48335 0.031087
0.95063 0.48249 0.033364
0.016258 0.60068 0.014865
0.12408 0.59912 0.016574
0.23746 0.60071 0.020668
0.35148 0.60402 0.023635
0.46715 0.60695 0.023166
0.57944 0.60982 0.02323
0.69398 0.61075 0.026071
0.82002 0.61157 0.030965
0.95463 0.61753 0.034153
0.014281 0.72788 0.015974
0.1253 0.72913 0.018407
0.24017 0.73142 0.021388
0.35392 0.73319 0.023019
0.46949 0.73452 0.021751
0.58299 0.73727 0.020733
0.69693 0.74198 0.023783
0.82483 0.74752 0.031339
0.9608 0.75316 0.03682
0.016417 0.85659 0.016842
0.12798 0.85963 0.019991
0.24253 0.86167 0.021592
0.35526 0.86307 0.022741
0.47177 0.86489 0.021078
0.58728 0.86752 0.019605
0.70164 0.87105 0.02165
0.82942 0.8759 0.02989
0.96349 0.87912 0.036191
0.019889 0.98675 0.017892
0.12987 0.98856 0.020956
0.2434 0.98867 0.020211
0.35645 0.98859 0.019692
0.47399 0.98956 0.017962
0.58979 0.99123 0.016883
0.70634 0.99512 0.019618
0.83392 1 0.028123
0.96558 1 0.035042
0.022533 0.012524 0.12289
0.12898 0.0013465 0.1269
0.24256 0 0.13122
0.36022 0 0.1333
0.48174 0 0.13554
0.60053 0 0.13998
0.71763 0 0.14511
0.83361 0 0.14703
0.95791 0 0.14406
0.017439 0.11834 0.12119
0.12224 0.1167 0.12558
0.23684 0.11224 0.13089
0.3536 0.099192 0.13367
0.47428 0.086204 0.13811
0.59422 0.075459 0.14392
0.71511 0.065934 0.14976
0.83083 0.058796 0.15229
0.95636 0.056509 0.1487
0.019536 0.22325 0.11905
0.12599 0.22705 0.12044
0.23401 0.22792 0.12389
0.34437 0.22718 0.12986
0.46431 0.22257 0.13861
0.58429 0.21521 0.14655
0.70415 0.20592 0.1532
0.82619 0.2 0.15646
0.95569 0.19624 0.15395
0.020808 0.34281 0.11931
0.12811 0.34281 0.11842
0.23744 0.34472 0.12237
0.34816 0.35032 0.13074
0.46081 0.35242 0.13875
0.57718 0.35115 0.14161
0.6988 0.34849 0.14702
0.82616 0.34568 0.15706
0.95338 0.34283 0.15803
0.02066 0.47347 0.12276
0.12799 0.47266 0.12417
0.24088 0.47291 0.12848
0.35169 0.47521 0.13559
0.46222 0.4774 0.13958
0.57908 0.48048 0.14
0.6977 0.48231 0.14271
0.8225 0.48126 0.14969
0.95219 0.47893 0.15403
0.019095 0.60191 0.12488
0.12733 0.60152 0.12842
0.24253 0.60196 0.13187
0.35447 0.60331 0.13674
0.46535 0.60516 0.13789
0.58109 0.60732 0.13812
0.69845 0.60856 0.14111
0.82468 0.61186 0.14751
0.95696 0.62089 0.15356
0.019195 0.7283 0.12536
0.1288 0.73083 0.13044
0.24364 0.73276 0.13418
0.35523 0.73304 0.13656
0.46736 0.73455 0.13739
0.58392 0.73723 0.13751
0.70188 0.74132 0.1405
0.83183 0.74723 0.14794
0.96398 0.75319 0.15464
0.022693 0.85683 0.12486
0.13222 0.86062 0.13073
0.24392 0.86151 0.13493
0.35562 0.861 0.13531
0.47053 0.86248 0.1357
0.58723 0.86579 0.13634
0.70664 0.86937 0.13948
0.83654 0.87464 0.14759
0.96665 0.87782 0.15358
0.026698 0.98706 0.12478
0.13344 0.98853 0.1309
0.24243 0.98744 0.13465
0.35563 0.98638 0.13365
0.47348 0.98765 0.13301
0.59153 0.99141 0.13583
0.71152 0.99654 0.14039
0.84049 1 0.14843
0.96839 1 0.15299
0.028212 0.011289 0.23993
0.13098 0.0019735 0.24427
0.2465 0 0.24592
0.36134 0 0.24771
0.48649 0 0.24767
0.60801 0 0.25631
0.72029 0 0.26307
0.83055 0 0.26415
0.95476 0 0.26177
0.022901 0.1119 0.23726
0.12544 0.10682 0.2436
0.24125 0.099347 0.24558
0.35491 0.092838 0.24654
0.48025 0.08664 0.24422
0.60531 0.079328 0.2577
0.71845 0.070707 0.2675
0.82854 0.065887 0.26988
0.95278 0.062611 0.26662
0.020717 0.22071 0.23315
0.12327 0.21952 0.23329
0.23543 0.21716 0.22795
0.3562 0.21827 0.23328
0.47637 0.22078 0.24523
0.59495 0.21311 0.2583
0.71012 0.20557 0.26827
0.82701 0.2035 0.27514
0.95115 0.20089 0.2725
0.020434 0.34316 0.23049
0.12586 0.34659 0.23169
0.24142 0.35422 0.2301
0.35939 0.35804 0.23676
0.46838 0.35432 0.2469
0.58333 0.34674 0.25527
0.70904 0.34094 0.2661
0.83062 0.34109 0.27495
0.94982 0.34308 0.27539
0.024118 0.47466 0.22911
0.13145 0.47744 0.23493
0.24571 0.47863 0.23981
0.35842 0.47789 0.24404
0.46577 0.47784 0.24978
0.58107 0.48067 0.25349
0.70337 0.4795 0.25838
0.82957 0.4743 0.2675
0.95404 0.47537 0.27433
0.025284 0.60259 0.22963
0.13253 0.60301 0.23749
0.24592 0.60354 0.24212
0.35736 0.60371 0.24383
0.468 0.60356 0.24735
0.58362 0.6064 0.25184
0.7023 0.6075 0.25593
0.83153 0.61245 0.26237
0.96164 0.62235 0.27152
0.025912 0.72771 0.23007
0.13456 0.73041 0.23671
0.24718 0.73314 0.24123
0.35733 0.73339 0.24478
0.46915 0.73405 0.24679
0.58752 0.73684 0.25167
0.7063 0.74232 0.25754
0.83868 0.74779 0.26394
0.9683 0.75256 0.27209
0.029457 0.85657 0.2295
0.13827 0.86009 0.23549
0.24798 0.86131 0.24051
0.35656 0.86023 0.2452
0.47163 0.8608 0.24622
0.59152 0.86428 0.25014
0.71302 0.86952 0.2583
0.84191 0.87578 0.26485
0.97049 0.87716 0.27088
0.032739 0.98654 0.22924
0.13964 0.98753 0.23439
0.24656 0.9867 0.2402
0.35578 0.98601 0.24517
0.47467 0.988 0.24685
0.5967 0.99296 0.24993
0.71888 0.99846 0.2588
0.8453 1 0.2661
0.97082 1 0.27038
0.03481 0.0098495 0.35458
0.13864 0 0.3614
0.25106 0 0.3678
0.36221 0 0.37072
0.49029 0 0.37366
0.61654 0 0.37897
0.72282 0 0.38298
0.83152 0 0.38548
0.95422 0 0.38876
0.030077 0.10704 0.35384
0.1324 0.099596 0.35856
0.24371 0.089598 0.36366
0.35474 0.082145 0.36616
0.48894 0.079144 0.37287
0.61768 0.078544 0.38207
0.72201 0.075966 0.3874
0.82906 0.07348 0.38858
0.95129 0.068964 0.39091
0.024319 0.2177 0.35115
0.12463 0.21352 0.35445
0.23734 0.20879 0.36102
0.36133 0.21674 0.3658
0.48705 0.22258 0.36801
0.60822 0.21219 0.37822
0.71803 0.20438 0.38682
0.83015 0.20353 0.39031
0.94979 0.20312 0.39275
0.02531 0.34057 0.35025
0.12922 0.34811 0.35533
0.24765 0.35982 0.36385
0.36339 0.36192 0.36915
0.47591 0.35587 0.37016
0.59522 0.34464 0.37991
0.71694 0.33873 0.38707
0.8338 0.33974 0.38882
0.94937 0.34419 0.39107
0.031185 0.47236 0.34766
0.14026 0.47758 0.35487
0.25164 0.47932 0.36204
0.36188 0.47704 0.36709
0.47142 0.4772 0.37002
0.58703 0.47828 0.37761
0.71046 0.47267 0.38409
0.83669 0.46856 0.38913
0.9568 0.4765 0.39513
0.034883 0.60237 0.34516
0.14164 0.60219 0.35308
0.25038 0.60168 0.35958
0.36024 0.60167 0.36408
0.4737 0.60226 0.36953
0.5895 0.60576 0.37676
0.70737 0.60963 0.38351
0.84028 0.61546 0.39108
0.96775 0.62339 0.40116
0.034377 0.72788 0.34549
0.14201 0.72914 0.35168
0.25235 0.73179 0.35835
0.36139 0.73408 0.36318
0.47443 0.73423 0.36984
0.59511 0.73661 0.37793
0.71326 0.74315 0.3861
0.84566 0.74788 0.39469
0.97267 0.75152 0.40117
0.035586 0.85715 0.34732
0.14489 0.85926 0.35138
0.2542 0.86054 0.35783
0.36202 0.86047 0.36372
0.47502 0.86131 0.3701
0.59958 0.86376 0.37766
0.72069 0.86964 0.38487
0.84779 0.87529 0.39238
0.9742 0.87504 0.39828
0.037267 0.98626 0.3481
0.14547 0.98621 0.35157
0.25366 0.98596 0.35757
0.36245 0.98642 0.36449
0.47873 0.9903 0.3713
0.6037 0.99467 0.37831
0.72666 0.99886 0.38411
0.8498 1 0.38971
0.97451 1 0.39554
0.040894 0.0040777 0.47862
0.14584 0 0.48357
0.2556 0 0.48786
0.36813 0 0.49319
0.49615 0 0.50027
0.62094 0 0.50532
0.72467 0 0.50885
0.83473 0 0.51326
0.95749 0 0.51658
0.033858 0.10052 0.47469
0.13841 0.091789 0.47903
0.24804 0.081916 0.48319
0.36337 0.075882 0.49025
0.4979 0.074681 0.50144
0.62375 0.076365 0.50516
0.72402 0.076688 0.50879
0.83164 0.073855 0.51367
0.95432 0.070017 0.5179
0.026752 0.2133 0.46754
0.13229 0.20821 0.47321
0.24787 0.21075 0.48185
0.36671 0.22134 0.49004
0.49321 0.22071 0.49873
0.61664 0.20925 0.5036
0.72254 0.20059 0.50767
0.83084 0.20026 0.51014
0.95375 0.19977 0.51503
0.027651 0.34171 0.46658
0.13692 0.35035 0.47001
0.25734 0.35774 0.47831
0.36716 0.35645 0.48349
0.48424 0.35092 0.49164
0.60647 0.34358 0.50154
0.71914 0.33885 0.50517
0.83358 0.34064 0.50701
0.95414 0.34397 0.51236
0.036244 0.47096 0.46775
0.14685 0.47645 0.47057
0.25766 0.47676 0.47547
0.3645 0.47555 0.47781
0.48004 0.47769 0.48404
0.59848 0.47654 0.49805
0.71593 0.47023 0.50572
0.84059 0.47205 0.51222
0.95934 0.48544 0.5188
0.039986 0.601 0.4675
0.14805 0.60057 0.47061
0.25547 0.60077 0.47436
0.36655 0.60224 0.4788
0.48438 0.60566 0.48728
0.59876 0.60999 0.50173
0.71479 0.615 0.51209
0.84798 0.62181 0.52373
0.96766 0.62737 0.52885
0.039186 0.72962 0.46826
0.14881 0.73022 0.47196
0.25821 0.73282 0.47603
0.36896 0.73528 0.48143
0.48585 0.73563 0.49203
0.60413 0.73732 0.50597
0.72049 0.74154 0.51387
0.85288 0.74543 0.52114
0.97269 0.74932 0.52672
0.040012 0.85931 0.47007
0.1503 0.8606 0.47503
0.2599 0.86085 0.47854
0.36965 0.86138 0.48313
0.48559 0.86167 0.49373
0.60745 0.86331 0.50587
0.72596 0.86853 0.51154
0.85508 0.87173 0.51673
0.97582 0.87246 0.5235
0.041083 0.98651 0.47158
0.15015 0.98592 0.47539
0.25952 0.9855 0.47872
0.37144 0.98747 0.4847
0.48761 0.99136 0.49522
0.61113 0.99451 0.50468
0.73068 0.99815 0.50963
0.85512 0.9999 0.51351
0.9791 1 0.52163
0.044884 0 0.60417
0.15097 0 0.60698
0.26102 0 0.61238
0.37636 0 0.62002
0.50128 0 0.6273
0.62162 0 0.62764
0.72967 0 0.62903
0.84007 0 0.63781
0.96094 0 0.64536
0.036929 0.091999 0.59966
0.1428 0.083484 0.60278
0.25436 0.075128 0.60843
0.37575 0.072746 0.6194
0.50335 0.074737 0.62753
0.62312 0.075243 0.62733
0.72866 0.072815 0.62744
0.83837 0.069169 0.6354
0.95949 0.067668 0.64513
0.030893 0.20554 0.59228
0.13966 0.20359 0.59823
0.25598 0.21025 0.6052
0.37723 0.2151 0.61482
0.49997 0.21219 0.62275
0.61922 0.20527 0.62618
0.72456 0.20019 0.6269
0.83637 0.19646 0.63294
0.96017 0.19701 0.64335
0.029618 0.34237 0.58676
0.14539 0.34772 0.59461
0.26232 0.35082 0.59924
0.37469 0.34845 0.60489
0.49402 0.34435 0.61356
0.61314 0.34054 0.62055
0.72126 0.33759 0.62536
0.8373 0.34018 0.63082
0.96236 0.34426 0.64367
0.038679 0.47177 0.58733
0.14996 0.4758 0.59071
0.26096 0.47557 0.5928
0.3694 0.47423 0.59784
0.49154 0.47382 0.6076
0.6117 0.47541 0.61823
0.72205 0.47649 0.62931
0.84534 0.48454 0.63696
0.96466 0.49459 0.64671
0.042612 0.60246 0.58918
0.14919 0.60228 0.59078
0.25967 0.60238 0.5934
0.37211 0.60457 0.59813
0.49632 0.60965 0.60548
0.61497 0.61432 0.61883
0.72465 0.61795 0.6349
0.85523 0.62158 0.643
0.96781 0.62719 0.6476
0.042632 0.73106 0.59178
0.15165 0.73359 0.59421
0.26126 0.73659 0.59658
0.37518 0.73744 0.59935
0.49931 0.73782 0.60764
0.61767 0.7378 0.62036
0.72695 0.73947 0.63289
0.85906 0.74133 0.63941
0.97347 0.74519 0.64362
0.045112 0.86062 0.59208
0.15499 0.86232 0.59605
0.26191 0.86263 0.59873
0.37524 0.8629 0.60154
0.49895 0.8634 0.61061
0.61847 0.86376 0.62217
0.73068 0.86735 0.63187
0.85982 0.86942 0.63682
0.97943 0.87101 0.64117
0.045934 0.98773 0.59259
0.15445 0.98627 0.5965
0.26206 0.9858 0.59955
0.37821 0.98923 0.60285
0.50021 0.9925 0.61181
0.61985 0.99384 0.62319
0.73479 0.99639 0.63102
0.8595 0.99876 0.63561
0.98538 1 0.64129
0.048626 0 0.7267
0.15461 0 0.72945
0.26782 0 0.73329
0.38467 0 0.73999
0.50477 0 0.74584
0.62053 0 0.74738
0.73262 0 0.74838
0.84885 0 0.75285
0.96995 0 0.76564
0.039684 0.083318 0.72059
0.14709 0.074984 0.72423
0.26439 0.069083 0.73148
0.38627 0.070559 0.74017
0.50616 0.074047 0.7461
0.62072 0.073869 0.74634
0.7311 0.070783 0.74692
0.84723 0.066716 0.75182
0.96992 0.066092 0.76562
0.036182 0.19974 0.71565
0.14525 0.20214 0.72053
0.26446 0.20618 0.7275
0.38714 0.20548 0.73504
0.50504 0.20226 0.74252
0.61911 0.20051 0.74408
0.72778 0.19928 0.74583
0.84478 0.19702 0.75322
0.97003 0.19745 0.76656
0.036816 0.33913 0.71194
0.15147 0.34282 0.71822
0.26533 0.34456 0.72177
0.38279 0.34193 0.727
0.50059 0.33839 0.73416
0.61781 0.33574 0.7384
0.72709 0.33597 0.74376
0.84613 0.33859 0.75433
0.972 0.34379 0.76649
0.042051 0.47279 0.70993
0.15237 0.47456 0.71275
0.26366 0.47304 0.71558
0.37828 0.4713 0.72209
0.49985 0.47058 0.72937
0.61922 0.47413 0.73458
0.73256 0.48095 0.74319
0.851 0.49159 0.7543
0.97328 0.4941 0.76466
0.044335 0.60468 0.71091
0.1518 0.6046 0.71284
0.26252 0.60511 0.71492
0.37827 0.60584 0.71978
0.50367 0.60869 0.72537
0.62608 0.61304 0.73161
0.74008 0.6164 0.74425
0.85772 0.62063 0.75587
0.97219 0.62407 0.76018
0.04509 0.73282 0.71229
0.15301 0.73495 0.71384
0.26371 0.73683 0.71494
0.38012 0.73775 0.71889
0.50742 0.73974 0.72467
0.62665 0.74025 0.73069
0.74059 0.73848 0.74324
0.86148 0.73894 0.75521
0.97648 0.7431 0.75746
0.048143 0.85956 0.7121
0.15594 0.86181 0.71226
0.26471 0.86311 0.71276
0.38194 0.86427 0.71826
0.50918 0.86579 0.72698
0.62684 0.86644 0.73498
0.73959 0.8686 0.74435
0.86246 0.86913 0.75302
0.98391 0.87287 0.75813
0.049454 0.98767 0.71085
0.15694 0.98725 0.7116
0.26606 0.98844 0.71435
0.38506 0.99178 0.72093
0.50954 0.99377 0.72933
0.62849 0.99411 0.73562
0.74227 0.99575 0.74366
0.86444 0.99846 0.7531
0.98969 1 0.76003
0.051132 0 0.84406
0.15752 0 0.84517
0.27232 0 0.84874
0.39109 0 0.85403
0.50803 0 0.85813
0.62237 0 0.86157
0.73508 0 0.86556
0.85462 0 0.87085
0.98242 0 0.88077
0.042656 0.074402 0.83857
0.15305 0.068301 0.84256
0.27197 0.066857 0.84879
0.39272 0.069909 0.85471
0.50876 0.072755 0.85818
0.62129 0.071059 0.86039
0.73411 0.068519 0.86405
0.854 0.06767 0.87126
0.9822 0.067377 0.88236
0.040078 0.19754 0.83411
0.15151 0.20014 0.83934
0.27237 0.19987 0.84656
0.3931 0.19846 0.85225
0.50833 0.19572 0.85513
0.62004 0.19618 0.85681
0.7325 0.1964 0.86163
0.85378 0.19729 0.8714
0.98063 0.19793 0.88387
0.042949 0.33761 0.83351
0.15436 0.34052 0.83652
0.26986 0.34069 0.84053
0.3888 0.33754 0.846
0.50479 0.33295 0.84971
0.62067 0.33109 0.85189
0.73478 0.33329 0.85809
0.85611 0.33794 0.87008
0.98131 0.34225 0.88252
0.045242 0.47141 0.83049
0.15482 0.47102 0.83332
0.26896 0.47067 0.83802
0.38506 0.4701 0.84317
0.50258 0.46984 0.84683
0.62375 0.47293 0.84926
0.74038 0.48062 0.85583
0.86094 0.4891 0.86677
0.98104 0.4896 0.87851
0.045775 0.60533 0.82912
0.1538 0.60562 0.83068
0.26668 0.60386 0.8347
0.38541 0.60329 0.84111
0.50673 0.60665 0.84651
0.63112 0.61155 0.84921
0.74973 0.61695 0.85445
0.86383 0.62237 0.86241
0.97778 0.62235 0.87329
0.046532 0.73226 0.82785
0.1539 0.73311 0.82859
0.26647 0.73423 0.8304
0.38697 0.7354 0.83696
0.51205 0.73877 0.84359
0.63394 0.74092 0.84854
0.75322 0.74117 0.85739
0.8666 0.74345 0.8678
0.97883 0.74673 0.87639
0.048196 0.85851 0.82623
0.15512 0.85974 0.82568
0.26819 0.86169 0.82755
0.39043 0.86437 0.83511
0.51584 0.8672 0.84246
0.63379 0.86843 0.8479
0.75158 0.8677 0.85726
0.87033 0.86694 0.872
0.98566 0.87506 0.88109
0.049206 0.98679 0.82465
0.15727 0.98815 0.82442
0.27176 0.99191 0.82808
0.39349 0.99555 0.83603
0.51639 0.99627 0.84363
0.63358 0.99497 0.84961
0.75167 0.99483 0.85731
0.87277 0.99658 0.86936
0.99357 1 0.87824
0.051011 0 0.96235
0.16006 0 0.96333
0.2777 0 0.96796
0.3948 0 0.97205
0.51024 0 0.97452
0.62627 0 0.9768
0.73991 0 0.98205
0.86196 0 0.9909
0.9927 0 1
0.045119 0.068305 0.9592
0.15857 0.066059 0.96329
0.27816 0.067551 0.9687
0.39673 0.07017 0.9733
0.50961 0.071107 0.97436
0.62429 0.067464 0.97555
0.73944 0.065008 0.98019
0.86333 0.06697 0.99012
0.99231 0.068815 1
0.04431 0.19526 0.95658
0.15798 0.19646 0.96165
0.2789 0.19542 0.96772
0.39638 0.19346 0.97157
0.50771 0.19148 0.97158
0.62281 0.19114 0.97181
0.73975 0.19285 0.97719
0.86428 0.19473 0.98809
0.99053 0.1956 1
0.046196 0.33659 0.95372
0.15809 0.33772 0.95736
0.27551 0.3363 0.96254
0.39218 0.33224 0.96607
0.50558 0.32873 0.96698
0.6236 0.32806 0.96855
0.74284 0.33085 0.97432
0.86704 0.33645 0.98519
0.99043 0.33962 0.99775
0.047427 0.46834 0.95188
0.15887 0.46885 0.95468
0.27384 0.46953 0.95866
0.3888 0.46946 0.96186
0.5049 0.46946 0.96484
0.62717 0.47356 0.96809
0.74756 0.47878 0.97257
0.87065 0.48328 0.98174
0.98935 0.48223 0.9925
0.046375 0.60416 0.94736
0.15742 0.60241 0.94999
0.27326 0.5996 0.95555
0.39129 0.60073 0.96084
0.51034 0.60617 0.96509
0.63382 0.61179 0.96875
0.75253 0.61739 0.97042
0.87173 0.621 0.97545
0.98614 0.62024 0.98511
0.046847 0.73032 0.94524
0.15518 0.73039 0.946
0.27258 0.73064 0.95098
0.39534 0.73285 0.95824
0.51687 0.73677 0.96475
0.63801 0.74034 0.9689
0.75836 0.74337 0.97097
0.87459 0.74822 0.9743
0.98568 0.75124 0.98482
0.047512 0.85696 0.944
0.15595 0.85817 0.94423
0.2753 0.86102 0.94939
0.39963 0.86403 0.95835
0.51966 0.86742 0.9638
0.63929 0.8686 0.96784
0.76153 0.86912 0.97257
0.88001 0.87154 0.97899
0.98962 0.87696 0.98702
0.04842 0.98632 0.94326
0.15936 0.9893 0.94469
0.27907 0.99379 0.95033
0.40138 0.99566 0.95818
0.52155 0.99588 0.96339
0.64 0.99585 0.96745
0.76085 0.9962 0.97415
0.8812 0.99469 0.98213
0.99614 0.99748 0.98788
