a - Ai/luts/Golgo 13 The Professional US to FR_02.cube
LUT_3D_SIZE 5
0.016542 0.010104 0.0075532
0.24134 0 0.0152
0.47929 0 0.017277
0.71349 0 0.022278
0.96132 0 0.022085
0.014839 0.22441 0.014066
0.23143 0.23141 0.024059
0.45859 0.22283 0.02367
0.69941 0.2065 0.031845
0.95911 0.1909 0.033535
0.018943 0.4715 0.014564
0.23475 0.47172 0.02176
0.46251 0.47855 0.025753
0.6941 0.48266 0.02796
0.95063 0.48249 0.033364
0.014281 0.72788 0.015974
0.24017 0.73142 0.021388
0.46949 0.73452 0.021751
0.69693 0.74198 0.023783
0.9608 0.75316 0.03682
0.019889 0.98675 0.017892
0.2434 0.98867 0.020211
0.47399 0.98956 0.017962
0.70634 0.99512 0.019618
0.96558 1 0.035042
0.028212 0.011289 0.23993
0.2465 0 0.24592
0.48649 0 0.24767
0.72029 0 0.26307
0.95476 0 0.26177
0.020717 0.22071 0.23315
0.23543 0.21716 0.22795
0.47637 0.22078 0.24523
0.71012 0.20557 0.26827
0.95115 0.20089 0.2725
0.024118 0.47466 0.22911
0.24571 0.47863 0.23981
0.46577 0.47784 0.24978
0.70337 0.4795 0.25838
0.95404 0.47537 0.27433
0.025912 0.72771 0.23007
0.24718 0.73314 0.24123
0.46915 0.73405 0.24679
0.7063 0.74232 0.25754
0.9683 0.75256 0.27209
0.032739 0.98654 0.22924
0.24656 0.9867 0.2402
0.47467 0.988 0.24685
0.71888 0.99846 0.2588
0.97082 1 0.27038
0.040894 0.0040777 0.47862
0.2556 0 0.48786
0.49615 0 0.50027
0.72467 0 0.50885
0.95749 0 0.51658
0.026752 0.2133 0.46754
0.24787 0.21075 0.48185
0.49321 0.22071 0.49873
0.72254 0.20059 0.50767
0.95375 0.19977 0.51503
0.036244 0.47096 0.46775
0.25766 0.47676 0.47547
0.48004 0.47769 0.48404
0.71593 0.47023 0.50572
0.95934 0.48544 0.5188
0.039186 0.72962 0.46826
0.25821 0.73282 0.47603
0.48585 0.73563 0.49203
0.72049 0.74154 0.51387
0.97269 0.74932 0.52672
0.041083 0.98651 0.47158
0.25952 0.9855 0.47872
0.48761 0.99136 0.49522
0.73068 0.99815 0.50963
0.9791 1 0.52163
0.048626 0 0.7267
0.26782 0 0.73329
0.50477 0 0.74584
0.73262 0 0.74838
0.96995 0 0.76564
0.036182 0.19974 0.71565
0.26446 0.20618 0.7275
0.50504 0.20226 0.74252
0.72778 0.19928 0.74583
0.97003 0.19745 0.76656
0.042051 0.47279 0.70993
0.26366 0.47304 0.71558
0.49985 0.47058 0.72937
0.73256 0.48095 0.74319
0.97328 0.4941 0.76466
0.04509 0.73282 0.71229
0.26371 0.73683 0.71494
0.50742 0.73974 0.72467
0.74059 0.73848 0.74324
0.97648 0.7431 0.75746
0.049454 0.98767 0.71085
0.26606 0.98844 0.71435
0.50954 0.99377 0.72933
0.74227 0.99575 0.74366
0.98969 1 0.76003
0.051011 0 0.96235
0.2777 0 0.96796
0.51024 0 0.97452
0.73991 0 0.98205
0.9927 0 1
0.04431 0.19526 0.95658
0.2789 0.19542 0.96772
0.50771 0.19148 0.97158
0.73975 0.19285 0.97719
0.99053 0.1956 1
0.047427 0.46834 0.95188
0.27384 0.46953 0.95866
0.5049 0.46946 0.96484
0.74756 0.47878 0.97257
0.98935 0.48223 0.9925
0.046847 0.73032 0.94524
0.27258 0.73064 0.95098
0.51687 0.73677 0.96475
0.75836 0.74337 0.97097
0.98568 0.75124 0.98482
0.04842 0.98632 0.94326
0.27907 0.99379 0.95033
0.52155 0.99588 0.96339
0.76085 0.9962 0.97415
0.99614 0.99748 0.98788
