a - Ai/luts/Golgo 13 The Professional US to FR_01.cube
LUT_3D_SIZE 9
0.012049 0.0030465 0.0037309
0.12484 0 0.013947
0.25227 0 0.015581
0.36849 0 0.017132
0.48971 0 0.018594
0.6128 0 0.022116
0.73032 0 0.023747
0.8518 0 0.025637
0.97741 0 0.026601
0.010736 0.12492 0.003471
0.11569 0.12431 0.013505
0.24204 0.11749 0.015442
0.36009 0.10457 0.017067
0.48366 0.096889 0.020991
0.60875 0.091796 0.026616
0.72531 0.08533 0.029032
0.84644 0.078081 0.030439
0.97394 0.073023 0.032127
0.01281 0.23872 4.7104e-006
0.11819 0.24278 0.011789
0.23595 0.24453 0.0175
0.35132 0.24386 0.019082
0.47656 0.23778 0.024143
0.59884 0.22706 0.030193
0.71673 0.21455 0.033681
0.84063 0.20574 0.035468
0.97243 0.20258 0.039029
0.015249 0.36058 0
0.12364 0.36476 0.0091782
0.23801 0.36801 0.016902
0.3518 0.37043 0.019662
0.46882 0.3689 0.023263
0.58781 0.36186 0.028622
0.70651 0.35373 0.033398
0.83447 0.34946 0.037982
0.96738 0.34113 0.044002
0.018825 0.48488 0
0.1285 0.48932 0.0046567
0.24032 0.49274 0.013648
0.3527 0.49466 0.019113
0.46624 0.4955 0.023395
0.58272 0.49557 0.028514
0.70433 0.49344 0.033804
0.8291 0.4895 0.038616
0.95816 0.48307 0.044457
0.023655 0.60896 0
0.13263 0.61273 0.0009899
0.244 0.61658 0.0099625
0.35554 0.62069 0.017897
0.46869 0.62381 0.023328
0.58162 0.62495 0.028978
0.69974 0.62302 0.033535
0.8235 0.61727 0.037941
0.95238 0.61137 0.042415
0.028744 0.73821 0
0.136 0.74169 0
0.24817 0.74445 0.0073935
0.35859 0.747 0.015669
0.47026 0.74888 0.022745
0.58297 0.75066 0.028967
0.69823 0.75279 0.033397
0.81735 0.75039 0.036377
0.94855 0.74639 0.042158
0.032539 0.86399 0
0.13823 0.86588 0
0.25141 0.86831 0.0039703
0.36134 0.8718 0.013912
0.47338 0.87607 0.022162
0.58702 0.88098 0.02982
0.69839 0.88247 0.034519
0.81446 0.88256 0.036501
0.94493 0.87961 0.04133
0.035034 0.98683 0
0.14069 0.9896 0
0.25511 0.99291 0.0017855
0.36655 0.99779 0.011599
0.47826 1 0.020134
0.58954 1 0.027992
0.69878 1 0.033485
0.81585 1 0.035773
0.9411 1 0.040047
0.023489 0 0.12265
0.13051 0 0.1283
0.25459 0 0.13271
0.36928 0 0.13483
0.49279 0 0.13577
0.61515 0 0.13729
0.73189 0 0.13832
0.85388 0 0.1403
0.97672 0 0.13983
0.022658 0.12213 0.11533
0.12424 0.12108 0.12495
0.24567 0.11636 0.13257
0.36269 0.10586 0.13803
0.48939 0.10167 0.14121
0.6123 0.096929 0.14349
0.7267 0.090221 0.14355
0.84941 0.083353 0.14607
0.97456 0.079444 0.14704
0.025043 0.23693 0.11233
0.12844 0.24094 0.12321
0.23955 0.24442 0.13108
0.35599 0.24243 0.13805
0.48306 0.23565 0.1432
0.60418 0.22709 0.14934
0.71794 0.21713 0.14993
0.84486 0.21042 0.15272
0.97371 0.20878 0.15492
0.027704 0.35865 0.11061
0.13345 0.36154 0.12121
0.24344 0.36593 0.12964
0.35361 0.36933 0.13522
0.47442 0.36616 0.13833
0.59465 0.35783 0.14524
0.71023 0.35257 0.151
0.84215 0.35033 0.15901
0.97076 0.34404 0.16396
0.029991 0.48173 0.10835
0.13728 0.48546 0.11787
0.24765 0.48852 0.12573
0.35678 0.49296 0.13254
0.47151 0.49621 0.13736
0.58957 0.49594 0.14455
0.7094 0.49351 0.15161
0.83545 0.48825 0.15874
0.9625 0.4806 0.16497
0.034368 0.60738 0.10621
0.14084 0.61154 0.11576
0.25137 0.61469 0.12315
0.36206 0.61846 0.12984
0.47462 0.62276 0.13659
0.58788 0.62414 0.14384
0.70492 0.62163 0.15043
0.82847 0.61561 0.15589
0.95638 0.60967 0.161
0.039523 0.73557 0.10323
0.14454 0.73893 0.11292
0.25434 0.74152 0.12082
0.36654 0.74489 0.12697
0.47732 0.74851 0.13558
0.58929 0.7513 0.14347
0.70182 0.75322 0.14905
0.8227 0.74933 0.15434
0.95353 0.74595 0.15963
0.042956 0.86033 0.098841
0.14762 0.86317 0.10896
0.25754 0.86611 0.11776
0.37052 0.86947 0.12393
0.48252 0.87448 0.13413
0.59337 0.87982 0.14272
0.70174 0.88119 0.1478
0.81898 0.88169 0.15347
0.94954 0.87805 0.15898
0.046202 0.98424 0.095218
0.15093 0.9874 0.10562
0.26132 0.99173 0.11585
0.37497 0.99529 0.12193
0.48741 0.99827 0.131
0.59669 1 0.14014
0.7026 1 0.14608
0.82028 1 0.1516
0.94571 1 0.15753
0.027161 0 0.25014
0.13256 0 0.25294
0.25871 0 0.25066
0.37528 0 0.25567
0.4949 0 0.26312
0.6154 0 0.26451
0.73373 0 0.26522
0.854 0 0.26481
0.97542 0 0.26319
0.030451 0.1136 0.2397
0.12975 0.11735 0.24558
0.25277 0.113 0.24963
0.37222 0.10558 0.25608
0.49323 0.10379 0.26571
0.61268 0.10159 0.26762
0.72863 0.095265 0.26887
0.85134 0.089384 0.2694
0.97405 0.086921 0.26843
0.03614 0.23347 0.23294
0.13693 0.23952 0.24142
0.24625 0.24312 0.24822
0.36476 0.23928 0.25561
0.4885 0.23023 0.26282
0.60875 0.22461 0.26587
0.72212 0.21836 0.26943
0.84915 0.21739 0.27644
0.97365 0.21746 0.27784
0.0401 0.35597 0.22974
0.14223 0.35882 0.2406
0.24991 0.36381 0.24743
0.36047 0.36622 0.25368
0.47814 0.36287 0.26018
0.60089 0.35626 0.26461
0.72123 0.35481 0.27128
0.85041 0.3531 0.28327
0.97184 0.34944 0.28654
0.042591 0.47992 0.22629
0.14634 0.4834 0.23793
0.25365 0.48666 0.24628
0.36302 0.48986 0.25118
0.47726 0.49489 0.2571
0.59845 0.49457 0.2651
0.71769 0.49152 0.27251
0.84309 0.48472 0.28229
0.96579 0.47641 0.28641
0.046338 0.60509 0.22416
0.15043 0.60923 0.23553
0.25762 0.61293 0.24483
0.36719 0.61636 0.24992
0.48235 0.62087 0.25494
0.59566 0.6226 0.26275
0.71193 0.61927 0.26943
0.83421 0.61164 0.27655
0.96149 0.60641 0.2825
0.050356 0.73202 0.22128
0.15448 0.73473 0.23148
0.26107 0.73771 0.24052
0.37217 0.74195 0.24709
0.48661 0.74683 0.25287
0.59712 0.75096 0.26201
0.70747 0.75267 0.26887
0.82894 0.74893 0.27521
0.95847 0.7457 0.28161
0.053459 0.85604 0.21613
0.15806 0.85943 0.22663
0.2648 0.86313 0.23605
0.37754 0.86774 0.24393
0.49215 0.87251 0.25084
0.60142 0.87725 0.25965
0.70738 0.87912 0.26745
0.82597 0.87956 0.27401
0.95418 0.87694 0.28071
0.056931 0.97948 0.21063
0.16233 0.98333 0.22188
0.26965 0.98802 0.23141
0.38244 0.99189 0.24032
0.49629 0.995 0.24797
0.60543 0.99865 0.25586
0.70891 1 0.26477
0.82692 1 0.27224
0.95157 1 0.27878
0.029848 0 0.37243
0.13503 0 0.37601
0.25694 0 0.37656
0.38293 0 0.37719
0.50255 0 0.38437
0.61777 0 0.39158
0.73406 0 0.39419
0.8515 0 0.39238
0.97419 0 0.39003
0.0331 0.10329 0.3648
0.13609 0.10649 0.37005
0.25491 0.10659 0.37143
0.38229 0.10412 0.37519
0.50163 0.10163 0.38338
0.61587 0.09891 0.39073
0.73075 0.095487 0.39579
0.85083 0.093924 0.39559
0.97279 0.092839 0.39438
0.039444 0.22951 0.35767
0.14426 0.23782 0.36152
0.25238 0.24232 0.36678
0.3744 0.23654 0.37421
0.49664 0.22598 0.38117
0.61241 0.22122 0.38784
0.72856 0.21809 0.3952
0.85354 0.22169 0.39759
0.97296 0.22389 0.39888
0.047215 0.35194 0.35253
0.151 0.35754 0.35789
0.25654 0.36263 0.36583
0.3669 0.36553 0.37359
0.48569 0.36016 0.38052
0.60777 0.35636 0.38784
0.73195 0.35614 0.39871
0.85518 0.35554 0.40123
0.97209 0.35266 0.40283
0.052215 0.47731 0.34887
0.15688 0.48176 0.35636
0.26138 0.48624 0.3648
0.36866 0.48998 0.37415
0.48374 0.49315 0.38118
0.60455 0.49157 0.38566
0.72729 0.48602 0.39193
0.85012 0.47887 0.39787
0.96919 0.47283 0.40264
0.056488 0.6022 0.3456
0.16181 0.60576 0.35401
0.26587 0.60953 0.3632
0.37257 0.61366 0.37229
0.48748 0.61863 0.37815
0.60205 0.62148 0.38313
0.71873 0.618 0.38857
0.84087 0.60821 0.39447
0.96859 0.60579 0.40188
0.060106 0.7273 0.34023
0.16512 0.72954 0.34815
0.27034 0.73327 0.35893
0.37861 0.73831 0.3684
0.49345 0.74477 0.37446
0.60481 0.74888 0.38105
0.71452 0.75189 0.38828
0.83546 0.74896 0.3954
0.9658 0.74471 0.40348
0.062907 0.85083 0.33399
0.16919 0.85448 0.34226
0.27508 0.85868 0.35431
0.38551 0.86401 0.36469
0.49942 0.86996 0.37148
0.60867 0.87392 0.37755
0.71578 0.87629 0.38511
0.83303 0.87766 0.39368
0.96134 0.87508 0.40172
0.066676 0.9749 0.32884
0.17339 0.97865 0.33767
0.27974 0.98244 0.34908
0.39116 0.98609 0.35847
0.50459 0.99097 0.36675
0.61256 0.9953 0.37381
0.71832 0.99916 0.38117
0.83422 1 0.39123
0.95893 1 0.39989
0.032697 0 0.49582
0.13839 0 0.5
0.25913 0 0.50522
0.38553 0 0.50825
0.50839 0 0.51038
0.62406 0 0.51521
0.73471 0 0.51878
0.85017 0 0.52069
0.97137 0 0.51902
0.036039 0.09627 0.48861
0.14002 0.099357 0.49229
0.25819 0.10031 0.49865
0.38728 0.10014 0.50222
0.50887 0.098152 0.50622
0.62399 0.095567 0.51232
0.73418 0.094489 0.51869
0.8502 0.094294 0.52196
0.9707 0.094928 0.52077
0.042094 0.22327 0.48142
0.14747 0.23061 0.48394
0.25823 0.236 0.48985
0.38386 0.23209 0.49634
0.50328 0.22481 0.50342
0.62114 0.21889 0.50968
0.73501 0.2183 0.51723
0.85294 0.22244 0.52126
0.97223 0.22423 0.52002
0.050241 0.34881 0.47569
0.15572 0.35553 0.47847
0.26353 0.36201 0.48311
0.37777 0.36469 0.49077
0.49437 0.36006 0.50247
0.61789 0.35477 0.51065
0.73819 0.35287 0.51665
0.85524 0.35279 0.51854
0.97189 0.35226 0.51785
0.057638 0.47449 0.47346
0.1623 0.48024 0.47729
0.26916 0.48625 0.48257
0.37939 0.48987 0.49107
0.49084 0.49157 0.50173
0.61018 0.48871 0.50781
0.73332 0.48032 0.51329
0.85303 0.47463 0.51543
0.97256 0.47281 0.51783
0.063785 0.59728 0.46874
0.16849 0.60174 0.47374
0.27427 0.60595 0.47981
0.38265 0.6104 0.48844
0.49333 0.6145 0.49857
0.60805 0.61789 0.5047
0.72378 0.61534 0.51072
0.84849 0.61079 0.51701
0.97301 0.60951 0.52415
0.067643 0.72096 0.46217
0.17319 0.72393 0.46813
0.28035 0.72942 0.4757
0.38807 0.73535 0.48476
0.49981 0.74141 0.49419
0.61104 0.74639 0.50068
0.72084 0.74874 0.5066
0.84581 0.7448 0.51432
0.97188 0.74323 0.5246
0.07046 0.8451 0.45571
0.17853 0.84894 0.46266
0.28676 0.85411 0.47152
0.39484 0.85941 0.48065
0.5057 0.86488 0.48878
0.6151 0.86902 0.49606
0.72287 0.87283 0.50263
0.843 0.87548 0.51045
0.96917 0.87267 0.52192
0.074626 0.97044 0.45057
0.18355 0.97444 0.45761
0.29106 0.9774 0.46692
0.40006 0.98003 0.47536
0.51135 0.98594 0.48279
0.61966 0.99065 0.48968
0.72794 0.99562 0.4982
0.84455 1 0.5081
0.96784 1 0.51988
0.035109 0 0.62661
0.14407 0 0.63253
0.26439 0 0.63951
0.38734 0 0.64324
0.5088 0 0.64388
0.62589 0 0.64352
0.73645 0 0.64359
0.85184 0 0.6464
0.97028 0 0.64836
0.03815 0.087358 0.61776
0.14581 0.091178 0.62343
0.26548 0.092164 0.6327
0.38937 0.092539 0.63783
0.51115 0.092149 0.63855
0.62702 0.091322 0.63926
0.73793 0.091127 0.63957
0.85296 0.092745 0.64384
0.96935 0.093439 0.64732
0.044411 0.21559 0.60785
0.151 0.2219 0.61294
0.26637 0.22425 0.62158
0.38868 0.22196 0.628
0.50921 0.21883 0.63101
0.62636 0.21726 0.63567
0.73964 0.21767 0.63787
0.85565 0.21996 0.64149
0.971 0.22102 0.64454
0.053268 0.34547 0.60133
0.15882 0.35291 0.60488
0.26904 0.35755 0.61062
0.3853 0.35908 0.61649
0.50626 0.35557 0.62307
0.62589 0.35146 0.63207
0.74057 0.34997 0.63564
0.85595 0.3484 0.63713
0.9723 0.34863 0.63902
0.061711 0.47057 0.59538
0.16607 0.47701 0.59933
0.27519 0.4836 0.60405
0.38663 0.48845 0.6092
0.5003 0.48843 0.6158
0.62011 0.4834 0.62641
0.7362 0.4769 0.63209
0.85638 0.47301 0.634
0.97427 0.47604 0.63779
0.068529 0.5915 0.59042
0.1729 0.59624 0.5939
0.2809 0.60228 0.59849
0.39089 0.60634 0.60478
0.50191 0.61118 0.61146
0.61677 0.61437 0.61996
0.73006 0.61385 0.62968
0.8565 0.61078 0.63537
0.97564 0.61035 0.6391
0.073101 0.71492 0.58452
0.17941 0.71944 0.58881
0.28768 0.7259 0.59465
0.3959 0.73173 0.6
0.50822 0.73701 0.60669
0.62069 0.74264 0.61595
0.72795 0.74415 0.62873
0.85385 0.74164 0.63595
0.97665 0.74233 0.63925
0.07706 0.84026 0.57985
0.18598 0.84484 0.58523
0.2944 0.85058 0.59084
0.40183 0.85539 0.59588
0.51324 0.85965 0.60155
0.62515 0.86325 0.61073
0.73027 0.86767 0.62207
0.85357 0.87233 0.63227
0.97641 0.87037 0.63958
0.080965 0.96736 0.57732
0.19112 0.97073 0.58247
0.29888 0.97366 0.58789
0.40613 0.97681 0.59307
0.51831 0.98182 0.59789
0.62867 0.98638 0.60653
0.73763 0.99145 0.61727
0.85578 0.99795 0.62847
0.97671 1 0.63863
0.039484 0 0.75433
0.15035 0 0.76121
0.26951 0 0.76815
0.38788 0 0.77013
0.50851 0 0.77034
0.62337 0 0.76897
0.73521 0 0.7674
0.85359 0 0.76517
0.97237 0 0.76909
0.041851 0.078681 0.74611
0.15399 0.082845 0.75448
0.27152 0.084233 0.76239
0.39005 0.084871 0.76426
0.51083 0.085363 0.76433
0.62507 0.085672 0.76351
0.73703 0.086549 0.76244
0.85556 0.08852 0.7605
0.97347 0.090871 0.76513
0.048823 0.20739 0.73776
0.15767 0.21202 0.74515
0.27261 0.21238 0.75255
0.39097 0.21152 0.756
0.51104 0.21189 0.75748
0.62735 0.21381 0.75832
0.74027 0.216 0.75834
0.85802 0.21783 0.75848
0.97472 0.21718 0.76238
0.056417 0.33788 0.72865
0.16382 0.34351 0.73355
0.27422 0.34802 0.73961
0.38996 0.34868 0.7456
0.51254 0.34651 0.75116
0.6288 0.34585 0.75295
0.74182 0.34512 0.75337
0.85681 0.344 0.75463
0.97562 0.34359 0.75779
0.0645 0.46364 0.7194
0.17034 0.47015 0.72255
0.28046 0.47548 0.72766
0.39085 0.48038 0.73319
0.50958 0.48024 0.73947
0.62556 0.47686 0.74568
0.74017 0.47194 0.74813
0.85805 0.47227 0.75172
0.97868 0.47591 0.75482
0.071225 0.58572 0.71135
0.17608 0.59067 0.71361
0.28663 0.59618 0.71844
0.39583 0.601 0.72387
0.50931 0.60548 0.72974
0.62426 0.60767 0.73775
0.74079 0.6125 0.74481
0.85897 0.61113 0.75229
0.97882 0.60826 0.7541
0.075877 0.71088 0.70624
0.18312 0.716 0.70915
0.29229 0.72234 0.71154
0.40039 0.72699 0.71604
0.5155 0.73158 0.72156
0.63117 0.73787 0.73033
0.74092 0.74001 0.74129
0.85842 0.74056 0.75207
0.97675 0.74376 0.75305
0.080829 0.83703 0.70329
0.1898 0.84213 0.70598
0.29863 0.84783 0.70819
0.40565 0.85211 0.71114
0.52005 0.85643 0.71584
0.63491 0.85919 0.72387
0.74291 0.86272 0.73542
0.86222 0.86727 0.74835
0.9795 0.87023 0.75313
0.085465 0.96574 0.7014
0.19458 0.96885 0.70358
0.30316 0.97219 0.70611
0.41056 0.97633 0.70965
0.52379 0.9807 0.71433
0.63838 0.98465 0.72146
0.74969 0.98939 0.73255
0.866 0.99664 0.74503
0.98241 0.99945 0.75268
0.045421 0 0.87979
0.15726 0 0.88688
0.27244 0 0.89203
0.38752 0 0.8932
0.50705 0 0.89131
0.62172 0 0.89024
0.73306 0 0.89003
0.85147 0 0.88977
0.97609 0 0.88834
0.048039 0.072162 0.87356
0.16116 0.075733 0.881
0.27496 0.07636 0.88591
0.38959 0.077455 0.88728
0.50901 0.078855 0.88599
0.62391 0.08002 0.88456
0.73535 0.081671 0.88496
0.85393 0.084986 0.8847
0.97806 0.087901 0.88514
0.054324 0.19921 0.86615
0.16373 0.20171 0.8724
0.27654 0.20283 0.87742
0.39214 0.20429 0.88005
0.51121 0.20655 0.88098
0.62637 0.20951 0.87975
0.73957 0.21149 0.87997
0.85771 0.21367 0.88006
0.97891 0.21401 0.88238
0.0597 0.32892 0.85682
0.16806 0.33344 0.86084
0.2788 0.33658 0.86598
0.39514 0.33815 0.87177
0.51395 0.3394 0.8746
0.62834 0.33962 0.87397
0.74104 0.33977 0.87416
0.8577 0.33972 0.87447
0.97977 0.34035 0.87841
0.066616 0.45403 0.84676
0.17374 0.45942 0.84998
0.28501 0.46553 0.85496
0.39599 0.47025 0.8598
0.51349 0.4701 0.86465
0.62767 0.46848 0.86578
0.74241 0.46835 0.869
0.86034 0.47216 0.87191
0.98271 0.47594 0.87696
0.072319 0.57893 0.8371
0.18069 0.58383 0.8412
0.29102 0.5887 0.84577
0.40096 0.59304 0.8508
0.51501 0.59814 0.85601
0.62994 0.60316 0.86052
0.74686 0.60948 0.8669
0.86159 0.60897 0.87061
0.98338 0.60606 0.87647
0.078351 0.70698 0.83129
0.18572 0.71159 0.83427
0.29534 0.71621 0.83754
0.40574 0.71984 0.84252
0.52232 0.7247 0.85012
0.63823 0.73211 0.85617
0.74976 0.73572 0.86233
0.86202 0.73961 0.86784
0.98173 0.7422 0.87457
0.083151 0.83529 0.82787
0.19109 0.83963 0.82998
0.30054 0.84476 0.83137
0.41027 0.84891 0.8356
0.5268 0.85273 0.84406
0.64265 0.85468 0.8521
0.75433 0.85971 0.85983
0.86825 0.86599 0.86789
0.98437 0.87026 0.87299
0.086834 0.96416 0.82625
0.19605 0.96709 0.82775
0.30593 0.97196 0.82917
0.41487 0.97684 0.83408
0.5297 0.98029 0.84127
0.64625 0.98365 0.84899
0.76076 0.98828 0.85803
0.87274 0.99326 0.86569
0.98629 0.9961 0.86825
0.051407 0 1
0.16235 0 1
0.27407 0 1
0.38754 0 1
0.50404 0 1
0.62036 0 1
0.73373 0 1
0.8513 0 1
0.97722 0 1
0.053955 0.066343 1
0.16581 0.068777 1
0.27647 0.06923 1
0.38991 0.070839 1
0.50659 0.073281 1
0.62253 0.075308 1
0.736 0.077081 1
0.85481 0.081299 1
0.98068 0.085609 1
0.059415 0.19074 0.9949
0.16752 0.19331 0.99911
0.27916 0.19462 1
0.39439 0.19868 1
0.51001 0.2025 1
0.62444 0.20491 1
0.73962 0.20658 1
0.85837 0.20793 1
0.98274 0.20902 1
0.062411 0.32009 0.98444
0.17167 0.32318 0.98863
0.28352 0.32681 0.99356
0.39868 0.32931 0.9985
0.51311 0.33146 0.99964
0.62718 0.33357 0.9983
0.74071 0.33495 0.99823
0.85903 0.3361 1
0.98424 0.33787 1
0.068539 0.44599 0.97673
0.1779 0.45215 0.98034
0.28824 0.45778 0.98471
0.40028 0.46162 0.98859
0.51461 0.46138 0.99164
0.62889 0.46101 0.99236
0.74469 0.46543 0.99448
0.86328 0.4705 0.99753
0.98778 0.47442 1
0.075119 0.57184 0.97091
0.18455 0.57738 0.97453
0.29439 0.58191 0.97838
0.4055 0.58749 0.98254
0.51739 0.59395 0.98628
0.63446 0.60158 0.98804
0.74974 0.60611 0.99063
0.8659 0.60533 0.99391
0.98881 0.60478 0.99965
0.080422 0.70208 0.96486
0.18895 0.70597 0.96805
0.29964 0.70996 0.97246
0.41199 0.71385 0.97821
0.52773 0.72229 0.98516
0.64234 0.73117 0.98824
0.75198 0.73584 0.98996
0.86629 0.73925 0.99156
0.98638 0.73963 0.99585
0.085498 0.83248 0.96086
0.19313 0.83598 0.96343
0.30345 0.83975 0.96668
0.4187 0.84486 0.97391
0.53505 0.84941 0.98392
0.64855 0.85474 0.98996
0.75793 0.86118 0.99277
0.86883 0.86528 0.99059
0.98718 0.86668 0.99167
0.088464 0.96241 0.95757
0.19738 0.96536 0.9598
0.30887 0.97042 0.9626
0.42327 0.97504 0.96971
0.53846 0.97719 0.98063
0.65338 0.97976 0.9885
0.76427 0.98381 0.99092
0.87112 0.98895 0.98672
0.98818 0.98941 0.98555
