a - Ai/luts/Golgo 13 The Professional US to FR_01.cube
LUT_3D_SIZE 33
0.012049 0.0030465 0.0037309
0.038289 0.0018929 0.00706
0.065161 0.0003201 0.010106
0.093975 0 0.01254
0.12484 0 0.013947
0.15721 0 0.01453
0.18981 0 0.014773
0.22161 0 0.015075
0.25227 0 0.015581
0.28182 0 0.016109
0.31056 0 0.016508
0.33931 0 0.016846
0.36849 0 0.017132
0.39799 0 0.017462
0.42806 0 0.017634
0.45875 0 0.017967
0.48971 0 0.018594
0.52065 0 0.019397
0.55163 0 0.020358
0.58242 0 0.021321
0.6128 0 0.022116
0.64283 0 0.022782
0.67223 0 0.023291
0.70135 0 0.023565
0.73032 0 0.023747
0.75957 0 0.024043
0.78964 0 0.024475
0.82047 0 0.025031
0.8518 0 0.025637
0.88348 0 0.02618
0.91519 0 0.02657
0.94661 0 0.026716
0.97741 0 0.026601
0.011068 0.037014 0.0039221
0.037139 0.036017 0.0074015
0.063335 0.034819 0.010313
0.091677 0.032977 0.012654
0.12224 0.030467 0.013962
0.15459 0.027559 0.01442
0.18736 0.024772 0.014453
0.21938 0.022308 0.014593
0.25015 0.020069 0.015011
0.27976 0.017907 0.015616
0.30874 0.0157 0.016233
0.33771 0.013515 0.016797
0.36686 0.011767 0.017187
0.39631 0.010015 0.017596
0.42626 0.0082008 0.017951
0.45688 0.0063741 0.018325
0.4879 0.0046571 0.018985
0.51907 0.0031293 0.019851
0.55018 0.0017783 0.020898
0.58116 0.00057054 0.022003
0.61187 0 0.023101
0.64205 0 0.023954
0.67147 0 0.024534
0.70049 0 0.024854
0.72933 0 0.025054
0.75844 0 0.025337
0.78841 0 0.02574
0.81914 0 0.026251
0.85049 0 0.026885
0.88229 0 0.027461
0.91405 0 0.027861
0.94553 0 0.02806
0.97646 0 0.028022
0.010517 0.068455 0.0041356
0.036315 0.068006 0.0076065
0.062109 0.067143 0.01061
0.089565 0.065681 0.012911
0.11933 0.063281 0.014082
0.15149 0.060306 0.014436
0.18451 0.057261 0.014419
0.21683 0.054321 0.014404
0.24783 0.051511 0.014616
0.27759 0.04891 0.015162
0.3066 0.04648 0.01587
0.33553 0.044135 0.016504
0.36489 0.041753 0.017092
0.3946 0.039437 0.017689
0.42445 0.03767 0.018268
0.45514 0.03592 0.018766
0.48633 0.034379 0.019564
0.51771 0.033062 0.020563
0.54903 0.031955 0.021703
0.58008 0.031048 0.022874
0.61084 0.030079 0.024051
0.64109 0.029043 0.02506
0.67062 0.027861 0.025865
0.69955 0.026732 0.026268
0.72826 0.025506 0.026456
0.75723 0.024144 0.026666
0.78709 0.022663 0.026986
0.81778 0.021085 0.027488
0.84916 0.01955 0.028058
0.88105 0.018062 0.028615
0.91287 0.016616 0.029044
0.94442 0.015231 0.029302
0.97552 0.013993 0.029356
0.010547 0.097412 0.004133
0.035945 0.097359 0.0075825
0.061238 0.096943 0.010532
0.087825 0.095908 0.01269
0.11692 0.09425 0.013847
0.14883 0.092158 0.01433
0.18177 0.089806 0.014532
0.214 0.087142 0.014698
0.24496 0.084205 0.014931
0.27483 0.081024 0.015235
0.30403 0.077851 0.015684
0.33315 0.074923 0.016266
0.36262 0.072334 0.016933
0.39248 0.070015 0.017649
0.42262 0.067956 0.018516
0.4536 0.065964 0.019308
0.48501 0.064629 0.020297
0.51657 0.063522 0.021496
0.54803 0.062521 0.0228
0.57918 0.061585 0.024104
0.60989 0.060624 0.025299
0.64002 0.05954 0.02628
0.66937 0.058289 0.027015
0.69825 0.056722 0.027514
0.72699 0.05497 0.027825
0.75591 0.053407 0.02794
0.78565 0.051797 0.028168
0.81632 0.05011 0.028635
0.84783 0.0485 0.029203
0.87976 0.04699 0.029744
0.91165 0.045537 0.030192
0.94332 0.044184 0.030519
0.97465 0.043034 0.030686
0.010736 0.12492 0.003471
0.035864 0.12502 0.0069506
0.060774 0.12494 0.0099391
0.086945 0.12468 0.01219
0.11569 0.12431 0.013505
0.14715 0.12352 0.014227
0.17965 0.12207 0.014687
0.21145 0.12004 0.01506
0.24204 0.11749 0.015442
0.27163 0.11445 0.015809
0.30079 0.11107 0.016137
0.33019 0.10767 0.016513
0.36009 0.10457 0.017067
0.39035 0.10197 0.017798
0.42084 0.099909 0.018753
0.45198 0.098266 0.019743
0.48366 0.096889 0.020991
0.5155 0.095403 0.022512
0.54696 0.094282 0.02398
0.57811 0.093079 0.025389
0.60875 0.091796 0.026616
0.63875 0.090384 0.027633
0.66796 0.088826 0.028391
0.69671 0.087114 0.028842
0.72531 0.08533 0.029032
0.75433 0.083419 0.02916
0.78414 0.081436 0.029468
0.81481 0.079726 0.029863
0.84644 0.078081 0.030439
0.87847 0.076553 0.031013
0.91048 0.075169 0.031494
0.94231 0.073955 0.031884
0.97394 0.073023 0.032127
0.011053 0.15262 0.0025665
0.036049 0.153 0.0060454
0.060873 0.15333 0.0091162
0.087035 0.15371 0.011569
0.11568 0.15408 0.013288
0.14659 0.15422 0.014282
0.1783 0.15377 0.014937
0.2094 0.15251 0.015496
0.23941 0.15053 0.015972
0.26855 0.14799 0.016366
0.29745 0.14506 0.016657
0.3269 0.1419 0.016953
0.35719 0.13884 0.017401
0.38801 0.13623 0.018167
0.4191 0.13418 0.019251
0.45054 0.1326 0.020515
0.48236 0.13113 0.021815
0.51399 0.12965 0.023355
0.54542 0.12796 0.02496
0.57662 0.12593 0.026515
0.60718 0.12414 0.027797
0.63708 0.1223 0.028871
0.66623 0.12037 0.029684
0.6949 0.11837 0.030196
0.72358 0.11631 0.030399
0.75258 0.1143 0.030445
0.78233 0.11231 0.030641
0.81318 0.11039 0.031119
0.845 0.10858 0.031803
0.87719 0.1071 0.032433
0.90942 0.10586 0.032973
0.9415 0.1049 0.033398
0.97344 0.10422 0.033723
0.011534 0.18105 0.001695
0.036545 0.18163 0.0050843
0.061454 0.1823 0.0082086
0.087701 0.18308 0.010839
0.11616 0.18389 0.012867
0.14672 0.18435 0.014333
0.17778 0.18434 0.015319
0.20812 0.18378 0.015998
0.2374 0.18266 0.016474
0.26604 0.18097 0.016861
0.29468 0.17889 0.017204
0.32403 0.17665 0.017509
0.35449 0.17438 0.017988
0.38578 0.17223 0.018817
0.4174 0.17041 0.020041
0.44903 0.16884 0.021581
0.48076 0.16716 0.023056
0.51222 0.16526 0.024555
0.54333 0.16306 0.026027
0.57425 0.1606 0.027408
0.60482 0.158 0.028706
0.63491 0.15522 0.029919
0.66417 0.15278 0.030865
0.69284 0.15055 0.031488
0.72161 0.14835 0.031717
0.75069 0.14619 0.031786
0.7805 0.14414 0.031975
0.81144 0.14222 0.032416
0.84339 0.14047 0.033076
0.87593 0.13891 0.033832
0.90852 0.1377 0.03452
0.94088 0.13691 0.035045
0.97309 0.13642 0.035461
0.012128 0.20983 0.000854
0.037283 0.21052 0.0041613
0.062404 0.21138 0.0073137
0.088708 0.21242 0.010055
0.11708 0.21344 0.012332
0.14713 0.21421 0.014175
0.17765 0.21445 0.015517
0.20748 0.21424 0.016451
0.23632 0.21375 0.017035
0.26454 0.21307 0.017385
0.29291 0.21218 0.017643
0.32212 0.21102 0.018011
0.35255 0.20964 0.018618
0.38392 0.20815 0.019527
0.41568 0.20658 0.020787
0.44732 0.20495 0.02235
0.47879 0.20305 0.023902
0.50998 0.20084 0.025418
0.54077 0.19832 0.026963
0.57141 0.19558 0.028399
0.6019 0.19263 0.029628
0.63193 0.18961 0.030732
0.66139 0.18652 0.031736
0.69044 0.18352 0.032507
0.71947 0.18079 0.032877
0.74867 0.17851 0.033026
0.77866 0.17642 0.033251
0.80977 0.1746 0.033659
0.84194 0.17302 0.03433
0.87468 0.17173 0.03514
0.90758 0.17064 0.03601
0.9404 0.16981 0.036823
0.97281 0.16946 0.03731
0.01281 0.23872 4.7104e-006
0.038104 0.23945 0.003235
0.063541 0.24038 0.0064281
0.089967 0.24158 0.0093064
0.11819 0.24278 0.011789
0.14785 0.24375 0.013866
0.17785 0.24432 0.015524
0.20733 0.24448 0.01671
0.23595 0.24453 0.0175
0.26407 0.24453 0.017984
0.29231 0.24449 0.018318
0.32126 0.24434 0.018621
0.35132 0.24386 0.019082
0.38239 0.24285 0.019924
0.41399 0.2414 0.021124
0.44547 0.23972 0.02254
0.47656 0.23778 0.024143
0.50744 0.23545 0.025672
0.53797 0.23281 0.027281
0.56844 0.22999 0.028793
0.59884 0.22706 0.030193
0.62879 0.22405 0.031485
0.65822 0.22095 0.032569
0.68742 0.2177 0.033309
0.71673 0.21455 0.033681
0.74638 0.21163 0.033902
0.77681 0.20904 0.034235
0.80819 0.20719 0.034704
0.84063 0.20574 0.035468
0.87366 0.20462 0.036418
0.90679 0.20379 0.037399
0.93982 0.20315 0.038318
0.97243 0.20258 0.039029
0.013451 0.26791 0
0.039023 0.2686 0.0024209
0.06481 0.26963 0.0056039
0.091394 0.27097 0.0085666
0.11948 0.2723 0.011217
0.14881 0.27338 0.013486
0.17842 0.27417 0.015355
0.20757 0.27469 0.016758
0.23618 0.27503 0.017781
0.26426 0.27549 0.018447
0.29243 0.27597 0.018885
0.32122 0.27633 0.019235
0.35088 0.27642 0.019619
0.38134 0.27608 0.020203
0.41235 0.27511 0.021142
0.4435 0.27349 0.022414
0.47429 0.27145 0.024051
0.50491 0.26913 0.02552
0.53521 0.26666 0.027157
0.56554 0.26402 0.028773
0.5958 0.26123 0.030317
0.62571 0.25826 0.031693
0.65507 0.2552 0.032887
0.68426 0.25208 0.033743
0.71375 0.24894 0.034267
0.74371 0.24601 0.034563
0.77444 0.24338 0.034836
0.80637 0.24105 0.035372
0.83939 0.2391 0.036368
0.87275 0.23799 0.03753
0.90611 0.23717 0.038725
0.93922 0.2365 0.039784
0.9718 0.23582 0.04057
0.014002 0.29797 0
0.039926 0.29866 0.0017369
0.066088 0.29965 0.0049275
0.092984 0.30089 0.0079119
0.12091 0.30232 0.010627
0.14986 0.30356 0.01299
0.17919 0.30442 0.014959
0.20814 0.30508 0.016562
0.23661 0.30565 0.017715
0.26488 0.30617 0.018594
0.29303 0.30689 0.019159
0.32163 0.30756 0.019547
0.35095 0.308 0.019915
0.3809 0.30804 0.020406
0.41125 0.30755 0.021178
0.44173 0.30641 0.022272
0.47206 0.30472 0.023763
0.50241 0.3025 0.02527
0.53267 0.30004 0.026842
0.56288 0.29758 0.028424
0.593 0.29505 0.029994
0.62272 0.29235 0.031454
0.65199 0.28942 0.032713
0.68122 0.28642 0.03365
0.71082 0.28355 0.034294
0.74113 0.28088 0.034736
0.77223 0.27854 0.035183
0.80441 0.27655 0.035896
0.83768 0.27476 0.037009
0.87144 0.27311 0.038371
0.9052 0.27147 0.039808
0.93837 0.27041 0.041006
0.97097 0.26939 0.041942
0.014578 0.32892 0
0.040895 0.32964 0.0011878
0.067362 0.33068 0.0042757
0.094419 0.33189 0.0072058
0.12233 0.33316 0.0099719
0.15103 0.33428 0.012431
0.18004 0.3352 0.01444
0.20882 0.33598 0.016091
0.23726 0.33665 0.017404
0.26548 0.33729 0.018332
0.29383 0.33789 0.019038
0.32231 0.33864 0.019498
0.35134 0.33923 0.019871
0.38083 0.33948 0.020367
0.41058 0.33925 0.021103
0.44042 0.33846 0.022148
0.47028 0.33712 0.023547
0.50014 0.33538 0.025073
0.53019 0.33333 0.026461
0.56033 0.33105 0.027911
0.59035 0.3286 0.029374
0.61988 0.32602 0.030781
0.64904 0.32336 0.032073
0.67841 0.32074 0.033117
0.70832 0.31841 0.033933
0.73895 0.31643 0.034601
0.77038 0.31475 0.035289
0.80276 0.3132 0.036189
0.83603 0.31166 0.037446
0.86974 0.30996 0.038982
0.9034 0.30814 0.040579
0.93676 0.30624 0.041995
0.96962 0.30419 0.043119
0.015249 0.36058 0
0.041902 0.36137 0.00062933
0.068639 0.3624 0.0035909
0.095768 0.36358 0.006451
0.12364 0.36476 0.0091782
0.15208 0.36587 0.011675
0.18086 0.36672 0.013775
0.20959 0.36739 0.015503
0.23801 0.36801 0.016902
0.26618 0.36873 0.01792
0.29445 0.36937 0.018645
0.32303 0.36989 0.019218
0.3518 0.37043 0.019662
0.38089 0.37068 0.020177
0.41014 0.37053 0.020904
0.43945 0.36993 0.021931
0.46882 0.3689 0.023263
0.4983 0.36751 0.024816
0.52813 0.36578 0.026136
0.55804 0.36389 0.027413
0.58781 0.36186 0.028622
0.61719 0.35958 0.029976
0.64646 0.35729 0.031272
0.67615 0.35531 0.032406
0.70651 0.35373 0.033398
0.73753 0.35253 0.034319
0.76922 0.35158 0.035301
0.80152 0.35065 0.036517
0.83447 0.34946 0.037982
0.86786 0.34779 0.039583
0.90129 0.34576 0.041225
0.93456 0.34348 0.04277
0.96738 0.34113 0.044002
0.016025 0.39227 0
0.042978 0.39314 0
0.069901 0.39421 0.0027855
0.097079 0.39538 0.0055485
0.1249 0.39655 0.0082256
0.15317 0.39765 0.010751
0.18165 0.39856 0.01295
0.21023 0.39921 0.014742
0.23864 0.39974 0.016203
0.26688 0.40026 0.0174
0.29505 0.40077 0.01826
0.32348 0.40118 0.018942
0.35219 0.40149 0.019525
0.38096 0.4017 0.0201
0.40979 0.40161 0.020788
0.4387 0.40118 0.021695
0.46769 0.40039 0.02291
0.49682 0.39929 0.024363
0.52633 0.39785 0.025737
0.55614 0.39624 0.027004
0.5858 0.39459 0.028216
0.61514 0.39299 0.029408
0.64458 0.3916 0.030603
0.67469 0.39045 0.031882
0.70551 0.38963 0.033163
0.73687 0.38912 0.034353
0.76856 0.38868 0.035554
0.80058 0.38798 0.036886
0.83313 0.38685 0.038402
0.86599 0.38535 0.04006
0.89903 0.38334 0.0418
0.93207 0.381 0.043407
0.96486 0.37849 0.044731
0.016859 0.4236 0
0.044135 0.42453 0
0.071194 0.42566 0.001828
0.098388 0.42685 0.0045085
0.12616 0.42801 0.0071435
0.15429 0.4291 0.0096837
0.18252 0.43006 0.011958
0.21085 0.43079 0.013867
0.23917 0.43132 0.015445
0.26736 0.43174 0.016758
0.2955 0.43213 0.017825
0.32375 0.43247 0.018663
0.35235 0.43261 0.01945
0.38104 0.43265 0.020163
0.40959 0.43266 0.020856
0.43814 0.43243 0.02168
0.46679 0.43188 0.022806
0.49568 0.4311 0.024116
0.52493 0.43014 0.025508
0.55464 0.42903 0.026745
0.58431 0.42786 0.028032
0.61387 0.42681 0.029331
0.64369 0.42606 0.030611
0.67411 0.42569 0.031875
0.70508 0.4255 0.033202
0.73653 0.42519 0.034546
0.76805 0.42471 0.035903
0.7997 0.42397 0.037307
0.83176 0.42288 0.038805
0.86428 0.42136 0.040366
0.89688 0.41954 0.041954
0.92967 0.41741 0.043536
0.96233 0.41505 0.044962
0.017788 0.45446 0
0.045344 0.45545 0
0.07253 0.4566 0.00071331
0.099694 0.4578 0.0033268
0.12735 0.45892 0.0059332
0.15535 0.45997 0.0084817
0.18345 0.46089 0.010805
0.21155 0.46166 0.012866
0.23971 0.46225 0.014612
0.2678 0.46272 0.016092
0.29587 0.4631 0.017359
0.32406 0.46348 0.018377
0.35244 0.46379 0.01928
0.38096 0.46385 0.020179
0.40946 0.46377 0.021005
0.43783 0.46365 0.021908
0.46626 0.4635 0.023033
0.49504 0.46328 0.024272
0.52411 0.46297 0.025709
0.55371 0.46244 0.026896
0.58333 0.46175 0.028157
0.61309 0.46111 0.029485
0.64323 0.46063 0.030846
0.67391 0.46033 0.032202
0.70486 0.46007 0.033561
0.73611 0.45966 0.034792
0.76732 0.45905 0.036014
0.79869 0.4581 0.037364
0.83045 0.45688 0.038872
0.86263 0.45542 0.040427
0.89505 0.45375 0.041955
0.92758 0.45195 0.043421
0.96003 0.44996 0.044763
0.018825 0.48488 0
0.046549 0.48594 0
0.073825 0.48705 0
0.10098 0.48821 0.0020773
0.1285 0.48932 0.0046567
0.15639 0.49033 0.0072002
0.18435 0.49123 0.009573
0.21233 0.49204 0.011735
0.24032 0.49274 0.013648
0.2683 0.49332 0.015328
0.29631 0.49384 0.016754
0.32447 0.49428 0.018029
0.3527 0.49466 0.019113
0.38099 0.49496 0.020145
0.40937 0.49509 0.021134
0.43777 0.49522 0.02219
0.46624 0.4955 0.023395
0.49499 0.49581 0.024656
0.52393 0.496 0.026094
0.55319 0.49594 0.027323
0.58272 0.49557 0.028514
0.61255 0.49511 0.029769
0.64279 0.49466 0.031089
0.67347 0.49412 0.032454
0.70433 0.49344 0.033804
0.73537 0.49265 0.035018
0.76648 0.49169 0.03616
0.79759 0.49068 0.037329
0.8291 0.4895 0.038616
0.8611 0.48805 0.0401
0.8934 0.48644 0.041646
0.92583 0.48477 0.043123
0.95816 0.48307 0.044457
0.019943 0.51521 0
0.047775 0.51632 0
0.075057 0.51744 0
0.10222 0.51855 0.000916
0.12962 0.51965 0.0034564
0.15741 0.52063 0.005979
0.18525 0.52153 0.008384
0.21318 0.52234 0.010581
0.24106 0.52316 0.012579
0.26896 0.52388 0.014415
0.29687 0.52453 0.016063
0.32491 0.52511 0.017573
0.35311 0.52565 0.018916
0.3813 0.52615 0.020104
0.40962 0.52662 0.021238
0.43809 0.5271 0.022447
0.46673 0.52771 0.023688
0.49538 0.5284 0.024975
0.5241 0.5289 0.026332
0.55298 0.52905 0.027688
0.58231 0.52884 0.028861
0.61202 0.52844 0.030071
0.64217 0.52787 0.031279
0.67266 0.52706 0.032561
0.70337 0.52604 0.03388
0.73431 0.52489 0.035067
0.76533 0.52365 0.036194
0.79648 0.52241 0.037334
0.8279 0.52119 0.038522
0.85969 0.51993 0.039736
0.8918 0.51844 0.04108
0.92417 0.51679 0.04253
0.95656 0.51515 0.043912
0.021139 0.5459 0
0.049026 0.54705 0
0.076252 0.54817 0
0.10339 0.54921 0
0.13071 0.55023 0.0024428
0.15838 0.55116 0.0049169
0.18616 0.55207 0.0072836
0.21406 0.55293 0.0094695
0.24193 0.55377 0.011535
0.26974 0.5546 0.013511
0.29761 0.55541 0.015362
0.32561 0.55622 0.017072
0.35374 0.55699 0.018682
0.38191 0.55775 0.020043
0.41019 0.55848 0.02126
0.43874 0.55919 0.022463
0.46741 0.55993 0.023755
0.49604 0.56063 0.025089
0.52451 0.56126 0.026422
0.55295 0.56163 0.027832
0.58192 0.56156 0.028993
0.6114 0.56112 0.030201
0.64135 0.56037 0.031398
0.67161 0.5594 0.032588
0.70216 0.55827 0.033824
0.73302 0.55699 0.034991
0.76401 0.55566 0.036102
0.79519 0.55426 0.037218
0.82665 0.55283 0.038419
0.85839 0.5514 0.039612
0.89035 0.54997 0.040755
0.92263 0.54852 0.041904
0.95502 0.54706 0.043138
0.022397 0.57716 0
0.050275 0.5783 0
0.077415 0.57936 0
0.10443 0.58031 0
0.13172 0.58121 0.0016289
0.15933 0.58212 0.0039661
0.18711 0.58302 0.0062946
0.21499 0.58393 0.0085196
0.2429 0.58485 0.01065
0.27072 0.58585 0.012698
0.29859 0.58685 0.014679
0.32652 0.58784 0.016582
0.35459 0.58877 0.018351
0.38275 0.58962 0.019909
0.41101 0.59049 0.021148
0.4395 0.59131 0.022287
0.4681 0.592 0.023583
0.49666 0.59257 0.024971
0.52499 0.59307 0.026351
0.55315 0.59347 0.027764
0.58167 0.59355 0.029004
0.61079 0.59323 0.030196
0.64042 0.59258 0.031362
0.67046 0.59165 0.032528
0.70089 0.59051 0.033705
0.7317 0.58923 0.034839
0.76264 0.5879 0.035924
0.79373 0.58646 0.037038
0.82516 0.58484 0.038201
0.85695 0.5832 0.039403
0.88896 0.58168 0.040558
0.92129 0.58027 0.041637
0.95369 0.57893 0.042646
0.023655 0.60896 0
0.051468 0.61004 0
0.078504 0.61103 0
0.1054 0.61192 0
0.13263 0.61273 0.0009899
0.16028 0.61358 0.0031979
0.18812 0.61452 0.0055074
0.21605 0.61553 0.0077865
0.244 0.61658 0.0099625
0.27189 0.61766 0.012034
0.29969 0.61873 0.014077
0.32758 0.61973 0.016055
0.35554 0.62069 0.017897
0.38362 0.62156 0.019561
0.41189 0.6224 0.020887
0.44029 0.62317 0.022041
0.46869 0.62381 0.023328
0.49708 0.62424 0.024709
0.52534 0.62447 0.026146
0.55344 0.62473 0.027584
0.58162 0.62495 0.028978
0.61037 0.62489 0.030166
0.63968 0.62451 0.031332
0.66949 0.62387 0.032448
0.69974 0.62302 0.033535
0.73035 0.62192 0.034578
0.76118 0.62053 0.035635
0.79219 0.61894 0.036768
0.8235 0.61727 0.037941
0.85538 0.61559 0.039125
0.88757 0.61406 0.0403
0.91995 0.6127 0.04141
0.95238 0.61137 0.042415
0.024864 0.64103 0
0.052628 0.64209 0
0.079548 0.64305 0
0.1063 0.64392 0
0.13349 0.64471 0.00059701
0.16125 0.64556 0.0026714
0.18922 0.64653 0.0049167
0.21722 0.6476 0.0071964
0.24517 0.64868 0.0093996
0.27305 0.64971 0.011485
0.30078 0.6507 0.013487
0.32857 0.65161 0.015457
0.35648 0.65246 0.01733
0.38449 0.65328 0.019033
0.41272 0.65404 0.020482
0.44098 0.65472 0.021772
0.46921 0.65522 0.023103
0.49734 0.65554 0.024482
0.52544 0.65566 0.025917
0.55365 0.65571 0.027409
0.58183 0.65594 0.028963
0.61034 0.65618 0.030173
0.63933 0.65622 0.03132
0.6689 0.656 0.032387
0.69888 0.65552 0.033382
0.72915 0.65469 0.034318
0.75965 0.65342 0.035271
0.79049 0.65182 0.036334
0.82181 0.65013 0.037552
0.85383 0.64846 0.038803
0.88621 0.647 0.040022
0.91869 0.64572 0.041166
0.95116 0.64454 0.042259
0.026099 0.67335 0
0.053764 0.67444 0
0.080564 0.67541 0
0.10721 0.67627 0
0.13438 0.67706 0.00040368
0.16221 0.6779 0.0023331
0.19032 0.67883 0.0044
0.21837 0.67984 0.0066465
0.24627 0.68084 0.0088506
0.27406 0.68175 0.010927
0.30174 0.68257 0.012885
0.32942 0.68335 0.014829
0.35731 0.68408 0.016707
0.38527 0.6848 0.018459
0.41342 0.68546 0.020025
0.44157 0.686 0.021527
0.46957 0.68643 0.022928
0.49753 0.68667 0.024352
0.5255 0.68679 0.025798
0.55373 0.68687 0.027291
0.58214 0.68705 0.028895
0.61068 0.68739 0.030238
0.63947 0.6878 0.031351
0.66874 0.68802 0.032359
0.69836 0.6879 0.033283
0.72819 0.68736 0.034104
0.75824 0.68634 0.03493
0.78885 0.68491 0.035892
0.82019 0.68332 0.037055
0.85232 0.6818 0.038388
0.88489 0.68045 0.039718
0.91755 0.67925 0.04097
0.95014 0.67823 0.04215
0.027404 0.7058 0
0.054929 0.70693 0
0.081576 0.7079 0
0.1081 0.70873 0
0.13524 0.70949 0.0002287
0.16312 0.71024 0.0019603
0.19129 0.71105 0.0038538
0.21942 0.71191 0.0059913
0.24726 0.71282 0.008194
0.27493 0.71361 0.010295
0.30251 0.7143 0.012294
0.33016 0.71495 0.014206
0.358 0.71558 0.01613
0.38597 0.71618 0.017945
0.414 0.71675 0.019609
0.442 0.71721 0.021259
0.46992 0.71757 0.022819
0.49772 0.71785 0.024307
0.52563 0.71807 0.025795
0.55392 0.7183 0.027303
0.58247 0.71862 0.028844
0.61114 0.71903 0.030345
0.63999 0.71956 0.031464
0.66897 0.72007 0.032408
0.69815 0.72026 0.033251
0.72752 0.71999 0.033994
0.75712 0.71928 0.0347
0.78739 0.71816 0.035535
0.81869 0.71678 0.036644
0.85094 0.71541 0.037994
0.88371 0.71418 0.039436
0.91654 0.71317 0.040827
0.94926 0.71232 0.042116
0.028744 0.73821 0
0.056076 0.73931 0
0.082558 0.74022 0
0.10897 0.741 0
0.136 0.74169 0
0.16388 0.74232 0.0014627
0.19209 0.74297 0.0031823
0.22033 0.74366 0.0051939
0.24817 0.74445 0.0073935
0.27568 0.74521 0.0095934
0.30316 0.74585 0.011704
0.33081 0.74643 0.01367
0.35859 0.747 0.015669
0.38656 0.74754 0.017545
0.4145 0.74806 0.019308
0.44243 0.74849 0.021048
0.47026 0.74888 0.022745
0.49801 0.74927 0.024323
0.52596 0.74967 0.025887
0.5543 0.75013 0.027436
0.58297 0.75066 0.028967
0.61167 0.75129 0.030512
0.64059 0.75184 0.031681
0.66943 0.75241 0.032624
0.69823 0.75279 0.033397
0.7271 0.75281 0.034063
0.75629 0.75236 0.034686
0.78621 0.75152 0.035396
0.81735 0.75039 0.036377
0.84966 0.74915 0.037691
0.88261 0.74801 0.039199
0.91569 0.7471 0.04072
0.94855 0.74639 0.042158
0.03 0.77031 0
0.057152 0.77128 0
0.083484 0.7721 0
0.10975 0.77277 0
0.13664 0.77334 0
0.1645 0.77387 0.00078505
0.19276 0.77443 0.0023774
0.22105 0.77504 0.004319
0.24901 0.77573 0.0065145
0.27645 0.77647 0.0088485
0.30385 0.77718 0.011093
0.33138 0.77779 0.013227
0.35916 0.77831 0.015279
0.38709 0.77886 0.017226
0.41501 0.77939 0.01909
0.44285 0.77991 0.020887
0.4707 0.78038 0.022655
0.49855 0.78092 0.024398
0.52654 0.78161 0.026037
0.55498 0.78235 0.027654
0.5837 0.78315 0.029217
0.61244 0.78398 0.030746
0.64117 0.78469 0.032008
0.66995 0.78519 0.032994
0.69845 0.7856 0.033761
0.72689 0.78571 0.034341
0.75566 0.78544 0.034847
0.78527 0.78482 0.035449
0.81618 0.78392 0.036277
0.84847 0.78283 0.037484
0.88162 0.78179 0.039018
0.91492 0.78096 0.040633
0.94789 0.78026 0.042146
0.031059 0.80201 0
0.058054 0.80278 0
0.084254 0.8034 0
0.11038 0.80394 0
0.1372 0.80442 0
0.16506 0.80489 0
0.19338 0.80542 0.0014862
0.22174 0.80602 0.0033847
0.24979 0.8067 0.0056387
0.27728 0.80747 0.0080566
0.30456 0.80821 0.010459
0.33197 0.80884 0.012758
0.35974 0.80945 0.014871
0.38768 0.81007 0.016898
0.41562 0.81073 0.018871
0.44346 0.81142 0.020723
0.4713 0.81213 0.022556
0.49928 0.81289 0.024409
0.52746 0.81381 0.026193
0.55594 0.81485 0.027876
0.58471 0.81589 0.029496
0.61339 0.81691 0.031016
0.64181 0.81771 0.032418
0.67029 0.81817 0.03341
0.69863 0.81833 0.034174
0.72673 0.81839 0.034701
0.7552 0.81822 0.035101
0.78458 0.81781 0.035604
0.81526 0.81721 0.036344
0.84745 0.8164 0.037423
0.88068 0.81549 0.038878
0.91412 0.81461 0.040497
0.94712 0.81374 0.042003
0.031903 0.8332 0
0.058728 0.83377 0
0.084847 0.83425 0
0.11094 0.8347 0
0.1377 0.83517 0
0.16557 0.83564 0
0.194 0.83617 0.00062006
0.22245 0.83679 0.0024956
0.2506 0.83748 0.0047748
