a - Ai/luts/Haibane Renmei OUT.cube
LUT_3D_SIZE 33
0 0 0
0.023049 0 0
0.051294 0.0019208 0
0.078284 0.0055312 0
0.10363 0.0089798 0
0.12773 0.012189 0
0.15129 0.015102 0
0.17482 0.017559 0.00035297
0.19864 0.01951 0.0025381
0.22329 0.020802 0.0046208
0.24944 0.021314 0.0063031
0.27759 0.020871 0.0072183
0.30852 0.019095 0.0067384
0.34283 0.015937 0.0045197
0.38151 0.011328 0.00024764
0.42475 0.0057016 0
0.47304 0 0
0.52602 0 0
0.58412 0 0
0.64741 0 0
0.71389 0 0
0.77853 0 0
0.83468 0 0
0.8787 0 0
0.91086 0 0
0.93401 0 0
0.95086 0 0
0.96353 0 0
0.97369 0 0
0.98237 0 0
0.99001 0 0
0.99711 0 0
1 0.0010806 0
0 0.023855 0
0.026538 0.026643 0
0.055422 0.03024 0
0.08266 0.03409 0
0.10802 0.037822 0
0.13198 0.041371 0
0.15524 0.044689 0
0.17823 0.047731 0.0015071
0.20137 0.050393 0.0040638
0.22511 0.052572 0.0065679
0.25015 0.054071 0.008576
0.27707 0.054687 0.0096624
0.30647 0.054217 0.0093393
0.33941 0.052366 0.0070606
0.37684 0.049138 0.0025787
0.41926 0.044678 0
0.4674 0.039217 0
0.52092 0.033602 0
0.57995 0.028644 0
0.64439 0.024523 0
0.71193 0.021397 0
0.77756 0.019011 0
0.83473 0.017758 0
0.87947 0.017634 0
0.91193 0.018081 0
0.93529 0.018733 0
0.95223 0.01935 0
0.96497 0.019827 0
0.97523 0.020269 0
0.98406 0.02078 0
0.99189 0.02138 0
0.9992 0.022184 0
1 0.023294 0
0 0.052959 0
0.029677 0.055269 0
0.059431 0.058543 0
0.087148 0.062219 0
0.11265 0.065929 0
0.13664 0.069524 0
0.15977 0.072989 0
0.18245 0.076282 0.0018799
0.20507 0.079335 0.0048869
0.22814 0.082066 0.0078382
0.25227 0.084353 0.010306
0.27804 0.086018 0.011819
0.30611 0.08682 0.011873
0.33763 0.086467 0.0099161
0.37376 0.084827 0.0053797
0.41505 0.081889 0
0.46239 0.077683 0
0.51611 0.072765 0
0.57579 0.06803 0
0.64099 0.063738 0
0.70915 0.060048 0
0.77509 0.056625 0
0.833 0.053577 0
0.87845 0.0512 0
0.9115 0.049529 0
0.93531 0.048376 0
0.95251 0.047494 0
0.96558 0.046714 0
0.97618 0.046234 0
0.98534 0.046135 0
0.99352 0.046375 0
1 0.047014 0
1 0.048096 0
0 0.083882 0
0.031957 0.085347 0
0.062839 0.087884 0
0.091266 0.090998 0
0.11716 0.094305 0
0.14138 0.09767 0
0.16456 0.10103 0
0.18708 0.10429 0.00086634
0.2094 0.10744 0.0043791
0.23201 0.11043 0.007874
0.25545 0.11316 0.010956
0.28031 0.11546 0.013075
0.3074 0.1172 0.013662
0.33772 0.11825 0.012156
0.37254 0.11825 0.0079703
0.41238 0.11699 0.0013479
0.45861 0.11429 0
0.51209 0.11061 0
0.57206 0.10672 0
0.63758 0.1028 0
0.70603 0.098946 0
0.77189 0.094878 0
0.83001 0.090801 0
0.87594 0.086898 0
0.90974 0.083437 0
0.93421 0.08063 0
0.95193 0.078417 0
0.96543 0.076672 0
0.97654 0.075439 0
0.98622 0.074734 0
0.99493 0.07455 0
1 0.074962 0
1 0.075952 0
0 0.11744 0
0.033126 0.11792 0
0.06517 0.11949 0
0.094498 0.12164 0
0.12113 0.12416 0
0.14585 0.12698 0
0.16929 0.12993 0
0.19185 0.13293 0
0.21403 0.1359 0.0020699
0.23635 0.1388 0.00623
0.25926 0.14158 0.010005
0.28349 0.14416 0.012795
0.30993 0.14652 0.01395
0.3394 0.14855 0.013053
0.37307 0.1499 0.0094743
0.41147 0.15021 0.0034358
0.45638 0.14924 0
0.50924 0.14714 0
0.56908 0.14447 0
0.63469 0.14135 0
0.7029 0.1381 0
0.76832 0.13401 0
0.8262 0.12917 0
0.87247 0.12408 0
0.907 0.11945 0
0.93216 0.11545 0
0.9506 0.11213 0
0.96474 0.10961 0
0.97648 0.10782 0
0.98676 0.10676 0
0.99605 0.10633 0
1 0.10652 0
1 0.10731 0
0 0.15429 0
0.033137 0.15376 0
0.066262 0.15419 0
0.096527 0.1552 0
0.12412 0.15669 0
0.14964 0.15861 0
0.17361 0.16085 0
0.19643 0.16326 0
0.21862 0.16574 0
0.24073 0.16823 0.0025042
0.26331 0.1707 0.007
0.28716 0.17323 0.010541
0.31325 0.17583 0.012405
0.34222 0.17844 0.012178
0.37499 0.18075 0.0093781
0.41218 0.18239 0.0040697
0.45586 0.1831 0
0.50778 0.18274 0
0.56725 0.18156 0
0.63264 0.17989 0
0.7003 0.1775 0
0.76469 0.17391 0
0.82188 0.1689 0
0.86824 0.16309 0
0.90355 0.15738 0
0.92937 0.15241 0
0.94859 0.14831 0
0.9635 0.14522 0
0.97594 0.14304 0
0.98693 0.14162 0
0.99686 0.14095 0
1 0.14096 0
1 0.14164 0
0 0.19467 0
0.032145 0.19314 0
0.066163 0.19246 0
0.097342 0.19233 0
0.12594 0.19269 0
0.15238 0.19354 0
0.17705 0.19468 0
0.20032 0.19608 0
0.22268 0.19769 0
0.2447 0.19941 0
0.26717 0.20129 0.0019682
0.29095 0.20346 0.0062657
0.31689 0.20592 0.0089487
0.34565 0.20866 0.0094896
0.37783 0.21151 0.007546
0.41427 0.21411 0.0029686
0.457 0.21633 0
0.50791 0.21779 0
0.56675 0.21842 0
0.63176 0.21844 0
0.69833 0.21734 0
0.76137 0.21428 0
0.81736 0.20936 0
0.86343 0.20327 0
0.89924 0.19697 0
0.92582 0.19115 0
0.94587 0.1865 0
0.96162 0.18295 0
0.97489 0.18036 0
0.98661 0.17869 0
0.99726 0.17786 0
1 0.17781 0
1 0.17842 0
0 0.23841 0
0.030292 0.236 0
0.065174 0.23423 0
0.09706 0.23303 0
0.12649 0.23221 0
0.15376 0.23175 0
0.17916 0.2316 0
0.20297 0.23176 0
0.22569 0.23218 0
0.24791 0.23287 0
0.27052 0.23393 0
0.29444 0.23544 0.000131
0.32042 0.23747 0.0036397
0.34913 0.24 0.0050912
0.38109 0.24293 0.0040775
0.4172 0.24604 0.00025434
0.45948 0.24929 0
0.50968 0.25241 0
0.56778 0.25492 0
0.63208 0.25672 0
0.69723 0.25687 0
0.75827 0.25466 0
0.81283 0.24988 0
0.85823 0.2437 0
0.8942 0.23696 0
0.92149 0.23067 0
0.94245 0.22554 0
0.95909 0.22169 0
0.9732 0.21894 0
0.98569 0.2171 0
0.99709 0.21609 0
1 0.21583 0
1 0.21628 0
0 0.28435 0
0.027775 0.28116 0
0.063281 0.2784 0
0.095828 0.27615 0
0.12579 0.27427 0
0.15369 0.27262 0
0.1797 0.27122 0
0.20414 0.27008 0
0.22736 0.2693 0
0.25003 0.26887 0
0.27306 0.26894 0
0.29731 0.26967 0
0.32349 0.27103 0
0.35233 0.27303 0
0.38434 0.2757 0
0.42047 0.27893 0
0.46278 0.28279 0
0.51272 0.28697 0
0.57028 0.29096 0
0.6335 0.2942 0
0.69691 0.2954 0
0.7557 0.2939 0
0.80831 0.28957 0
0.85266 0.28335 0
0.8885 0.27638 0
0.91643 0.26981 0
0.93826 0.26435 0
0.95584 0.26019 0
0.97089 0.25712 0
0.98424 0.25509 0
0.99636 0.254 0
1 0.25361 0
1 0.25389 0
0 0.33101 0
0.024581 0.32717 0
0.060639 0.32352 0
0.093692 0.32027 0
0.12407 0.31738 0
0.15241 0.31473 0
0.17895 0.31236 0
0.20395 0.31027 0
0.22773 0.3085 0
0.25098 0.30713 0
0.27456 0.30632 0
0.29932 0.30612 0
0.32587 0.30668 0
0.35501 0.30803 0
0.38733 0.31029 0
0.42372 0.31337 0
0.46641 0.31735 0
0.51641 0.32192 0
0.57372 0.32658 0
0.63579 0.33047 0
0.6972 0.33238 0
0.75362 0.3313 0
0.804 0.32743 0
0.84689 0.32142 0
0.88234 0.31444 0
0.91072 0.30769 0
0.93341 0.30195 0
0.95194 0.29751 0
0.96794 0.29419 0
0.98217 0.29191 0
0.99507 0.29053 0
1 0.28992 0
1 0.29 0
0 0.37774 0
0.020929 0.37325 0
0.057294 0.36882 0
0.090678 0.36463 0
0.1214 0.36067 0
0.15011 0.35704 0
0.17718 0.35378 0
0.20271 0.35094 0
0.22709 0.34849 0
0.25097 0.34653 0
0.27516 0.34513 0
0.30044 0.34434 0
0.32748 0.34423 0
0.3571 0.34495 0
0.38994 0.34665 0
0.42672 0.34937 0
0.46988 0.35305 0
0.52014 0.35744 0
0.57738 0.36204 0
0.63832 0.36583 0
0.69782 0.36767 0
0.75187 0.36675 0
0.80003 0.36308 0
0.84127 0.35742 0
0.87604 0.35071 0
0.9046 0.34404 0
0.92788 0.33819 0
0.94741 0.33337 0
0.96438 0.32973 0
0.97952 0.32711 0
0.99326 0.32544 0
1 0.32458 0
1 0.32442 0
0 0.42424 0
0.016855 0.41921 0
0.053291 0.4139 0
0.086875 0.40867 0
0.11785 0.40373 0
0.14695 0.39912 0
0.1745 0.395 0
0.20061 0.3914 0
0.22562 0.38837 0
0.25022 0.38594 0
0.27507 0.38418 0
0.30088 0.3831 0
0.32843 0.38268 0
0.35852 0.38298 0
0.39196 0.38407 0
0.42934 0.38624 0
0.47293 0.38942 0
0.52352 0.3933 0
0.58065 0.39731 0
0.64064 0.40039 0
0.69831 0.40168 0
0.7503 0.40053 0
0.79635 0.39701 0
0.83603 0.39167 0
0.86994 0.38531 0
0.8984 0.37884 0
0.92208 0.373 0
0.94234 0.36812 0
0.9603 0.3642 0
0.97636 0.36123 0
0.99099 0.35923 0
1 0.35803 0
1 0.35757 0
0 0.46989 0
0.012467 0.46457 0
0.048597 0.45861 0
0.08228 0.45239 0
0.11349 0.44643 0
0.14289 0.44088 0
0.17093 0.43583 0
0.19766 0.43144 0
0.2234 0.42782 0
0.24877 0.42499 0
0.27435 0.42294 0
0.30081 0.42164 0
0.3289 0.42104 0
0.35941 0.42111 0
0.39336 0.42186 0
0.43138 0.42338 0
0.47554 0.42583 0
0.52643 0.42897 0
0.58324 0.43205 0
0.64237 0.43413 0
0.69847 0.43454 0
0.74877 0.43299 0
0.79306 0.42959 0
0.83123 0.42466 0
0.86423 0.4187 0
0.89245 0.41254 0
0.91631 0.40693 0
0.93718 0.40204 0
0.95597 0.39796 0
0.97284 0.3948 0
0.98833 0.39248 0
1 0.39088 0
1 0.38999 0
0 0.51425 0
0.0078903 0.50892 0
0.043408 0.50252 0
0.07692 0.49562 0
0.10832 0.48879 0
0.13802 0.48241 0
0.16648 0.47657 0
0.19388 0.47139 0
0.22044 0.46711 0
0.24665 0.46375 0
0.27307 0.46127 0
0.30028 0.45969 0
0.32892 0.4589 0
0.35994 0.45882 0
0.39434 0.45936 0
0.43284 0.46044 0
0.47755 0.46216 0
0.52872 0.46431 0
0.58511 0.46626 0
0.64335 0.46718 0
0.69814 0.46656 0
0.74712 0.46444 0
0.79009 0.46095 0
0.82694 0.45634 0
0.85908 0.4509 0
0.887 0.44535 0
0.91094 0.44016 0
0.93219 0.43551 0
0.95158 0.43144 0
0.9692 0.42808 0
0.98543 0.42545 0
1 0.42352 0
1 0.42223 0
0 0.55736 0
0.0032873 0.55218 0
0.0379 0.54565 0
0.070958 0.53843 0
0.10239 0.5311 0
0.13233 0.52406 0
0.16121 0.51746 0
0.18926 0.51159 0
0.21669 0.50662 0
0.24382 0.50259 0
0.27115 0.49953 0
0.29922 0.49741 0
0.32858 0.49622 0
0.36022 0.49592 0
0.395 0.49631 0
0.434 0.49715 0
0.47899 0.49842 0
0.53023 0.49964 0
0.58613 0.50035 0
0.64347 0.49995 0
0.69714 0.49811 0
0.74518 0.4952 0
0.78713 0.49144 0
0.82308 0.4869 0
0.85458 0.48205 0
0.88222 0.47719 0
0.90617 0.47256 0
0.92764 0.46833 0
0.94742 0.46451 0
0.96557 0.46118 0
0.98246 0.4584 0
0.99869 0.45616 0
1 0.45449 0
0 0.59883 0
0 0.59425 0
0.032221 0.588 0
0.064579 0.58084 0
0.095847 0.5734 0
0.12593 0.56602 0
0.15508 0.55899 0
0.18376 0.55249 0
0.2121 0.54676 0
0.24021 0.542 0
0.26852 0.53825 0
0.29753 0.53551 0
0.32779 0.53378 0
0.36021 0.53307 0
0.39551 0.5332 0
0.43499 0.5339 0
0.48005 0.53486 0
0.53096 0.53534 0
0.58621 0.53483 0
0.64252 0.53282 0
0.69529 0.52955 0
0.74276 0.52559 0
0.78405 0.52132 0
0.81944 0.51688 0
0.85065 0.51243 0
0.8781 0.50814 0
0.90201 0.50413 0
0.92367 0.50036 0
0.9437 0.49689 0
0.9622 0.49375 0
0.97958 0.49101 0
0.99633 0.48865 0
1 0.48673 0
0 0.638 0
0 0.63437 0
0.026718 0.62901 0
0.058056 0.62241 0
0.088829 0.6152 0
0.11888 0.60781 0
0.14826 0.60063 0
0.17742 0.59389 0
0.20654 0.58774 0
0.2357 0.58235 0
0.2651 0.57788 0
0.29515 0.5744 0
0.32643 0.57205 0
0.35975 0.57079 0
0.39585 0.57058 0
0.43574 0.57099 0
0.48079 0.57155 0
0.531 0.57131 0
0.58521 0.5697 0
0.64031 0.5661 0
0.69244 0.56131 0
0.73964 0.55624 0
0.78063 0.55128 0
0.8159 0.54666 0
0.847 0.5424 0
0.87443 0.53842 0
0.89842 0.53482 0
0.92021 0.53149 0
0.94041 0.5284 0
0.95916 0.52555 0
0.97691 0.52292 0
0.99409 0.52064 0
1 0.51871 0
0 0.67449 0
0 0.67194 0
0.021883 0.6677 0
0.05175 0.66209 0
0.081602 0.65563 0
0.11134 0.64866 0
0.14081 0.64166 0
0.17038 0.63492 0
0.2002 0.6287 0
0.2303 0.62312 0
0.26079 0.61821 0
0.292 0.61417 0
0.32436 0.61117 0
0.35876 0.60931 0
0.39577 0.60854 0
0.43608 0.60842 0
0.48099 0.60835 0
0.53036 0.60737 0
0.58322 0.60458 0
0.63696 0.59965 0
0.68854 0.59356 0
0.73568 0.58741 0
0.77666 0.58169 0
0.81213 0.5766 0
0.84342 0.57216 0
0.87096 0.56829 0
0.89515 0.56489 0
0.91714 0.56184 0
0.93753 0.55906 0
0.9565 0.55654 0
0.97449 0.55423 0
0.99203 0.55213 0
1 0.55027 0
0 0.70834 0
0 0.70688 0
0.01801 0.70379 0
0.046157 0.69943 0
0.074749 0.69401 0
0.10371 0.6879 0
0.13302 0.68151 0
0.16275 0.67521 0
0.19318 0.66919 0
0.22424 0.66363 0
0.25578 0.6587 0
0.28807 0.65443 0
0.32158 0.651 0
0.35708 0.64852 0
0.39498 0.64697 0
0.43578 0.6461 0
0.48049 0.6452 0
0.52894 0.6434 0
0.5802 0.63958 0
0.63254 0.6336 0
0.68365 0.62633 0
0.73075 0.61911 0
0.77192 0.61253 0
0.80781 0.60679 0
0.83957 0.6019 0
0.86752 0.59785 0
0.89204 0.59448 0
0.91432 0.59157 0
0.93499 0.58903 0
0.95419 0.5868 0
0.97243 0.5848 0
0.99021 0.58297 0
1 0.58134 0
0 0.73947 0
0 0.73904 0
0.015179 0.73711 0
0.041669 0.73398 0
0.068754 0.72982 0
0.096596 0.72493 0
0.12537 0.71956 0
0.15506 0.71411 0
0.18576 0.7088 0
0.21759 0.70367 0
0.25022 0.69885 0
0.28358 0.69454 0
0.31818 0.69093 0
0.35461 0.68809 0
0.39327 0.68586 0
0.43452 0.68403 0
0.47912 0.68208 0
0.52657 0.67927 0
0.57624 0.67449 0
0.62729 0.66773 0
0.67773 0.65962 0
0.72484 0.65137 0
0.76629 0.64397 0
0.80276 0.63746 0
0.8352 0.63197 0
0.86378 0.62751 0
0.88886 0.62392 0
0.91162 0.621 0
0.93266 0.61856 0
0.95218 0.61649 0
0.97069 0.61471 0
0.98868 0.61316 0
1 0.6118 0
0 0.76791 0
0 0.76835 0
0.013426 0.76753 0
0.038365 0.76558 0
0.063914 0.76273 0
0.090547 0.7591 0
0.11847 0.75503 0
0.14786 0.75076 0
0.17864 0.74653 0
0.21086 0.74229 0
0.24425 0.73809 0
0.27867 0.73403 0
0.31425 0.73045 0
0.3516 0.72734 0
0.39073 0.72466 0
0.43213 0.72195 0
0.47654 0.71878 0
0.5231 0.71473 0
0.57145 0.70908 0
0.62135 0.70177 0
0.671 0.69322 0
0.71799 0.68425 0
0.75979 0.67602 0
0.79687 0.66885 0
0.83012 0.66268 0
0.85956 0.65771 0
0.88535 0.65382 0
0.9088 0.65068 0
0.93035 0.64817 0
0.9503 0.64611 0
0.96915 0.64441 0
0.98744 0.64301 0
1 0.64188 0
0 0.79404 0
0 0.79525 0
0.01277 0.79535 0
0.036276 0.79447 0
0.060484 0.79278 0
0.085853 0.79042 0
0.11292 0.78759 0
0.1418 0.78466 0
0.17245 0.78168 0
0.20471 0.77862 0
0.2385 0.77537 0
0.27364 0.77207 0
0.3101 0.76885 0
0.3481 0.76575 0
0.38751 0.76267 0
0.42869 0.75915 0
0.47267 0.75493 0
0.51853 0.7497 0
0.5659 0.74329 0
0.61484 0.7356 0
0.6638 0.72683 0
0.71045 0.7176 0
0.75248 0.70877 0
0.79028 0.70087 0
0.82438 0.69422 0
0.85474 0.68878 0
0.88142 0.68445 0
0.90563 0.68102 0
0.92788 0.67828 0
0.94838 0.67611 0
0.96769 0.67441 0
0.98636 0.67309 0
1 0.6721 0
0 0.81827 0
0 0.82016 0
0.013075 0.82107 0
0.035344 0.82111 0
0.058428 0.82037 0
0.082776 0.81913 0
0.10896 0.81759 0
0.1373 0.81588 0
0.16767 0.81408 0
0.19982 0.81225 0
0.2336 0.81021 0
0.26916 0.8079 0
0.30612 0.80539 0
0.3444 0.80252 0
0.38377 0.79919 0
0.42442 0.79519 0
0.46788 0.79022 0
0.51306 0.78425 0
0.55974 0.77727 0
0.608 0.76922 0
0.6563 0.76028 0
0.70257 0.75088 0
0.74462 0.74177 0
0.78306 0.73342 0
0.81815 0.72625 0
0.8494 0.72044 0
0.87697 0.71581 0
0.90207 0.71208 0
0.9251 0.7091 0
0.9463 0.70677 0
0.96625 0.705 0
0.98543 0.70373 0
1 0.70287 0
0 0.84092 0
0 0.8433 0
0.014221 0.84483 0
0.035526 0.84564 0
0.057637 0.84581 0
0.081197 0.84552 0
0.10677 0.84495 0
0.13457 0.84436 0
0.16453 0.84374 0
0.19647 0.84304 0
0.23012 0.84213 0
0.26563 0.84092 0
0.30264 0.83925 0
0.34087 0.83688 0
0.37984 0.83374 0
0.41995 0.82965 0
0.46259 0.82443 0
0.50716 0.81799 0
0.55321 0.81066 0
0.60085 0.80236 0
0.64849 0.79322 0
0.69444 0.7836 0
0.73652 0.77434 0
0.7755 0.76575 0
0.81148 0.75831 0
0.8437 0.75224 0
0.87223 0.74744 0
0.89821 0.74364 0
0.92207 0.74063 0
0.94408 0.73829 0
0.96473 0.73652 0
0.98454 0.73527 0
1 0.73448 0
0 0.86223 0
0 0.86499 0
0.015972 0.86699 0
0.03655 0.8683 0
0.05798 0.8691 0
0.08098 0.86962 0
0.10603 0.86997 0
0.13347 0.87021 0
0.16305 0.87048 0
0.19464 0.87068 0
0.22797 0.8707 0
0.26317 0.87038 0
0.29998 0.86952 0
0.33784 0.868 0
0.37632 0.86544 0
0.41571 0.86187 0
0.45731 0.85685 0
0.5011 0.85039 0
0.54661 0.84287 0
0.59356 0.83443 0
0.64049 0.82525 0
0.68619 0.81551 0
0.7283 0.80618 0
0.76783 0.79747 0
0.80463 0.78994 0
0.83783 0.78383 0
0.86739 0.77909 0
0.89434 0.77544 0
0.91905 0.77267 0
0.94185 0.77059 0
0.96326 0.76906 0
0.98372 0.76801 0
1 0.76736 0
0 0.88233 0
0 0.88535 0
0.018133 0.88764 0
0.038111 0.88936 0
0.059086 0.89065 0
0.081798 0.89167 0
0.10654 0.89263 0
0.13357 0.89355 0
0.1628 0.89445 0
0.19395 0.8952 0
0.22691 0.8958 0
0.26171 0.89616 0
0.29812 0.8961 0
0.33565 0.89532 0
0.37347 0.89364 0
0.4121 0.89079 0
0.45252 0.88644 0
0.49531 0.88043 0
0.54012 0.87308 0
0.58631 0.86474 0
0.63264 0.85572 0
0.67795 0.84621 0
0.72019 0.83698 0
0.76021 0.82842 0
0.79785 0.82104 0
0.83206 0.81515 0
0.86268 0.81068 0
0.89065 0.80735 0
0.91632 0.80496 0
0.93994 0.80335 0
0.96204 0.80228 0
0.98306 0.80161 0
1 0.80118 0
0 0.90133 0
0.0013553 0.90447 0
0.020479 0.90694 0
0.040038 0.9089 0
0.060717 0.9105 0
0.083216 0.9119 0
0.1078 0.91324 0
0.13458 0.91455 0
0.16342 0.91584 0
0.1941 0.91701 0
0.22664 0.91807 0
0.26111 0.91894 0
0.29707 0.91944 0
0.33411 0.9193 0
0.37138 0.91825 0
0.4092 0.91617 0
0.44849 0.91263 0
0.49016 0.90741 0
0.53411 0.90067 0
0.57946 0.89282 0
0.62518 0.88423 0
0.67003 0.87522 0
0.71234 0.86639 0
0.75291 0.85821 0
0.7914 0.85121 0
0.82664 0.84574 0
0.85834 0.84173 0
0.88736 0.83891 0
0.91402 0.83704 0
0.93849 0.83596 0
0.96124 0.83543 0
0.98271 0.83526 0
1 0.83521 0
0 0.91939 0
0.0041991 0.92251 0
0.022866 0.92505 0
0.042135 0.92712 0
0.062632 0.92891 0
0.08503 0.93054 0
0.10953 0.93212 0
0.1361 0.9337 0
0.16459 0.93522 0
