a - Ai/luts/Haibane Renmei OUT.cube
LUT_3D_SIZE 9
0 0 0
0.10363 0.0089798 0
0.19864 0.01951 0.0025381
0.30852 0.019095 0.0067384
0.47304 0 0
0.71389 0 0
0.91086 0 0
0.97369 0 0
1 0.0010806 0
0 0.11744 0
0.12113 0.12416 0
0.21403 0.1359 0.0020699
0.30993 0.14652 0.01395
0.45638 0.14924 0
0.7029 0.1381 0
0.907 0.11945 0
0.97648 0.10782 0
1 0.10731 0
0 0.28435 0
0.12579 0.27427 0
0.22736 0.2693 0
0.32349 0.27103 0
0.46278 0.28279 0
0.69691 0.2954 0
0.8885 0.27638 0
0.97089 0.25712 0
1 0.25389 0
0 0.46989 0
0.11349 0.44643 0
0.2234 0.42782 0
0.3289 0.42104 0
0.47554 0.42583 0
0.69847 0.43454 0
0.86423 0.4187 0
0.95597 0.39796 0
1 0.38999 0
0 0.638 0
0.088829 0.6152 0
0.20654 0.58774 0
0.32643 0.57205 0
0.48079 0.57155 0
0.69244 0.56131 0
0.847 0.5424 0
0.94041 0.5284 0
1 0.51871 0
0 0.76791 0
0.063914 0.76273 0
0.17864 0.74653 0
0.31425 0.73045 0
0.47654 0.71878 0
0.671 0.69322 0
0.83012 0.66268 0
0.93035 0.64817 0
1 0.64188 0
0 0.86223 0
0.05798 0.8691 0
0.16305 0.87048 0
0.29998 0.86952 0
0.45731 0.85685 0
0.64049 0.82525 0
0.80463 0.78994 0
0.91905 0.77267 0
1 0.76736 0
0 0.93667 0
0.064701 0.9462 0
0.16619 0.95311 0
0.29659 0.95894 0
0.44299 0.95637 0
0.61243 0.93551 0
0.78002 0.90746 0
0.91113 0.89786 0
1 0.89983 0
0 1 0
0.073457 1 0
0.17463 1 0
0.30001 1 0
0.43986 1 0
0.59856 1 0
0.76467 1 0
0.90848 1 0
1 1 0
0 0 0.12721
0.10326 0.017531 0.11434
0.2033 0.030356 0.11337
0.31098 0.030025 0.1204
0.44611 0.01132 0.11699
0.6532 0 0.078483
0.90192 0 0.029488
0.98719 0 0.026991
1 0 0.042077
0.00059421 0.11361 0.13026
0.12462 0.12423 0.12437
0.22044 0.14305 0.12794
0.31353 0.15935 0.13996
0.4293 0.16698 0.14447
0.62786 0.15396 0.09939
0.8978 0.13067 0.030343
0.99339 0.11389 0.028206
1 0.11496 0.044189
0 0.26363 0.13022
0.13109 0.24411 0.1282
0.23987 0.24629 0.13491
0.33355 0.26155 0.15418
0.44113 0.28117 0.16689
0.63306 0.30245 0.12691
0.87835 0.30119 0.056898
0.98568 0.2762 0.047743
1 0.27044 0.06243
0 0.45537 0.12157
0.11011 0.41928 0.11183
0.23762 0.39065 0.11608
0.34706 0.38208 0.14149
0.46172 0.39008 0.16092
0.65987 0.4171 0.12277
0.86441 0.42084 0.072765
0.97027 0.40495 0.066603
1 0.39859 0.078876
0 0.63829 0.10639
0.077282 0.61359 0.090176
0.21212 0.57108 0.083657
0.34037 0.54043 0.10119
0.47311 0.52881 0.11922
0.67643 0.53363 0.093034
0.85603 0.52591 0.065327
0.95864 0.51434 0.06549
1 0.50704 0.078951
0 0.77188 0.095024
0.052509 0.77241 0.080818
0.17454 0.74957 0.065356
0.31771 0.7182 0.061446
0.46859 0.69785 0.064528
0.66217 0.6784 0.051952
0.84002 0.64688 0.04332
0.94893 0.6309 0.047588
1 0.62442 0.062458
0 0.86768 0.091213
0.050928 0.87769 0.079789
0.15574 0.87797 0.064575
0.29617 0.87214 0.044966
0.45097 0.85771 0.032459
0.62846 0.83051 0.028048
0.80846 0.78863 0.024623
0.93769 0.76723 0.030506
1 0.76026 0.045934
0 0.93756 0.092623
0.05824 0.94954 0.080853
0.15768 0.95771 0.064824
0.29122 0.96489 0.04491
0.43563 0.96585 0.030752
0.59935 0.94938 0.027722
0.77914 0.91962 0.024685
0.9294 0.90795 0.027565
1 0.90497 0.038322
0 1 0.096235
0.066756 1 0.083752
0.16673 1 0.067732
0.29638 1 0.051548
0.43271 1 0.041561
0.58522 1 0.03892
0.76289 1 0.036556
0.92641 1 0.0357
1 1 0.040372
0 0 0.29362
0.083403 0.018159 0.25074
0.2002 0.036092 0.22428
0.31977 0.038318 0.22284
0.44325 0.023328 0.23157
0.60685 0 0.22375
0.8407 0 0.16896
0.99287 0 0.12004
1 0 0.13193
0 0.1215 0.29878
0.10867 0.13778 0.25327
0.22134 0.16046 0.23408
0.32708 0.18129 0.23867
0.43309 0.19405 0.25294
0.57621 0.19239 0.2544
0.82178 0.16922 0.19353
0.99829 0.14064 0.12737
1 0.13519 0.13391
0 0.26425 0.3049
0.12114 0.25334 0.26855
0.24562 0.25804 0.25379
0.35207 0.27818 0.26228
0.4501 0.29978 0.27987
0.58339 0.3183 0.28365
0.80957 0.33019 0.22004
0.98085 0.3066 0.15622
1 0.29112 0.15503
0 0.44078 0.29589
0.10263 0.40823 0.27581
0.24533 0.3757 0.26432
0.36923 0.36987 0.27319
0.47127 0.38269 0.29148
0.60835 0.40503 0.29272
0.81659 0.42642 0.22428
0.9636 0.41823 0.17447
1 0.40801 0.16823
0 0.61834 0.27683
0.064532 0.59373 0.26691
0.21016 0.53988 0.25712
0.36041 0.49825 0.26364
0.48382 0.48636 0.28535
0.63294 0.49741 0.28427
0.82418 0.51268 0.21977
0.95484 0.50643 0.17894
1 0.50116 0.17115
0 0.75582 0.25424
0.039961 0.75625 0.24658
0.16032 0.7249 0.2352
0.3246 0.67367 0.23131
0.47583 0.64015 0.25147
0.63987 0.6277 0.25221
0.82107 0.6159 0.20413
0.9482 0.60745 0.17084
1 0.60601 0.16448
0 0.85753 0.23175
0.038079 0.86856 0.22177
0.13462 0.86473 0.20461
0.28613 0.8442 0.18454
0.45182 0.8149 0.19035
0.62302 0.78906 0.19443
0.80071 0.75875 0.17234
0.94224 0.74097 0.1506
1 0.74009 0.14905
0 0.93253 0.22242
0.045781 0.94663 0.21002
0.13258 0.95537 0.18852
0.27476 0.96156 0.15623
0.4314 0.95979 0.14355
0.59438 0.94199 0.14341
0.77071 0.91218 0.13767
0.93406 0.8945 0.12658
1 0.8883 0.12916
0 0.99956 0.22583
0.055456 1 0.21205
0.14216 1 0.18871
0.28172 1 0.15552
0.4292 1 0.14039
0.57927 1 0.13715
0.74722 1 0.1312
0.92365 1 0.11735
1 1 0.11734
0 0 0.50003
0.046192 0.00039484 0.46456
0.17302 0.012655 0.41693
0.32221 0.020622 0.37987
0.45817 0.0092307 0.38339
0.60362 0 0.40857
0.79008 0 0.4113
0.97113 0 0.36202
1 0 0.35005
0 0.1292 0.50634
0.061784 0.13898 0.45039
0.19703 0.1668 0.38394
0.33141 0.19477 0.35394
0.45191 0.20935 0.36258
0.58311 0.20733 0.3882
0.76892 0.18967 0.39839
0.96366 0.15798 0.35835
1 0.14393 0.33167
0 0.26415 0.51982
0.072898 0.26582 0.45696
0.22301 0.27703 0.38852
0.35659 0.29576 0.36222
0.46725 0.31585 0.3676
0.58481 0.33003 0.38465
0.74991 0.33312 0.3858
0.94212 0.31285 0.33899
1 0.29391 0.30953
0 0.41658 0.51292
0.064698 0.40953 0.46197
0.22316 0.38806 0.40269
0.3748 0.38032 0.37571
0.48826 0.39468 0.38016
0.60227 0.41235 0.39204
0.75207 0.42636 0.38176
0.92831 0.42268 0.3208
1 0.40822 0.29084
0 0.58163 0.47428
0.046313 0.57324 0.44453
0.1936 0.53414 0.40863
0.36882 0.49344 0.38775
0.50282 0.48636 0.39368
0.62119 0.49804 0.40424
0.76392 0.51265 0.38617
0.91988 0.51262 0.32074
1 0.5036 0.28599
0 0.73014 0.4284
0.030193 0.72976 0.41328
0.14993 0.69745 0.39477
0.33516 0.64242 0.38698
0.49835 0.61127 0.40006
0.63079 0.60571 0.41272
0.77269 0.60975 0.39243
0.91619 0.60862 0.33242
1 0.60572 0.29457
0 0.84205 0.3979
0.026631 0.85166 0.38776
0.11568 0.84081 0.37173
0.28317 0.80258 0.36151
0.47113 0.75971 0.37767
0.62385 0.73444 0.39726
0.77207 0.72666 0.3879
0.91456 0.72547 0.34043
1 0.72948 0.30086
0 0.92753 0.37901
0.033836 0.9422 0.36959
0.10689 0.94788 0.35608
0.25043 0.94292 0.33438
0.43419 0.92356 0.33097
0.60023 0.89418 0.34834
0.762 0.87048 0.35381
0.91256 0.86504 0.3246
1 0.86762 0.29236
0 1 0.37566
0.044317 1 0.36574
0.11624 1 0.35229
0.2528 1 0.32821
0.42376 1 0.31102
0.57986 1 0.31522
0.74013 1 0.31971
0.9027 1 0.30017
1 1 0.27641
0 0.00067523 0.71106
0.026481 0 0.70857
0.14845 0 0.69588
0.31379 0 0.68857
0.47984 0 0.70769
0.62631 0 0.74603
0.78099 0 0.79444
0.92918 0 0.81723
1 0 0.78144
0 0.1321 0.71136
0.02016 0.1311 0.70221
0.14332 0.13689 0.66807
0.30807 0.15384 0.61547
0.46779 0.1615 0.60056
0.61118 0.14183 0.6392
0.77445 0.10145 0.7026
0.94179 0.077392 0.7317
1 0.078509 0.71634
0 0.26184 0.70938
0.018708 0.25912 0.69915
0.1527 0.26477 0.64523
0.32607 0.28876 0.55312
0.47515 0.30909 0.51616
0.60756 0.31346 0.5288
0.75468 0.29856 0.55657
0.92201 0.26493 0.57199
1 0.23959 0.57073
0 0.39531 0.70379
0.012932 0.39276 0.69209
0.15094 0.39031 0.6345
0.33896 0.39109 0.5392
0.49093 0.4054 0.4996
0.61411 0.41966 0.5014
0.74097 0.42274 0.51186
0.88964 0.40351 0.51089
1 0.37817 0.49389
0 0.53359 0.67949
0.007156 0.53077 0.66723
0.14 0.5217 0.61632
0.33639 0.50667 0.53995
0.50387 0.50432 0.50674
0.62588 0.51419 0.50458
0.74141 0.52244 0.50692
0.87323 0.51797 0.49273
1 0.50416 0.46223
0 0.67632 0.63164
0.0054268 0.68111 0.61811
0.12181 0.66704 0.58458
0.32001 0.63571 0.5378
0.50417 0.61731 0.51879
0.63494 0.61564 0.51732
0.74733 0.62117 0.51632
0.87078 0.62409 0.49644
1 0.6214 0.46295
0 0.81085 0.57801
0.0099052 0.82432 0.56719
0.099327 0.81831 0.54581
0.28366 0.78058 0.525
0.48705 0.73985 0.52288
0.63434 0.72194 0.52628
0.75327 0.72103 0.52626
0.87465 0.72721 0.50637
1 0.73374 0.47394
0 0.91819 0.5451
0.020827 0.93487 0.5379
0.090986 0.94394 0.52394
0.2436 0.93442 0.51136
0.44699 0.89541 0.51427
0.61515 0.86261 0.52349
0.7524 0.84665 0.52747
0.88137 0.84709 0.50996
1 0.85392 0.47528
0 1 0.53567
0.035431 1 0.53045
0.10404 1 0.52268
0.23692 1 0.51309
0.41848 1 0.50682
0.58745 1 0.51063
0.73473 1 0.51398
0.87615 1 0.49936
1 0.99864 0.46737
0 0 0.84956
0.036324 0 0.86159
0.17033 0 0.87587
0.34014 0 0.89279
0.50701 0 0.90706
0.66161 0 0.92356
0.82054 0 0.94295
0.94086 0 0.96116
1 0 0.96544
0 0.11885 0.83496
0.023217 0.11538 0.84483
0.14647 0.10458 0.85828
0.31501 0.082772 0.87696
0.49058 0.056754 0.89477
0.64611 0.035073 0.91741
0.81193 0.014882 0.9426
0.94341 0.0097047 0.96335
1 0.015646 0.96809
0 0.25172 0.82094
0.013481 0.25095 0.82994
0.12416 0.2431 0.83194
0.28241 0.22632 0.82755
0.45981 0.21104 0.81889
0.6139 0.18192 0.83857
0.77253 0.12805 0.88936
0.93122 0.085238 0.93207
1 0.078023 0.93951
0 0.3821 0.80921
0.0044476 0.37819 0.81814
0.10915 0.36963 0.81418
0.26939 0.3582 0.78529
0.46061 0.36772 0.72251
0.60861 0.37465 0.69585
0.74899 0.35477 0.71101
0.90566 0.30433 0.75455
1 0.2627 0.78651
0 0.5068 0.79552
0 0.50264 0.80288
0.097765 0.49472 0.79501
0.26567 0.48947 0.75322
0.47065 0.50085 0.67612
0.61801 0.51251 0.63868
0.74439 0.51521 0.63579
0.87489 0.49983 0.64887
1 0.47193 0.66493
0 0.635 0.77338
0 0.63357 0.77951
0.088275 0.62682 0.77086
0.26384 0.61957 0.72856
0.47552 0.62293 0.66371
0.62645 0.62675 0.63093
0.74676 0.63305 0.62627
0.85933 0.6317 0.63228
0.99826 0.61926 0.63243
0 0.76919 0.74546
0 0.78007 0.74532
0.079266 0.77952 0.73557
0.25207 0.76457 0.70651
0.46908 0.74401 0.66475
0.63037 0.7338 0.64131
0.7527 0.73549 0.63914
0.8589 0.74143 0.64223
0.9915 0.73964 0.63005
0 0.89741 0.71987
0.010255 0.91627 0.71718
0.078525 0.93088 0.70826
0.22906 0.93001 0.69064
0.44121 0.8966 0.66948
0.61895 0.86561 0.65656
0.75472 0.85246 0.65839
0.86448 0.85293 0.66037
0.99278 0.85521 0.64114
0 1 0.70557
0.02769 1 0.70635
0.095175 1 0.69956
0.22419 1 0.6858
0.41197 1 0.66915
0.58871 1 0.65917
0.73644 1 0.66185
0.86119 0.99577 0.66435
0.99883 0.99459 0.64719
0 0 0.93068
0.053998 0 0.94216
0.19486 0 0.95282
0.36045 0 0.96337
0.52729 0 0.97047
0.688 0 0.97641
0.85186 0 0.98236
0.955 0 0.98949
1 0 0.99282
0 0.097242 0.91882
0.045783 0.092785 0.93508
0.1771 0.080677 0.95355
0.33981 0.056537 0.96968
0.51329 0.033158 0.97712
0.67911 0.019087 0.98166
0.85103 0.010448 0.98746
0.95935 0.010703 0.99493
1 0.014737 0.99844
0 0.23448 0.90445
0.032294 0.23071 0.92169
0.14411 0.21328 0.93962
0.29611 0.17716 0.95789
0.48141 0.13517 0.971
0.64931 0.10162 0.97938
0.82505 0.071983 0.98911
0.95181 0.056002 0.99896
1 0.053922 1
0 0.36752 0.88989
0.017081 0.36136 0.90642
0.11196 0.34714 0.91866
0.25153 0.31907 0.92624
0.439 0.28427 0.92949
0.60493 0.2488 0.94217
0.77235 0.19883 0.97176
0.92979 0.1537 0.99671
1 0.13641 1
0 0.49431 0.87666
0.0045862 0.48815 0.89201
0.091091 0.47565 0.90032
0.22747 0.45849 0.89734
0.42247 0.45157 0.87262
0.59039 0.45186 0.84566
0.7409 0.4374 0.84981
0.8944 0.38662 0.89596
1 0.33259 0.93725
0 0.62153 0.86566
0 0.61959 0.88084
0.077944 0.61275 0.88754
0.21659 0.60244 0.87717
0.42348 0.6053 0.83449
0.59913 0.61544 0.78243
0.74666 0.62396 0.76252
0.8717 0.61566 0.77444
1 0.58648 0.79783
0 0.75687 0.85736
0.0010279 0.76138 0.87274
0.070373 0.75956 0.87865
0.20909 0.75128 0.86626
0.42106 0.74569 0.82218
0.60583 0.74542 0.7729
0.75418 0.75176 0.75349
0.86366 0.75601 0.75864
0.98436 0.74691 0.76809
0 0.88771 0.85443
0.0097412 0.90285 0.86737
0.071904 0.91439 0.86884
0.20018 0.91803 0.85408
0.40372 0.90085 0.81826
0.60069 0.87765 0.78165
0.75843 0.86644 0.76792
0.86709 0.86865 0.77392
0.97524 0.87152 0.77943
0 1 0.85337
0.02401 1 0.86226
0.085007 1 0.85723
0.20075 1 0.8361
0.38165 1 0.80628
0.57701 1 0.78105
0.74457 1 0.77565
0.86632 0.99389 0.78563
0.9828 0.99685 0.79231
0 0 0.97397
0.075407 0 0.98278
0.21744 0 0.99178
0.37649 0 0.99729
0.53609 0 0.99809
0.69276 0 0.99827
0.85147 0 0.99837
0.95547 0 1
1 0 1
0 0.086737 0.9733
0.071547 0.087502 0.98788
0.20009 0.081177 1
0.35506 0.059242 1
0.52169 0.03516 1
0.69044 0.020086 1
0.85853 0.014512 1
0.96356 0.016248 1
1 0.021196 1
0 0.21989 0.97144
0.061182 0.21353 0.99042
0.17441 0.19527 1
0.31649 0.16255 1
0.49045 0.12305 1
0.667 0.090404 1
0.84816 0.068548 1
0.96377 0.059733 1
1 0.061972 1
0 0.35208 0.96424
0.04246 0.34386 0.98544
0.13852 0.32487 1
0.27127 0.28945 1
0.45136 0.24605 1
0.62809 0.20881 1
0.81217 0.17195 1
0.95014 0.14475 1
1 0.13743 1
0 0.48295 0.95265
0.02473 0.47442 0.97468
0.10681 0.45718 0.99373
0.23161 0.43002 1
0.41539 0.39914 1
0.59344 0.36919 1
0.75982 0.33184 1
0.91601 0.28928 1
1 0.26382 1
0 0.61626 0.94294
0.014472 0.61491 0.96386
0.084067 0.60687 0.9794
0.20515 0.58895 0.99041
0.39266 0.57306 0.99138
0.57075 0.55403 0.98583
0.73184 0.5354 0.99523
0.88376 0.50225 1
1 0.46057 1
0 0.75763 0.93786
0.014206 0.76138 0.95824
0.074565 0.75957 0.97269
0.19069 0.75009 0.98029
0.37849 0.73722 0.97041
0.56469 0.73201 0.93529
0.74075 0.74143 0.8985
0.87756 0.73981 0.90335
1 0.71315 0.94418
0 0.89504 0.94064
0.018877 0.90424 0.95814
0.073882 0.90838 0.96871
0.18211 0.90759 0.97224
0.36249 0.89247 0.95902
0.56271 0.87842 0.92113
0.74929 0.87672 0.88346
0.87884 0.88105 0.8811
0.98811 0.8817 0.90123
0 1 0.94525
0.026722 1 0.9578
0.08019 1 0.96222
0.18089 1 0.95804
0.34866 1 0.94163
0.54981 1 0.91284
0.74191 1 0.89038
0.88066 1 0.89291
0.99157 1 0.90906
0 0.00043044 1
0.10754 0.002287 1
0.24287 0.0019933 1
0.38583 0 1
0.53167 0 1
0.67845 0 1
0.83144 0 1
0.94481 0 1
1 0.0037579 1
0.00044868 0.095674 1
0.10035 0.10011 1
0.22274 0.093847 1
0.36646 0.073338 1
0.52037 0.050919 1
0.68228 0.034318 1
0.84474 0.028032 1
0.95601 0.029138 1
1 0.034378 1
0.00051994 0.21894 1
0.090124 0.21431 1
0.19721 0.20002 1
0.33088 0.17166 1
0.49331 0.13644 1
0.66767 0.1067 1
0.8445 0.087839 1
0.96099 0.080494 1
1 0.083824 1
0 0.34394 1
0.072928 0.33647 1
0.16899 0.31816 1
0.29326 0.28871 1
0.45833 0.2547 1
0.6365 0.22349 1
0.82225 0.1915 1
0.95241 0.16895 1
1 0.16321 1
0 0.47176 1
0.053488 0.46172 1
0.13805 0.44383 1
0.25816 0.41792 1
0.4305 0.38726 1
0.60622 0.36099 1
0.78307 0.33015 1
0.92656 0.29755 1
1 0.28136 1
0 0.61198 1
0.036095 0.60786 1
0.10668 0.59488 1
0.22589 0.56946 1
0.40134 0.54037 1
0.58097 0.50756 1
0.75061 0.48189 1
0.89666 0.45435 1
1 0.4327 1
0 0.75829 1
0.031179 0.75933 1
0.08987 0.75429 1
0.19894 0.74105 1
0.37094 0.71772 1
0.5522 0.68739 1
0.72985 0.65933 1
0.88021 0.64124 1
1 0.62254 1
0 0.89865 1
0.031706 0.90088 1
0.085419 0.89789 1
0.18476 0.8917 1
0.34897 0.87638 1
0.53299 0.85857 1
0.72256 0.85221 1
0.88156 0.84923 1
1 0.83317 1
0 1 1
0.035302 1 1
0.086898 1 1
0.18119 1 1
0.33672 1 1
0.52342 1 1
0.72371 1 1
0.88513 1 1
1 1 1
