a - Ai/luts/Haibane Renmei OUT.cube
LUT_3D_SIZE 5
0 0 0
0.19864 0.01951 0.0025381
0.47304 0 0
0.91086 0 0
1 0.0010806 0
0 0.28435 0
0.22736 0.2693 0
0.46278 0.28279 0
0.8885 0.27638 0
1 0.25389 0
0 0.638 0
0.20654 0.58774 0
0.48079 0.57155 0
0.847 0.5424 0
1 0.51871 0
0 0.86223 0
0.16305 0.87048 0
0.45731 0.85685 0
0.80463 0.78994 0
1 0.76736 0
0 1 0
0.17463 1 0
0.43986 1 0
0.76467 1 0
1 1 0
0 0 0.29362
0.2002 0.036092 0.22428
0.44325 0.023328 0.23157
0.8407 0 0.16896
1 0 0.13193
0 0.26425 0.3049
0.24562 0.25804 0.25379
0.4501 0.29978 0.27987
0.80957 0.33019 0.22004
1 0.29112 0.15503
0 0.61834 0.27683
0.21016 0.53988 0.25712
0.48382 0.48636 0.28535
0.82418 0.51268 0.21977
1 0.50116 0.17115
0 0.85753 0.23175
0.13462 0.86473 0.20461
0.45182 0.8149 0.19035
0.80071 0.75875 0.17234
1 0.74009 0.14905
0 0.99956 0.22583
0.14216 1 0.18871
0.4292 1 0.14039
0.74722 1 0.1312
1 1 0.11734
0 0.00067523 0.71106
0.14845 0 0.69588
0.47984 0 0.70769
0.78099 0 0.79444
1 0 0.78144
0 0.26184 0.70938
0.1527 0.26477 0.64523
0.47515 0.30909 0.51616
0.75468 0.29856 0.55657
1 0.23959 0.57073
0 0.53359 0.67949
0.14 0.5217 0.61632
0.50387 0.50432 0.50674
0.74141 0.52244 0.50692
1 0.50416 0.46223
0 0.81085 0.57801
0.099327 0.81831 0.54581
0.48705 0.73985 0.52288
0.75327 0.72103 0.52626
1 0.73374 0.47394
0 1 0.53567
0.10404 1 0.52268
0.41848 1 0.50682
0.73473 1 0.51398
1 0.99864 0.46737
0 0 0.93068
0.19486 0 0.95282
0.52729 0 0.97047
0.85186 0 0.98236
1 0 0.99282
0 0.23448 0.90445
0.14411 0.21328 0.93962
0.48141 0.13517 0.971
0.82505 0.071983 0.98911
1 0.053922 1
0 0.49431 0.87666
0.091091 0.47565 0.90032
0.42247 0.45157 0.87262
0.7409 0.4374 0.84981
1 0.33259 0.93725
0 0.75687 0.85736
0.070373 0.75956 0.87865
0.42106 0.74569 0.82218
0.75418 0.75176 0.75349
0.98436 0.74691 0.76809
0 1 0.85337
0.085007 1 0.85723
0.38165 1 0.80628
0.74457 1 0.77565
0.9828 0.99685 0.79231
0 0.00043044 1
0.24287 0.0019933 1
0.53167 0 1
0.83144 0 1
1 0.0037579 1
0.00051994 0.21894 1
0.19721 0.20002 1
0.49331 0.13644 1
0.8445 0.087839 1
1 0.083824 1
0 0.47176 1
0.13805 0.44383 1
0.4305 0.38726 1
0.78307 0.33015 1
1 0.28136 1
0 0.75829 1
0.08987 0.75429 1
0.37094 0.71772 1
0.72985 0.65933 1
1 0.62254 1
0 1 1
0.086898 1 1
0.33672 1 1
0.72371 1 1
1 1 1
